%
(Header)
(Generated by gcodetools from Inkscape.)
(Using default header. To add your own header create file "header" in the output dir.)
M3
(Header end.)
G21 (All units in mm)

(Start cutting path id: path1154)
(Change tool to Default tool)

G00 Z5.000000
G00 X2.756570 Y1.728780

G01 Z-0.125000 F100.0(Penetrate)
G01 X2.747470 Y1.728480 Z-0.125000 F400.000000
G01 X2.738870 Y1.728210 Z-0.125000
G01 X2.729070 Y1.728310 Z-0.125000
G01 X2.720070 Y1.728240 Z-0.125000
G01 X2.711270 Y1.728030 Z-0.125000
G01 X2.703070 Y1.727930 Z-0.125000
G01 X2.691650 Y1.729930 Z-0.125000
G01 X2.691632 Y1.739930 Z-0.125000
G01 X2.693132 Y1.748930 Z-0.125000
G01 X2.695332 Y1.759130 Z-0.125000
G01 X2.695153 Y1.769330 Z-0.125000
G01 X2.695280 Y1.779330 Z-0.125000
G01 X2.695098 Y1.789430 Z-0.125000
G01 X2.694954 Y1.799430 Z-0.125000
G01 X2.694281 Y1.809830 Z-0.125000
G01 X2.694858 Y1.818830 Z-0.125000
G01 X2.694187 Y1.829930 Z-0.125000
G01 X2.694057 Y1.838930 Z-0.125000
G01 X2.694757 Y1.847930 Z-0.125000
G01 X2.696157 Y1.857930 Z-0.125000
G01 X2.695773 Y1.868430 Z-0.125000
G01 X2.695692 Y1.878430 Z-0.125000
G01 X2.697992 Y1.888430 Z-0.125000
G01 X2.697141 Y1.899530 Z-0.125000
G01 X2.698141 Y1.908530 Z-0.125000
G01 X2.697818 Y1.919330 Z-0.125000
G01 X2.697629 Y1.929330 Z-0.125000
G01 X2.697251 Y1.939530 Z-0.125000
G01 X2.697822 Y1.948530 Z-0.125000
G01 X2.697202 Y1.960330 Z-0.125000
G01 X2.698502 Y1.968330 Z-0.125000
G01 X2.697623 Y1.979530 Z-0.125000
G01 X2.697666 Y1.988530 Z-0.125000
G01 X2.698177 Y1.998530 Z-0.125000
G01 X2.699071 Y2.008530 Z-0.125000
G01 X2.698787 Y2.018830 Z-0.125000
G01 X2.698343 Y2.029230 Z-0.125000
G01 X2.698426 Y2.038230 Z-0.125000
G01 X2.697742 Y2.049030 Z-0.125000
G01 X2.697163 Y2.059330 Z-0.125000
G01 X2.697547 Y2.068330 Z-0.125000
G01 X2.697060 Y2.078830 Z-0.125000
G01 X2.696781 Y2.088830 Z-0.125000
G01 X2.696466 Y2.098830 Z-0.125000
G01 X2.697323 Y2.108830 Z-0.125000
G01 X2.697263 Y2.118830 Z-0.125000
G01 X2.698148 Y2.128830 Z-0.125000
G01 X2.697716 Y2.138930 Z-0.125000
G01 X2.696880 Y2.149830 Z-0.125000
G01 X2.697821 Y2.157830 Z-0.125000
G01 X2.696721 Y2.169730 Z-0.125000
G01 X2.697337 Y2.177730 Z-0.125000
G01 X2.696628 Y2.188430 Z-0.125000
G01 X2.696335 Y2.197430 Z-0.125000
G01 X2.695508 Y2.207930 Z-0.125000
G01 X2.695586 Y2.216930 Z-0.125000
G01 X2.694709 Y2.227330 Z-0.125000
G01 X2.694016 Y2.237330 Z-0.125000
G01 X2.693450 Y2.247330 Z-0.125000
G01 X2.692599 Y2.257330 Z-0.125000
G01 X2.692245 Y2.267330 Z-0.125000
G01 X2.701145 Y2.268330 Z-0.125000
G01 X2.710945 Y2.268030 Z-0.125000
G01 X2.721205 Y2.267830 Z-0.125000
G01 X2.729605 Y2.267490 Z-0.125000
G01 X2.738305 Y2.269490 Z-0.125000
G01 X2.747805 Y2.268490 Z-0.125000
G01 X2.756605 Y2.267860 Z-0.125000
G01 X2.758105 Y2.257860 Z-0.125000
G01 X2.759092 Y2.247460 Z-0.125000
G01 X2.760692 Y2.237460 Z-0.125000
G01 X2.760923 Y2.227460 Z-0.125000
G01 X2.760211 Y2.218460 Z-0.125000
G01 X2.760654 Y2.207760 Z-0.125000
G01 X2.760520 Y2.197760 Z-0.125000
G01 X2.761018 Y2.187560 Z-0.125000
G01 X2.762518 Y2.177360 Z-0.125000
G01 X2.762695 Y2.167360 Z-0.125000
G01 X2.764495 Y2.157360 Z-0.125000
G01 X2.764301 Y2.147360 Z-0.125000
G01 X2.763593 Y2.138360 Z-0.125000
G01 X2.762917 Y2.128360 Z-0.125000
G01 X2.763008 Y2.117760 Z-0.125000
G01 X2.763239 Y2.107760 Z-0.125000
G01 X2.763404 Y2.097760 Z-0.125000
G01 X2.762908 Y2.088760 Z-0.125000
G01 X2.762533 Y2.078760 Z-0.125000
G01 X2.762619 Y2.068460 Z-0.125000
G01 X2.762679 Y2.058360 Z-0.125000
G01 X2.762809 Y2.048360 Z-0.125000
G01 X2.762378 Y2.039360 Z-0.125000
G01 X2.762511 Y2.028160 Z-0.125000
G01 X2.762180 Y2.019160 Z-0.125000
G01 X2.761985 Y2.008260 Z-0.125000
G01 X2.761813 Y1.998260 Z-0.125000
G01 X2.761246 Y1.988260 Z-0.125000
G01 X2.761331 Y1.977760 Z-0.125000
G01 X2.761530 Y1.967760 Z-0.125000
G01 X2.761482 Y1.957760 Z-0.125000
G01 X2.760908 Y1.948760 Z-0.125000
G01 X2.760375 Y1.939760 Z-0.125000
G01 X2.760344 Y1.928760 Z-0.125000
G01 X2.759954 Y1.919760 Z-0.125000
G01 X2.759178 Y1.909760 Z-0.125000
G01 X2.758821 Y1.899160 Z-0.125000
G01 X2.758148 Y1.889160 Z-0.125000
G01 X2.757383 Y1.880160 Z-0.125000
G01 X2.757537 Y1.869060 Z-0.125000
G01 X2.757245 Y1.859060 Z-0.125000
G01 X2.757157 Y1.848960 Z-0.125000
G01 X2.758457 Y1.838660 Z-0.125000
G01 X2.758288 Y1.828660 Z-0.125000
G01 X2.757982 Y1.819660 Z-0.125000
G01 X2.757679 Y1.809460 Z-0.125000
G01 X2.757138 Y1.800460 Z-0.125000
G01 X2.756863 Y1.790460 Z-0.125000
G01 X2.756906 Y1.778860 Z-0.125000
G01 X2.757811 Y1.768860 Z-0.125000
G01 X2.758193 Y1.758760 Z-0.125000
G01 X2.758780 Y1.748760 Z-0.125000
G01 X2.758458 Y1.738560 Z-0.125000
G01 X2.756570 Y1.728780 Z-0.125000
G00 Z5.000000

(End cutting path id: path1154)


(Start cutting path id: path1152)
(Change tool to Default tool)

G00 Z5.000000
G00 X2.563502 Y1.728220

G01 Z-0.125000 F100.0(Penetrate)
G01 X2.553902 Y1.728680 Z-0.125000 F400.000000
G01 X2.546502 Y1.728260 Z-0.125000
G01 X2.535062 Y1.728900 Z-0.125000
G01 X2.526362 Y1.728720 Z-0.125000
G01 X2.517662 Y1.728500 Z-0.125000
G01 X2.507362 Y1.729150 Z-0.125000
G01 X2.498462 Y1.728470 Z-0.125000
G01 X2.498403 Y1.738470 Z-0.125000
G01 X2.498801 Y1.748470 Z-0.125000
G01 X2.499733 Y1.758470 Z-0.125000
G01 X2.502433 Y1.768470 Z-0.125000
G01 X2.502080 Y1.778870 Z-0.125000
G01 X2.501506 Y1.788970 Z-0.125000
G01 X2.501398 Y1.799070 Z-0.125000
G01 X2.501478 Y1.808070 Z-0.125000
G01 X2.502340 Y1.818070 Z-0.125000
G01 X2.502235 Y1.828270 Z-0.125000
G01 X2.501637 Y1.839470 Z-0.125000
G01 X2.501472 Y1.848470 Z-0.125000
G01 X2.500991 Y1.859270 Z-0.125000
G01 X2.501003 Y1.868270 Z-0.125000
G01 X2.500874 Y1.878270 Z-0.125000
G01 X2.500223 Y1.888770 Z-0.125000
G01 X2.503023 Y1.897770 Z-0.125000
G01 X2.502780 Y1.907970 Z-0.125000
G01 X2.502779 Y1.917970 Z-0.125000
G01 X2.503879 Y1.927970 Z-0.125000
G01 X2.503050 Y1.939770 Z-0.125000
G01 X2.503135 Y1.947770 Z-0.125000
G01 X2.503430 Y1.957770 Z-0.125000
G01 X2.503048 Y1.968170 Z-0.125000
G01 X2.503581 Y1.977170 Z-0.125000
G01 X2.503240 Y1.987970 Z-0.125000
G01 X2.505140 Y1.996970 Z-0.125000
G01 X2.504676 Y2.007670 Z-0.125000
G01 X2.505347 Y2.016670 Z-0.125000
G01 X2.505729 Y2.026770 Z-0.125000
G01 X2.505398 Y2.037370 Z-0.125000
G01 X2.504896 Y2.047370 Z-0.125000
G01 X2.506696 Y2.056370 Z-0.125000
G01 X2.506051 Y2.067370 Z-0.125000
G01 X2.504951 Y2.077570 Z-0.125000
G01 X2.505519 Y2.086570 Z-0.125000
G01 X2.504755 Y2.097670 Z-0.125000
G01 X2.506055 Y2.106670 Z-0.125000
G01 X2.505278 Y2.117570 Z-0.125000
G01 X2.505665 Y2.126570 Z-0.125000
G01 X2.505169 Y2.136970 Z-0.125000
G01 X2.504605 Y2.147670 Z-0.125000
G01 X2.503812 Y2.156670 Z-0.125000
G01 X2.503198 Y2.166670 Z-0.125000
G01 X2.503732 Y2.175670 Z-0.125000
G01 X2.503562 Y2.186070 Z-0.125000
G01 X2.503008 Y2.196070 Z-0.125000
G01 X2.503021 Y2.206070 Z-0.125000
G01 X2.502218 Y2.216170 Z-0.125000
G01 X2.501676 Y2.226170 Z-0.125000
G01 X2.502268 Y2.236170 Z-0.125000
G01 X2.502579 Y2.246270 Z-0.125000
G01 X2.500279 Y2.256770 Z-0.125000
G01 X2.498579 Y2.265770 Z-0.125000
G01 X2.508939 Y2.265520 Z-0.125000
G01 X2.517039 Y2.265580 Z-0.125000
G01 X2.526339 Y2.265580 Z-0.125000
G01 X2.535039 Y2.266230 Z-0.125000
G01 X2.544639 Y2.266420 Z-0.125000
G01 X2.554239 Y2.266080 Z-0.125000
G01 X2.563139 Y2.266220 Z-0.125000
G01 X2.563115 Y2.256220 Z-0.125000
G01 X2.564215 Y2.245820 Z-0.125000
G01 X2.563502 Y2.237820 Z-0.125000
G01 X2.563979 Y2.226320 Z-0.125000
G01 X2.564321 Y2.216320 Z-0.125000
G01 X2.564083 Y2.207320 Z-0.125000
G01 X2.565783 Y2.196920 Z-0.125000
G01 X2.565158 Y2.188920 Z-0.125000
G01 X2.566068 Y2.177420 Z-0.125000
G01 X2.566150 Y2.167420 Z-0.125000
G01 X2.566030 Y2.157420 Z-0.125000
G01 X2.565705 Y2.147420 Z-0.125000
G01 X2.565227 Y2.138420 Z-0.125000
G01 X2.565877 Y2.127520 Z-0.125000
G01 X2.565959 Y2.117520 Z-0.125000
G01 X2.566397 Y2.107420 Z-0.125000
G01 X2.566162 Y2.097420 Z-0.125000
G01 X2.567262 Y2.086920 Z-0.125000
G01 X2.566641 Y2.077920 Z-0.125000
G01 X2.566779 Y2.067020 Z-0.125000
G01 X2.566831 Y2.057020 Z-0.125000
G01 X2.566848 Y2.047020 Z-0.125000
G01 X2.567801 Y2.036820 Z-0.125000
G01 X2.567549 Y2.028820 Z-0.125000
G01 X2.567361 Y2.017320 Z-0.125000
G01 X2.566572 Y2.008320 Z-0.125000
G01 X2.566350 Y1.997720 Z-0.125000
G01 X2.566630 Y1.987620 Z-0.125000
G01 X2.567830 Y1.977320 Z-0.125000
G01 X2.569130 Y1.967320 Z-0.125000
G01 X2.569364 Y1.957220 Z-0.125000
G01 X2.568625 Y1.948220 Z-0.125000
G01 X2.568612 Y1.937620 Z-0.125000
G01 X2.568357 Y1.927620 Z-0.125000
G01 X2.568044 Y1.917520 Z-0.125000
G01 X2.568642 Y1.907120 Z-0.125000
G01 X2.567983 Y1.899120 Z-0.125000
G01 X2.567726 Y1.887920 Z-0.125000
G01 X2.570226 Y1.877920 Z-0.125000
G01 X2.569702 Y1.867820 Z-0.125000
G01 X2.569651 Y1.857720 Z-0.125000
G01 X2.568790 Y1.848720 Z-0.125000
G01 X2.569242 Y1.838020 Z-0.125000
G01 X2.568501 Y1.829020 Z-0.125000
G01 X2.568336 Y1.818320 Z-0.125000
G01 X2.568390 Y1.808320 Z-0.125000
G01 X2.567683 Y1.800320 Z-0.125000
G01 X2.566735 Y1.789320 Z-0.125000
G01 X2.567093 Y1.778920 Z-0.125000
G01 X2.567672 Y1.768920 Z-0.125000
G01 X2.566372 Y1.759920 Z-0.125000
G01 X2.565072 Y1.749920 Z-0.125000
G01 X2.564624 Y1.739420 Z-0.125000
G01 X2.563502 Y1.728220 Z-0.125000
G00 Z5.000000

(End cutting path id: path1152)


(Start cutting path id: path1150)
(Change tool to Default tool)

G00 Z5.000000
G00 X2.399315 Y1.914340

G01 Z-0.125000 F100.0(Penetrate)
G01 X2.389815 Y1.914070 Z-0.125000 F400.000000
G01 X2.379505 Y1.916070 Z-0.125000
G01 X2.370305 Y1.915990 Z-0.125000
G01 X2.362805 Y1.915780 Z-0.125000
G01 X2.351875 Y1.915360 Z-0.125000
G01 X2.340405 Y1.915850 Z-0.125000
G01 X2.331905 Y1.915730 Z-0.125000
G01 X2.320755 Y1.916460 Z-0.125000
G01 X2.313255 Y1.915880 Z-0.125000
G01 X2.301685 Y1.915890 Z-0.125000
G01 X2.291985 Y1.916890 Z-0.125000
G01 X2.284285 Y1.916430 Z-0.125000
G01 X2.272435 Y1.916260 Z-0.125000
G01 X2.262535 Y1.916160 Z-0.125000
G01 X2.253835 Y1.915730 Z-0.125000
G01 X2.242615 Y1.916730 Z-0.125000
G01 X2.235515 Y1.916360 Z-0.125000
G01 X2.223545 Y1.916080 Z-0.125000
G01 X2.213645 Y1.917080 Z-0.125000
G01 X2.203845 Y1.919080 Z-0.125000
G01 X2.194145 Y1.918530 Z-0.125000
G01 X2.183755 Y1.919530 Z-0.125000
G01 X2.173605 Y1.919600 Z-0.125000
G01 X2.164305 Y1.920450 Z-0.125000
G01 X2.155105 Y1.918450 Z-0.125000
G01 X2.144345 Y1.918070 Z-0.125000
G01 X2.135545 Y1.916070 Z-0.125000
G01 X2.125445 Y1.915070 Z-0.125000
G01 X2.115945 Y1.914070 Z-0.125000
G01 X2.116004 Y1.912948 Z-0.125000
G02 X2.116034 Y1.911804 Z-0.125000 I-0.052893 J-0.001971
G02 X2.116042 Y1.910660 Z-0.125000 I-0.068920 J-0.001077
G02 X2.116037 Y1.909445 Z-0.125000 I-0.162278 J0.000158
G02 X2.116025 Y1.908230 Z-0.125000 I-0.414813 J0.003510
G03 X2.116013 Y1.906898 Z-0.125000 I0.271836 J-0.003096
G03 X2.116009 Y1.905566 Z-0.125000 I0.166477 J-0.001081
G03 X2.116022 Y1.904070 Z-0.125000 I0.108895 J0.000165
G03 X2.116151 Y1.901763 Z-0.125000 I0.175919 J0.008679
G03 X2.116332 Y1.899070 Z-0.125000 I0.298053 J0.018626
G03 X2.116536 Y1.896379 Z-0.125000 I0.320090 J0.022909
G03 X2.116731 Y1.894070 Z-0.125000 I0.250043 J0.020011
G02 X2.116875 Y1.892952 Z-0.125000 I-0.076227 J-0.010418
G02 X2.116986 Y1.891976 Z-0.125000 I-0.061420 J-0.007479
G02 X2.117081 Y1.890999 Z-0.125000 I-0.058281 J-0.006160
G02 X2.117157 Y1.890070 Z-0.125000 I-0.059606 J-0.005292
G02 X2.117218 Y1.889140 Z-0.125000 I-0.065011 J-0.004752
G02 X2.117270 Y1.888164 Z-0.125000 I-0.090944 J-0.005342
G02 X2.117313 Y1.887187 Z-0.125000 I-0.119263 J-0.005722
G02 X2.117355 Y1.886070 Z-0.125000 I-0.272599 J-0.010841
G01 X2.117623 Y1.884942 Z-0.125000
G03 X2.117961 Y1.883661 Z-0.125000 I0.100516 J0.025819
G03 X2.118308 Y1.882382 Z-0.125000 I0.471635 J0.127585
G02 X2.118663 Y1.881045 Z-0.125000 I-0.085695 J-0.023432
G02 X2.118990 Y1.879702 Z-0.125000 I-0.054315 J-0.013946
G01 X2.119261 Y1.878392 Z-0.125000
G01 X2.119372 Y1.877736 Z-0.125000
G01 X2.119459 Y1.877104 Z-0.125000
G01 X2.119522 Y1.876470 Z-0.125000
G01 X2.119555 Y1.875870 Z-0.125000
G01 X2.119707 Y1.875313 Z-0.125000
G01 X2.119903 Y1.874747 Z-0.125000
G01 X2.120132 Y1.874193 Z-0.125000
G01 X2.120394 Y1.873636 Z-0.125000
G01 X2.120985 Y1.872546 Z-0.125000
G01 X2.121629 Y1.871495 Z-0.125000
G03 X2.122302 Y1.870460 Z-0.125000 I0.053402 J0.033998
G02 X2.122901 Y1.869542 Z-0.125000 I-0.056694 J-0.037667
G01 X2.123192 Y1.869081 Z-0.125000
G01 X2.123440 Y1.868665 Z-0.125000
G01 X2.123675 Y1.868240 Z-0.125000
G01 X2.123855 Y1.867870 Z-0.125000
G02 X2.124068 Y1.866752 Z-0.125000 I-0.086493 J-0.017068
G02 X2.124240 Y1.865776 Z-0.125000 I-0.064913 J-0.011941
G02 X2.124397 Y1.864799 Z-0.125000 I-0.059413 J-0.010010
G02 X2.124530 Y1.863870 Z-0.125000 I-0.056268 J-0.008532
G02 X2.124647 Y1.862939 Z-0.125000 I-0.058686 J-0.007911
G02 X2.124757 Y1.861964 Z-0.125000 I-0.073308 J-0.008702
G02 X2.124854 Y1.860986 Z-0.125000 I-0.088586 J-0.009323
G02 X2.124955 Y1.859870 Z-0.125000 I-0.151347 J-0.014242
G01 X2.125089 Y1.858759 Z-0.125000
G01 X2.125280 Y1.857776 Z-0.125000
G01 X2.125535 Y1.856807 Z-0.125000
G01 X2.125836 Y1.855870 Z-0.125000
G01 X2.126172 Y1.854944 Z-0.125000
G03 X2.126551 Y1.853964 Z-0.125000 I0.107356 J0.040945
G02 X2.126934 Y1.852984 Z-0.125000 I-0.525087 J-0.205784
G02 X2.127355 Y1.851870 Z-0.125000 I-0.054962 J-0.021422
G01 X2.127795 Y1.850763 Z-0.125000
G01 X2.128236 Y1.849776 Z-0.125000
G03 X2.128703 Y1.848801 Z-0.125000 I0.049850 J0.023263
G02 X2.129155 Y1.847870 Z-0.125000 I-0.106059 J-0.052057
G01 X2.129591 Y1.846932 Z-0.125000
G01 X2.129999 Y1.845964 Z-0.125000
G01 X2.130350 Y1.844975 Z-0.125000
G01 X2.130655 Y1.843870 Z-0.125000
G01 X2.130887 Y1.843497 Z-0.125000
G01 X2.131191 Y1.843032 Z-0.125000
G01 X2.131501 Y1.842572 Z-0.125000
G03 X2.131866 Y1.842042 Z-0.125000 I0.108328 J0.074084
G03 X2.132606 Y1.840973 Z-0.125000 I0.675068 J0.466547
G02 X2.133443 Y1.839745 Z-0.125000 I-0.073835 J-0.051201
G02 X2.134253 Y1.838501 Z-0.125000 I-0.050076 J-0.033513
G01 X2.135000 Y1.837261 Z-0.125000
G01 X2.135347 Y1.836633 Z-0.125000
G01 X2.135652 Y1.836036 Z-0.125000
G01 X2.135932 Y1.835428 Z-0.125000
G01 X2.136155 Y1.834870 Z-0.125000
G01 X2.136775 Y1.834111 Z-0.125000
G01 X2.137343 Y1.833354 Z-0.125000
G01 X2.137874 Y1.832572 Z-0.125000
G01 X2.138380 Y1.831745 Z-0.125000
G01 X2.138845 Y1.830894 Z-0.125000
G01 X2.139305 Y1.829948 Z-0.125000
G01 X2.139724 Y1.828982 Z-0.125000
G01 X2.140155 Y1.827870 Z-0.125000
G01 X2.141036 Y1.827090 Z-0.125000
G01 X2.141927 Y1.826214 Z-0.125000
G01 X2.142782 Y1.825302 Z-0.125000
G01 X2.143605 Y1.824370 Z-0.125000
G02 X2.144406 Y1.823418 Z-0.125000 I-0.045180 J-0.038855
G02 X2.145133 Y1.822526 Z-0.125000 I-0.077542 J-0.063919
G02 X2.145852 Y1.821627 Z-0.125000 I-0.123833 J-0.099718
G03 X2.146455 Y1.820870 Z-0.125000 I0.187451 J0.148722
G01 X2.147175 Y1.820099 Z-0.125000
G01 X2.147772 Y1.819370 Z-0.125000
G01 X2.148328 Y1.818608 Z-0.125000
G01 X2.148817 Y1.817870 Z-0.125000
G01 X2.149284 Y1.817117 Z-0.125000
G02 X2.149732 Y1.816370 Z-0.125000 I-0.213744 J-0.128592
G03 X2.150181 Y1.815624 Z-0.125000 I0.092648 J0.055300
G01 X2.150655 Y1.814870 Z-0.125000
G01 X2.151362 Y1.814095 Z-0.125000
G01 X2.151927 Y1.813370 Z-0.125000
G01 X2.152455 Y1.812615 Z-0.125000
G03 X2.152955 Y1.811870 Z-0.125000 I0.154648 J0.103305
G01 X2.153467 Y1.811134 Z-0.125000
G01 X2.154058 Y1.810370 Z-0.125000
G01 X2.154704 Y1.809655 Z-0.125000
G01 X2.155555 Y1.808870 Z-0.125000
G03 X2.156466 Y1.808127 Z-0.125000 I0.034140 J0.040968
G03 X2.157427 Y1.807370 Z-0.125000 I0.076494 J0.096020
G03 X2.158393 Y1.806619 Z-0.125000 I0.173701 J0.222554
G02 X2.159355 Y1.805870 Z-0.125000 I-0.111270 J-0.143845
G02 X2.160310 Y1.805111 Z-0.125000 I-0.060335 J-0.076927
G01 X2.161208 Y1.804370 Z-0.125000
G01 X2.162084 Y1.803603 Z-0.125000
G01 X2.162855 Y1.802870 Z-0.125000
G01 X2.163965 Y1.802104 Z-0.125000
G02 X2.164961 Y1.801386 Z-0.125000 I-0.058660 J-0.082313
G02 X2.165952 Y1.800660 Z-0.125000 I-0.457790 J-0.626139
G03 X2.166880 Y1.799995 Z-0.125000 I0.030453 J0.041514
G01 X2.167826 Y1.799358 Z-0.125000
G01 X2.168761 Y1.798792 Z-0.125000
G01 X2.169731 Y1.798292 Z-0.125000
G01 X2.170755 Y1.797870 Z-0.125000
G01 X2.171866 Y1.797187 Z-0.125000
G01 X2.172891 Y1.796683 Z-0.125000
G01 X2.173422 Y1.796458 Z-0.125000
G01 X2.173949 Y1.796253 Z-0.125000
G01 X2.174480 Y1.796059 Z-0.125000
G03 X2.175018 Y1.795870 Z-0.125000 I0.029973 J0.084439
G02 X2.176086 Y1.795495 Z-0.125000 I-0.074458 J-0.214067
G01 X2.177238 Y1.795058 Z-0.125000
G01 X2.178363 Y1.794559 Z-0.125000
G01 X2.179655 Y1.793870 Z-0.125000
G01 X2.180834 Y1.793156 Z-0.125000
G01 X2.181996 Y1.792526 Z-0.125000
G01 X2.183178 Y1.791935 Z-0.125000
G03 X2.184355 Y1.791370 Z-0.125000 I0.100334 J0.207666
G02 X2.185532 Y1.790805 Z-0.125000 I-0.099157 J-0.208230
G01 X2.186714 Y1.790214 Z-0.125000
G01 X2.187876 Y1.789584 Z-0.125000
G01 X2.189055 Y1.788870 Z-0.125000
G01 X2.190204 Y1.788187 Z-0.125000
G01 X2.191261 Y1.787683 Z-0.125000
G01 X2.191808 Y1.787457 Z-0.125000
G01 X2.192346 Y1.787253 Z-0.125000
G01 X2.192888 Y1.787058 Z-0.125000
G03 X2.193430 Y1.786870 Z-0.125000 I0.043697 J0.124961
G02 X2.193973 Y1.786682 Z-0.125000 I-0.112641 J-0.326657
G01 X2.194524 Y1.786487 Z-0.125000
G01 X2.195072 Y1.786283 Z-0.125000
G01 X2.195636 Y1.786058 Z-0.125000
G01 X2.196734 Y1.785555 Z-0.125000
G01 X2.197955 Y1.784870 Z-0.125000
G02 X2.200216 Y1.784114 Z-0.125000 I-0.454669 J-1.364006
G02 X2.202405 Y1.783370 Z-0.125000 I-0.084944 J-0.253432
G02 X2.204587 Y1.782602 Z-0.125000 I-0.058721 J-0.170289
G02 X2.206555 Y1.781870 Z-0.125000 I-0.031878 J-0.088734
G01 X2.207731 Y1.781579 Z-0.125000
G01 X2.208885 Y1.781395 Z-0.125000
G01 X2.210050 Y1.781281 Z-0.125000
G01 X2.211168 Y1.781216 Z-0.125000
G03 X2.212286 Y1.781169 Z-0.125000 I0.006645 J0.143784
G01 X2.213319 Y1.781115 Z-0.125000
G01 X2.213833 Y1.781075 Z-0.125000
G01 X2.214319 Y1.781024 Z-0.125000
G01 X2.214803 Y1.780956 Z-0.125000
G01 X2.215255 Y1.780870 Z-0.125000
G01 X2.215818 Y1.780800 Z-0.125000
G01 X2.216475 Y1.780695 Z-0.125000
G01 X2.217128 Y1.780574 Z-0.125000
G02 X2.217850 Y1.780427 Z-0.125000 I-0.010327 J-0.052491
G02 X2.219301 Y1.780108 Z-0.125000 I-0.018050 J-0.085515
G03 X2.220863 Y1.779754 Z-0.125000 I0.079732 J0.348343
G03 X2.222427 Y1.779415 Z-0.125000 I0.024221 J0.108044
G01 X2.223887 Y1.779139 Z-0.125000
G01 X2.224614 Y1.779026 Z-0.125000
G01 X2.225276 Y1.778943 Z-0.125000
G01 X2.225940 Y1.778888 Z-0.125000
G01 X2.226515 Y1.778870 Z-0.125000
G01 X2.227539 Y1.778729 Z-0.125000
G03 X2.228738 Y1.778590 Z-0.125000 I0.009649 J0.078041
G03 X2.229938 Y1.778467 Z-0.125000 I0.012475 J0.115415
G03 X2.231178 Y1.778348 Z-0.125000 I0.041647 J0.426764
G02 X2.232417 Y1.778230 Z-0.125000 I-0.221350 J-2.338456
G02 X2.233560 Y1.778116 Z-0.125000 I-0.013201 J-0.138674
G02 X2.234704 Y1.777990 Z-0.125000 I-0.008615 J-0.083218
G01 X2.235615 Y1.777870 Z-0.125000
G01 X2.236773 Y1.777770 Z-0.125000
G01 X2.237742 Y1.777797 Z-0.125000
G01 X2.238228 Y1.777845 Z-0.125000
G01 X2.238686 Y1.777908 Z-0.125000
G01 X2.239142 Y1.777983 Z-0.125000
G01 X2.239578 Y1.778062 Z-0.125000
G03 X2.240013 Y1.778144 Z-0.125000 I-0.097883 J0.523168
G01 X2.240436 Y1.778220 Z-0.125000
G01 X2.240861 Y1.778287 Z-0.125000
G01 X2.241282 Y1.778340 Z-0.125000
G01 X2.241705 Y1.778372 Z-0.125000
G01 X2.242135 Y1.778380 Z-0.125000
G01 X2.242564 Y1.778358 Z-0.125000
G01 X2.243015 Y1.778300 Z-0.125000
G01 X2.243575 Y1.778215 Z-0.125000
G01 X2.244138 Y1.778105 Z-0.125000
G01 X2.244697 Y1.777975 Z-0.125000
G01 X2.245267 Y1.777827 Z-0.125000
G01 X2.246398 Y1.777506 Z-0.125000
G03 X2.247603 Y1.777157 Z-0.125000 I0.022938 J0.077098
G01 X2.248814 Y1.776839 Z-0.125000
G01 X2.250145 Y1.776559 Z-0.125000
G01 X2.251488 Y1.776375 Z-0.125000
G01 X2.253015 Y1.776300 Z-0.125000
G01 X2.254121 Y1.776298 Z-0.125000
G02 X2.255520 Y1.776262 Z-0.125000 I-0.001770 J-0.096933
G02 X2.256916 Y1.776210 Z-0.125000 I-0.005550 J-0.169690
G03 X2.258353 Y1.776152 Z-0.125000 I0.048564 J1.185992
G03 X2.259791 Y1.776100 Z-0.125000 I0.009654 J0.242948
G03 X2.261017 Y1.776069 Z-0.125000 I0.002269 J0.067108
G01 X2.261623 Y1.776064 Z-0.125000
G01 X2.262130 Y1.776068 Z-0.125000
G01 X2.262637 Y1.776084 Z-0.125000
G01 X2.263015 Y1.776110 Z-0.125000
G03 X2.265183 Y1.776145 Z-0.125000 I0.000000 J0.066234
G03 X2.267240 Y1.776221 Z-0.125000 I-0.008271 J0.252537
G02 X2.268271 Y1.776263 Z-0.125000 I0.050110 J-1.224907
G02 X2.269287 Y1.776300 Z-0.125000 I0.005380 J-0.134276
G02 X2.270303 Y1.776327 Z-0.125000 I0.002999 J-0.092311
G02 X2.271315 Y1.776340 Z-0.125000 I0.001223 J-0.056941
G01 X2.271788 Y1.776454 Z-0.125000
G01 X2.272309 Y1.776549 Z-0.125000
G01 X2.272834 Y1.776619 Z-0.125000
G01 X2.273396 Y1.776672 Z-0.125000
G01 X2.274531 Y1.776733 Z-0.125000
G02 X2.275740 Y1.776754 Z-0.125000 I0.001612 J-0.057359
G02 X2.276949 Y1.776757 Z-0.125000 I0.001028 J-0.146242
G03 X2.278121 Y1.776766 Z-0.125000 I0.000083 J0.066700
G01 X2.278704 Y1.776780 Z-0.125000
G01 X2.279256 Y1.776803 Z-0.125000
G01 X2.279807 Y1.776839 Z-0.125000
G01 X2.280315 Y1.776890 Z-0.125000
G01 X2.280874 Y1.776951 Z-0.125000
G01 X2.281375 Y1.777039 Z-0.125000
G01 X2.281870 Y1.777159 Z-0.125000
G01 X2.282326 Y1.777295 Z-0.125000
G01 X2.282775 Y1.777453 Z-0.125000
G01 X2.283200 Y1.777619 Z-0.125000
G01 X2.283620 Y1.777796 Z-0.125000
G03 X2.284028 Y1.777973 Z-0.125000 I-0.074429 J0.172419
G02 X2.284435 Y1.778148 Z-0.125000 I0.026092 J-0.060053
G01 X2.284841 Y1.778315 Z-0.125000
G01 X2.285252 Y1.778470 Z-0.125000
G01 X2.285673 Y1.778608 Z-0.125000
G01 X2.286100 Y1.778723 Z-0.125000
G01 X2.286553 Y1.778813 Z-0.125000
G01 X2.287012 Y1.778869 Z-0.125000
G01 X2.287515 Y1.778890 Z-0.125000
G02 X2.288568 Y1.779245 Z-0.125000 I0.097807 J-0.288272
G02 X2.289668 Y1.779603 Z-0.125000 I0.021120 J-0.063004
G01 X2.290775 Y1.779939 Z-0.125000
G01 X2.291915 Y1.780246 Z-0.125000
G01 X2.293065 Y1.780507 Z-0.125000
G01 X2.294237 Y1.780711 Z-0.125000
G01 X2.295417 Y1.780843 Z-0.125000
G01 X2.296615 Y1.780890 Z-0.125000
G01 X2.297698 Y1.781168 Z-0.125000
G03 X2.298810 Y1.781489 Z-0.125000 I-0.020243 J0.072266
G03 X2.299920 Y1.781820 Z-0.125000 I-0.141847 J0.477876
G02 X2.301053 Y1.782145 Z-0.125000 I0.014639 J-0.048900
G01 X2.302193 Y1.782436 Z-0.125000
G01 X2.303351 Y1.782673 Z-0.125000
G01 X2.304520 Y1.782831 Z-0.125000
G01 X2.305715 Y1.782890 Z-0.125000
G02 X2.306696 Y1.783259 Z-0.125000 I0.024701 J-0.064222
G01 X2.307732 Y1.783624 Z-0.125000
G01 X2.308778 Y1.783961 Z-0.125000
G01 X2.309853 Y1.784265 Z-0.125000
G01 X2.310938 Y1.784521 Z-0.125000
G01 X2.312029 Y1.784718 Z-0.125000
G01 X2.313129 Y1.784845 Z-0.125000
G01 X2.314215 Y1.784890 Z-0.125000
G03 X2.316375 Y1.785622 Z-0.125000 I-0.049866 J0.150636
G03 X2.318540 Y1.786375 Z-0.125000 I-0.691970 J1.993816
G02 X2.320707 Y1.787123 Z-0.125000 I0.136703 J-0.392513
G02 X2.323015 Y1.787890 Z-0.125000 I0.044777 J-0.130887
G02 X2.324036 Y1.788256 Z-0.125000 I0.017848 J-0.048191
G02 X2.325168 Y1.788640 Z-0.125000 I0.029893 J-0.086257
G02 X2.326304 Y1.789011 Z-0.125000 I0.039837 J-0.120008
G02 X2.327490 Y1.789390 Z-0.125000 I0.104248 J-0.324267
G02 X2.328676 Y1.789766 Z-0.125000 I0.391420 J-1.232973
G03 X2.329849 Y1.790140 Z-0.125000 I-0.083779 J0.264788
G03 X2.331020 Y1.790521 Z-0.125000 I-0.051134 J0.159156
G03 X2.332115 Y1.790890 Z-0.125000 I-0.026146 J0.079367
G03 X2.333530 Y1.791652 Z-0.125000 I-0.040333 J0.076633
G03 X2.334848 Y1.792390 Z-0.125000 I-0.048197 J0.087591
G03 X2.336156 Y1.793147 Z-0.125000 I-0.055640 J0.097596
G03 X2.337406 Y1.793890 Z-0.125000 I-0.082541 J0.140361
G03 X2.338651 Y1.794642 Z-0.125000 I-0.114060 J0.190053
G03 X2.339876 Y1.795390 Z-0.125000 I-0.531739 J0.872978
G02 X2.341101 Y1.796138 Z-0.125000 I0.605973 J-0.991713
G02 X2.342345 Y1.796890 Z-0.125000 I0.118192 J-0.193966
G01 X2.343841 Y1.797303 Z-0.125000
G01 X2.345379 Y1.797796 Z-0.125000
G03 X2.346903 Y1.798333 Z-0.125000 I-0.020713 J0.061197
G03 X2.348395 Y1.798890 Z-0.125000 I-0.047424 J0.129368
G03 X2.349882 Y1.799459 Z-0.125000 I-0.108866 J0.286681
G02 X2.351261 Y1.799984 Z-0.125000 I0.059128 J-0.153300
G02 X2.352646 Y1.800490 Z-0.125000 I0.029136 J-0.077609
G01 X2.353845 Y1.800890 Z-0.125000
G01 X2.354882 Y1.801304 Z-0.125000
G01 X2.355923 Y1.801796 Z-0.125000
G01 X2.356944 Y1.802332 Z-0.125000
G03 X2.357945 Y1.802890 Z-0.125000 I-0.040748 J0.074314
G03 X2.358942 Y1.803456 Z-0.125000 I-0.220298 J0.389193
G02 X2.359892 Y1.803984 Z-0.125000 I0.025537 J-0.044847
G01 X2.360855 Y1.804484 Z-0.125000
G01 X2.361745 Y1.804890 Z-0.125000
G01 X2.362999 Y1.805318 Z-0.125000
G01 X2.364133 Y1.805812 Z-0.125000
G01 X2.365225 Y1.806392 Z-0.125000
G01 X2.366220 Y1.807015 Z-0.125000
G01 X2.367174 Y1.807701 Z-0.125000
G01 X2.368045 Y1.808406 Z-0.125000
G01 X2.368882 Y1.809152 Z-0.125000
G01 X2.369645 Y1.809890 Z-0.125000
G03 X2.370541 Y1.810646 Z-0.125000 I-0.063844 J0.076612
G02 X2.371398 Y1.811374 Z-0.125000 I0.194914 J-0.228384
G02 X2.372261 Y1.812096 Z-0.125000 I0.060050 J-0.070897
G01 X2.373095 Y1.812765 Z-0.125000
G01 X2.373951 Y1.813404 Z-0.125000
G01 X2.374792 Y1.813968 Z-0.125000
G01 X2.375666 Y1.814474 Z-0.125000
G01 X2.376545 Y1.814890 Z-0.125000
G01 X2.377454 Y1.815280 Z-0.125000
G03 X2.378609 Y1.815796 Z-0.125000 I-0.047987 J0.108852
G03 X2.379758 Y1.816322 Z-0.125000 I-0.074169 J0.163510
G03 X2.380983 Y1.816890 Z-0.125000 I-0.229613 J0.496868
G03 X2.382207 Y1.817460 Z-0.125000 I-1.081986 J2.326270
G02 X2.383337 Y1.817984 Z-0.125000 I0.140772 J-0.302244
G02 X2.384473 Y1.818503 Z-0.125000 I0.077169 J-0.167315
G02 X2.385345 Y1.818890 Z-0.125000 I0.025838 J-0.057035
G01 X2.386795 Y1.820890 Z-0.125000
G01 X2.388245 Y1.822890 Z-0.125000
G01 X2.388696 Y1.822913 Z-0.125000
G01 X2.389178 Y1.822896 Z-0.125000
G01 X2.389658 Y1.822849 Z-0.125000
G01 X2.390158 Y1.822776 Z-0.125000
G01 X2.390655 Y1.822688 Z-0.125000
G02 X2.391156 Y1.822590 Z-0.125000 I-0.012644 J-0.066290
G03 X2.391657 Y1.822491 Z-0.125000 I0.078328 J0.394418
G01 X2.392145 Y1.822400 Z-0.125000
G01 X2.392764 Y1.813400 Z-0.125000
G01 X2.392393 Y1.805400 Z-0.125000
G01 X2.392209 Y1.796400 Z-0.125000
G01 X2.391722 Y1.787400 Z-0.125000
G01 X2.391731 Y1.778400 Z-0.125000
G01 X2.391375 Y1.770400 Z-0.125000
G01 X2.391525 Y1.761400 Z-0.125000
G01 X2.391825 Y1.753400 Z-0.125000
G01 X2.390828 Y1.752985 Z-0.125000
G01 X2.389833 Y1.752494 Z-0.125000
G01 X2.388858 Y1.751960 Z-0.125000
G03 X2.387888 Y1.751400 Z-0.125000 I0.064295 J-0.112599
G02 X2.386918 Y1.750838 Z-0.125000 I-0.126656 J0.217427
G01 X2.385961 Y1.750306 Z-0.125000
G01 X2.384985 Y1.749813 Z-0.125000
G01 X2.384025 Y1.749400 Z-0.125000
G01 X2.382937 Y1.749138 Z-0.125000
G02 X2.381875 Y1.748912 Z-0.125000 I-0.012132 J0.054344
G02 X2.380809 Y1.748702 Z-0.125000 I-0.018084 J0.089150
G03 X2.379725 Y1.748494 Z-0.125000 I0.060811 J-0.319311
G03 X2.378643 Y1.748278 Z-0.125000 I0.019569 J-0.100888
G01 X2.377500 Y1.748029 Z-0.125000
G01 X2.376365 Y1.747750 Z-0.125000
G01 X2.375125 Y1.747400 Z-0.125000
G01 X2.374250 Y1.747040 Z-0.125000
G01 X2.373205 Y1.746650 Z-0.125000
G02 X2.372152 Y1.746282 Z-0.125000 I-0.021432 J0.059608
G02 X2.371013 Y1.745900 Z-0.125000 I-0.046672 J0.137354
G02 X2.369871 Y1.745525 Z-0.125000 I-0.090304 J0.273171
G03 X2.368727 Y1.745150 Z-0.125000 I0.104738 J-0.321333
G03 X2.367584 Y1.744768 Z-0.125000 I0.049566 J-0.150246
G03 X2.366525 Y1.744400 Z-0.125000 I0.021453 J-0.063402
G01 X2.365447 Y1.744120 Z-0.125000
G01 X2.364417 Y1.743793 Z-0.125000
G01 X2.363401 Y1.743423 Z-0.125000
G01 X2.362413 Y1.743028 Z-0.125000
G03 X2.361431 Y1.742613 Z-0.125000 I0.027479 J-0.066482
G02 X2.360464 Y1.742198 Z-0.125000 I-0.224124 J0.520283
G02 X2.359494 Y1.741788 Z-0.125000 I-0.040110 J0.093589
G01 X2.358525 Y1.741400 Z-0.125000
G01 X2.358007 Y1.741203 Z-0.125000
G01 X2.357589 Y1.741023 Z-0.125000
G01 X2.357180 Y1.740824 Z-0.125000
G01 X2.356833 Y1.740634 Z-0.125000
G01 X2.356494 Y1.740429 Z-0.125000
G01 X2.356182 Y1.740222 Z-0.125000
G01 X2.355876 Y1.740006 Z-0.125000
G01 X2.355563 Y1.739775 Z-0.125000
G03 X2.354950 Y1.739318 Z-0.125000 I2.043116 J-2.737776
G01 X2.354123 Y1.738728 Z-0.125000
G01 X2.353692 Y1.738442 Z-0.125000
G01 X2.353156 Y1.738105 Z-0.125000
G01 X2.352611 Y1.737782 Z-0.125000
G01 X2.351925 Y1.737400 Z-0.125000
G01 X2.350692 Y1.737130 Z-0.125000
G02 X2.349536 Y1.736903 Z-0.125000 I-0.014035 J0.068526
G02 X2.348377 Y1.736693 Z-0.125000 I-0.020016 J0.106853
G03 X2.347213 Y1.736486 Z-0.125000 I0.093366 J-0.530085
G03 X2.346049 Y1.736274 Z-0.125000 I0.024396 J-0.136750
G03 X2.344795 Y1.736026 Z-0.125000 I0.011954 J-0.063854
G03 X2.343547 Y1.735752 Z-0.125000 I0.011265 J-0.054252
G01 X2.342125 Y1.735400 Z-0.125000
G01 X2.341067 Y1.735074 Z-0.125000
G01 X2.339983 Y1.734815 Z-0.125000
G01 X2.338887 Y1.734602 Z-0.125000
G02 X2.337738 Y1.734408 Z-0.125000 I-0.019511 J0.111612
G03 X2.336587 Y1.734217 Z-0.125000 I0.077736 J-0.473341
G01 X2.335361 Y1.733997 Z-0.125000
G01 X2.334143 Y1.733739 Z-0.125000
G01 X2.332825 Y1.733400 Z-0.125000
G02 X2.330940 Y1.732659 Z-0.125000 I-0.061336 J0.153340
G02 X2.328950 Y1.731900 Z-0.125000 I-0.103515 J0.268282
G02 X2.326955 Y1.731153 Z-0.125000 I-0.146635 J0.388583
G02 X2.324925 Y1.730400 Z-0.125000 I-0.752260 J2.024867
G03 X2.323994 Y1.730021 Z-0.125000 I0.030411 J-0.076027
G03 X2.323105 Y1.729650 Z-0.125000 I0.076787 J-0.185339
G03 X2.322216 Y1.729276 Z-0.125000 I0.489251 J-1.165028
G02 X2.321313 Y1.728900 Z-0.125000 I-0.052588 J0.124958
G02 X2.320405 Y1.728532 Z-0.125000 I-0.034623 J0.083962
G02 X2.319427 Y1.728150 Z-0.125000 I-0.022733 J0.056860
G02 X2.318441 Y1.727786 Z-0.125000 I-0.019778 J0.052040
G02 X2.317325 Y1.727400 Z-0.125000 I-0.017664 J0.049259
G01 X2.316225 Y1.727107 Z-0.125000
G01 X2.315022 Y1.726857 Z-0.125000
G01 X2.313810 Y1.726646 Z-0.125000
G02 X2.312550 Y1.726445 Z-0.125000 I-0.083697 J0.520860
G03 X2.311291 Y1.726240 Z-0.125000 I0.022695 J-0.143451
G01 X2.310041 Y1.726011 Z-0.125000
G01 X2.308802 Y1.725734 Z-0.125000
G01 X2.307625 Y1.725400 Z-0.125000
G01 X2.306644 Y1.725172 Z-0.125000
G01 X2.305620 Y1.724986 Z-0.125000
G01 X2.304589 Y1.724841 Z-0.125000
G01 X2.303513 Y1.724724 Z-0.125000
G02 X2.302433 Y1.724630 Z-0.125000 I-0.005336 J0.055282
G02 X2.301311 Y1.724549 Z-0.125000 I-0.009186 J0.119496
G02 X2.300188 Y1.724476 Z-0.125000 I-0.017021 J0.252408
G03 X2.299025 Y1.724400 Z-0.125000 I0.015395 J-0.244499
G01 X2.297995 Y1.724222 Z-0.125000
G01 X2.297219 Y1.724064 Z-0.125000
G03 X2.296447 Y1.723893 Z-0.125000 I0.015350 J-0.071237
G01 X2.295750 Y1.723743 Z-0.125000
G01 X2.295049 Y1.723612 Z-0.125000
G01 X2.294244 Y1.723500 Z-0.125000
G01 X2.293431 Y1.723433 Z-0.125000
G01 X2.292325 Y1.723400 Z-0.125000
G02 X2.291009 Y1.723234 Z-0.125000 I-0.008528 J0.062186
G02 X2.289616 Y1.723083 Z-0.125000 I-0.010426 J0.090144
G02 X2.288222 Y1.722953 Z-0.125000 I-0.011076 J0.110700
G02 X2.286779 Y1.722833 Z-0.125000 I-0.015909 J0.182125
G02 X2.283877 Y1.722616 Z-0.125000 I-0.024929 J0.314067
G03 X2.280955 Y1.722400 Z-0.125000 I0.027718 J-0.395480
G01 X2.280013 Y1.722253 Z-0.125000
G02 X2.278997 Y1.722121 Z-0.125000 I-0.007264 J0.051999
G02 X2.277979 Y1.722006 Z-0.125000 I-0.008850 J0.073836
G02 X2.276918 Y1.721896 Z-0.125000 I-0.027454 J0.259221
G03 X2.275856 Y1.721788 Z-0.125000 I0.226779 J-2.228345
G03 X2.274782 Y1.721673 Z-0.125000 I0.011620 J-0.113644
G03 X2.273709 Y1.721545 Z-0.125000 I0.008578 J-0.076715
G01 X2.272655 Y1.721400 Z-0.125000
G01 X2.271450 Y1.721341 Z-0.125000
G02 X2.270177 Y1.721318 Z-0.125000 I-0.001622 J0.055534
G02 X2.268903 Y1.721320 Z-0.125000 I-0.000526 J0.083801
G02 X2.267606 Y1.721332 Z-0.125000 I0.009461 J1.059665
G03 X2.266309 Y1.721342 Z-0.125000 I-0.002358 J-0.232261
G03 X2.265037 Y1.721335 Z-0.125000 I-0.000295 J-0.064505
G01 X2.263766 Y1.721298 Z-0.125000
G01 X2.262565 Y1.721220 Z-0.125000
G01 X2.261301 Y1.721233 Z-0.125000
G01 X2.260221 Y1.721184 Z-0.125000
G01 X2.259145 Y1.721089 Z-0.125000
G03 X2.258140 Y1.720976 Z-0.125000 I0.010566 J-0.098508
G02 X2.257136 Y1.720861 Z-0.125000 I-0.021471 J0.182591
G01 X2.256096 Y1.720763 Z-0.125000
G01 X2.255054 Y1.720707 Z-0.125000
G01 X2.253865 Y1.720710 Z-0.125000
G01 X2.252441 Y1.720738 Z-0.125000
G02 X2.251049 Y1.720800 Z-0.125000 I0.003173 J0.086467
G02 X2.249657 Y1.720879 Z-0.125000 I0.010570 J0.200063
G03 X2.248286 Y1.720952 Z-0.125000 I-0.006867 J-0.114797
G03 X2.246915 Y1.721003 Z-0.125000 I-0.003027 J-0.063275
G01 X2.245555 Y1.721011 Z-0.125000
G01 X2.244198 Y1.720956 Z-0.125000
G01 X2.242835 Y1.720820 Z-0.125000
G03 X2.239995 Y1.720986 Z-0.125000 I-0.019378 J-0.306821
G02 X2.237244 Y1.721135 Z-0.125000 I0.339372 J6.299489
G02 X2.234493 Y1.721292 Z-0.125000 I0.027199 J0.500804
G02 X2.231705 Y1.721480 Z-0.125000 I0.010996 J0.183811
G02 X2.230370 Y1.721685 Z-0.125000 I0.111684 J0.731021
G03 X2.229305 Y1.721845 Z-0.125000 I-0.016694 J-0.107949
G03 X2.228240 Y1.721989 Z-0.125000 I-0.008405 J-0.058140
G01 X2.227280 Y1.722094 Z-0.125000
G01 X2.226318 Y1.722165 Z-0.125000
G01 X2.225293 Y1.722199 Z-0.125000
G01 X2.224265 Y1.722189 Z-0.125000
G01 X2.223005 Y1.722130 Z-0.125000
G03 X2.221399 Y1.722413 Z-0.125000 I-0.011140 J-0.058419
G03 X2.219970 Y1.722634 Z-0.125000 I-0.014252 J-0.087746
G03 X2.218538 Y1.722835 Z-0.125000 I-0.021394 J-0.146771
G02 X2.217171 Y1.723025 Z-0.125000 I0.031721 J0.233554
G02 X2.215807 Y1.723228 Z-0.125000 I0.013856 J0.097727
G02 X2.214397 Y1.723469 Z-0.125000 I0.007755 J0.049688
G01 X2.212996 Y1.723753 Z-0.125000
G01 X2.211435 Y1.724130 Z-0.125000
G01 X2.210161 Y1.724349 Z-0.125000
G01 X2.208808 Y1.724645 Z-0.125000
G02 X2.207462 Y1.724973 Z-0.125000 I0.019277 J0.082187
G03 X2.206098 Y1.725310 Z-0.125000 I-0.039670 J-0.157455
G03 X2.204729 Y1.725627 Z-0.125000 I-0.015592 J-0.064230
G01 X2.203405 Y1.725885 Z-0.125000
G01 X2.202741 Y1.725987 Z-0.125000
G01 X2.202098 Y1.726064 Z-0.125000
G01 X2.201454 Y1.726113 Z-0.125000
G01 X2.200835 Y1.726130 Z-0.125000
G01 X2.199673 Y1.726384 Z-0.125000
G02 X2.198451 Y1.726696 Z-0.125000 I0.014006 J0.057475
G02 X2.197232 Y1.727026 Z-0.125000 I0.034983 J0.131314
G03 X2.196010 Y1.727355 Z-0.125000 I-0.024358 J-0.088131
G01 X2.194782 Y1.727659 Z-0.125000
G01 X2.193607 Y1.727902 Z-0.125000
G01 X2.193017 Y1.727998 Z-0.125000
G01 X2.192449 Y1.728069 Z-0.125000
G01 X2.191878 Y1.728115 Z-0.125000
G01 X2.191335 Y1.728130 Z-0.125000
G01 X2.190358 Y1.728365 Z-0.125000
G02 X2.189224 Y1.728679 Z-0.125000 I0.017539 J0.065697
G02 X2.188094 Y1.729004 Z-0.125000 I0.072177 J0.252725
G03 X2.186898 Y1.729340 Z-0.125000 I-0.019100 J-0.065762
G01 X2.185695 Y1.729647 Z-0.125000
G01 X2.184515 Y1.729896 Z-0.125000
G01 X2.183923 Y1.729994 Z-0.125000
G01 X2.183352 Y1.730067 Z-0.125000
G01 X2.182779 Y1.730114 Z-0.125000
G01 X2.182235 Y1.730130 Z-0.125000
G01 X2.181121 Y1.730456 Z-0.125000
G01 X2.180054 Y1.730804 Z-0.125000
G02 X2.178993 Y1.731174 Z-0.125000 I0.021546 J0.063551
G02 X2.177910 Y1.731562 Z-0.125000 I0.172479 J0.482044
G03 X2.176826 Y1.731950 Z-0.125000 I-0.080984 J-0.224739
G03 X2.175654 Y1.732355 Z-0.125000 I-0.023697 J-0.066770
G03 X2.174473 Y1.732736 Z-0.125000 I-0.017919 J-0.053439
G01 X2.173135 Y1.733130 Z-0.125000
G01 X2.172021 Y1.733481 Z-0.125000
G03 X2.171133 Y1.733739 Z-0.125000 I-0.025750 J-0.086762
G02 X2.170248 Y1.733995 Z-0.125000 I0.041083 J0.143789
G01 X2.169423 Y1.734255 Z-0.125000
G01 X2.168611 Y1.734553 Z-0.125000
G01 X2.167693 Y1.734958 Z-0.125000
G01 X2.166801 Y1.735425 Z-0.125000
G01 X2.165635 Y1.736130 Z-0.125000
G01 X2.164379 Y1.736522 Z-0.125000
G01 X2.163335 Y1.736880 Z-0.125000
G02 X2.162300 Y1.737261 Z-0.125000 I0.018722 J0.052422
G02 X2.161335 Y1.737630 Z-0.125000 I0.084531 J0.222659
G03 X2.160370 Y1.737999 Z-0.125000 I-0.085496 J-0.222290
G03 X2.159335 Y1.738380 Z-0.125000 I-0.019757 J-0.052040
G01 X2.158291 Y1.738738 Z-0.125000
G01 X2.157035 Y1.739130 Z-0.125000
G01 X2.156132 Y1.739522 Z-0.125000
G02 X2.155007 Y1.740036 Z-0.125000 I0.046109 J0.102283
G02 X2.153887 Y1.740559 Z-0.125000 I0.122106 J0.263083
G03 X2.152660 Y1.741130 Z-0.125000 I-0.089909 J-0.191572
G03 X2.151428 Y1.741690 Z-0.125000 I-0.050560 J-0.109547
G03 X2.150201 Y1.742224 Z-0.125000 I-0.024510 J-0.054711
G01 X2.148960 Y1.742725 Z-0.125000
G01 X2.147835 Y1.743130 Z-0.125000
G01 X2.146835 Y1.743540 Z-0.125000
G01 X2.145779 Y1.744052 Z-0.125000
G01 X2.144749 Y1.744616 Z-0.125000
G01 X2.143685 Y1.745255 Z-0.125000
G01 X2.142642 Y1.745928 Z-0.125000
G02 X2.141591 Y1.746646 Z-0.125000 I0.033097 J0.049626
G02 X2.140554 Y1.747383 Z-0.125000 I0.041563 J0.059529
G02 X2.139535 Y1.748130 Z-0.125000 I0.070576 J0.097400
G01 X2.138574 Y1.748543 Z-0.125000
G01 X2.137602 Y1.749036 Z-0.125000
G01 X2.136650 Y1.749570 Z-0.125000
G02 X2.135698 Y1.750130 Z-0.125000 I0.066135 J0.113491
G03 X2.134746 Y1.750692 Z-0.125000 I-0.137845 J-0.232038
G01 X2.133812 Y1.751224 Z-0.125000
G01 X2.132859 Y1.751719 Z-0.125000
G01 X2.131935 Y1.752130 Z-0.125000
G01 X2.131531 Y1.752331 Z-0.125000
G01 X2.131156 Y1.752548 Z-0.125000
G01 X2.130794 Y1.752786 Z-0.125000
G01 X2.130449 Y1.753036 Z-0.125000
G01 X2.129785 Y1.753569 Z-0.125000
G03 X2.129123 Y1.754130 Z-0.125000 I-0.213504 J-0.251301
G01 X2.128451 Y1.754679 Z-0.125000
G01 X2.127702 Y1.755224 Z-0.125000
G01 X2.126910 Y1.755695 Z-0.125000
G01 X2.125935 Y1.756130 Z-0.125000
G01 X2.125046 Y1.756858 Z-0.125000
G01 X2.124005 Y1.757630 Z-0.125000
G03 X2.122943 Y1.758372 Z-0.125000 I-0.032198 J-0.044976
G03 X2.121823 Y1.759130 Z-0.125000 I-0.126835 J-0.186243
G02 X2.120701 Y1.759886 Z-0.125000 I0.365510 J0.543696
G02 X2.119621 Y1.760630 Z-0.125000 I0.038633 J0.057211
G01 X2.118560 Y1.761400 Z-0.125000
G01 X2.117635 Y1.762130 Z-0.125000
G03 X2.116726 Y1.762873 Z-0.125000 I-0.041363 J-0.049636
G03 X2.115774 Y1.763630 Z-0.125000 I-0.074133 J-0.092321
G03 X2.114816 Y1.764379 Z-0.125000 I-0.115300 J-0.146648
G02 X2.113848 Y1.765130 Z-0.125000 I1.261320 J1.625947
G02 X2.112881 Y1.765884 Z-0.125000 I0.182042 J0.234379
G02 X2.111940 Y1.766630 Z-0.125000 I0.064638 J0.082515
G02 X2.111008 Y1.767389 Z-0.125000 I0.048250 J0.060162
G01 X2.110135 Y1.768130 Z-0.125000
G01 X2.109236 Y1.768845 Z-0.125000
G01 X2.108590 Y1.769317 Z-0.125000
G01 X2.107931 Y1.769764 Z-0.125000
G02 X2.107373 Y1.770130 Z-0.125000 I0.490023 J0.748502
G01 X2.106819 Y1.770501 Z-0.125000
G01 X2.106212 Y1.770942 Z-0.125000
G01 X2.105625 Y1.771417 Z-0.125000
G01 X2.104835 Y1.772130 Z-0.125000
G01 X2.104083 Y1.772902 Z-0.125000
G01 X2.103460 Y1.773630 Z-0.125000
G01 X2.102869 Y1.774386 Z-0.125000
G02 X2.102310 Y1.775130 Z-0.125000 I0.508431 J0.382487
G03 X2.101745 Y1.775870 Z-0.125000 I-0.043179 J-0.032384
G01 X2.101123 Y1.776630 Z-0.125000
G01 X2.100459 Y1.777353 Z-0.125000
G01 X2.099635 Y1.778130 Z-0.125000
G01 X2.098838 Y1.778908 Z-0.125000
G01 X2.098026 Y1.779802 Z-0.125000
G01 X2.097249 Y1.780730 Z-0.125000
G02 X2.096435 Y1.781755 Z-0.125000 I0.065563 J0.052921
G02 X2.095632 Y1.782789 Z-0.125000 I0.162365 J0.126940
G03 X2.094769 Y1.783896 Z-0.125000 I-0.114399 J-0.088274
G03 X2.093893 Y1.784990 Z-0.125000 I-0.066012 J-0.051967
G01 X2.092935 Y1.786130 Z-0.125000
G01 X2.092227 Y1.787216 Z-0.125000
G01 X2.091588 Y1.788067 Z-0.125000
G01 X2.090907 Y1.788887 Z-0.125000
G03 X2.090260 Y1.789630 Z-0.125000 I-0.185866 J-0.161323
G02 X2.089618 Y1.790377 Z-0.125000 I0.040851 J0.035744
G01 X2.088969 Y1.791192 Z-0.125000
G01 X2.088374 Y1.792046 Z-0.125000
G01 X2.087735 Y1.793130 Z-0.125000
G01 X2.087042 Y1.794258 Z-0.125000
G02 X2.086488 Y1.795208 Z-0.125000 I0.051079 J0.030419
G02 X2.085950 Y1.796166 Z-0.125000 I0.070469 J0.040219
G03 X2.085485 Y1.797005 Z-0.125000 I-0.414599 J-0.229236
G03 X2.085015 Y1.797840 Z-0.125000 I-0.072259 J-0.040144
G01 X2.084557 Y1.798614 Z-0.125000
G01 X2.084072 Y1.799372 Z-0.125000
G01 X2.083535 Y1.800130 Z-0.125000
G01 X2.082908 Y1.801264 Z-0.125000
G01 X2.082454 Y1.802224 Z-0.125000
G01 X2.082052 Y1.803207 Z-0.125000
G02 X2.081710 Y1.804130 Z-0.125000 I0.051304 J0.019516
G03 X2.081376 Y1.805057 Z-0.125000 I-1.863169 J-0.670741
G01 X2.081004 Y1.806036 Z-0.125000
G01 X2.080592 Y1.807000 Z-0.125000
G01 X2.080035 Y1.808130 Z-0.125000
G01 X2.079604 Y1.809261 Z-0.125000
G01 X2.079320 Y1.810224 Z-0.125000
G01 X2.079089 Y1.811203 Z-0.125000
G03 X2.078894 Y1.812130 Z-0.125000 I-1.454424 J-0.305915
G01 X2.078686 Y1.813054 Z-0.125000
G01 X2.078414 Y1.814036 Z-0.125000
G01 X2.078067 Y1.814993 Z-0.125000
G01 X2.077535 Y1.816130 Z-0.125000
G01 X2.077276 Y1.817246 Z-0.125000
G01 X2.076936 Y1.818380 Z-0.125000
G01 X2.076529 Y1.819492 Z-0.125000
G01 X2.076036 Y1.820630 Z-0.125000
G01 X2.075482 Y1.821739 Z-0.125000
G01 X2.074835 Y1.822880 Z-0.125000
G01 X2.074134 Y1.823988 Z-0.125000
G01 X2.073335 Y1.825130 Z-0.125000
G01 X2.072936 Y1.826238 Z-0.125000
G01 X2.072530 Y1.827224 Z-0.125000
G01 X2.072086 Y1.828193 Z-0.125000
G01 X2.071623 Y1.829130 Z-0.125000
G03 X2.071140 Y1.830058 Z-0.125000 I-0.058869 J-0.030023
G03 X2.070621 Y1.831036 Z-0.125000 I-1.481440 J-0.785320
G02 X2.070104 Y1.832017 Z-0.125000 I0.154969 J0.082281
G02 X2.069535 Y1.833130 Z-0.125000 I0.061096 J0.031946
G01 X2.069103 Y1.834261 Z-0.125000
G01 X2.068821 Y1.835224 Z-0.125000
G01 X2.068604 Y1.836204 Z-0.125000
G01 X2.068441 Y1.837130 Z-0.125000
G02 X2.068288 Y1.838058 Z-0.125000 I0.900156 J0.148706
G01 X2.068107 Y1.839036 Z-0.125000
G01 X2.067880 Y1.840004 Z-0.125000
G01 X2.067535 Y1.841130 Z-0.125000
G01 X2.067311 Y1.841699 Z-0.125000
G01 X2.067131 Y1.842255 Z-0.125000
G01 X2.066982 Y1.842821 Z-0.125000
G01 X2.066860 Y1.843380 Z-0.125000
G01 X2.066759 Y1.843944 Z-0.125000
G01 X2.066671 Y1.844505 Z-0.125000
G02 X2.066591 Y1.845068 Z-0.125000 I0.061389 J0.009058
G03 X2.066511 Y1.845630 Z-0.125000 I-0.096297 J-0.013309
G01 X2.066426 Y1.846192 Z-0.125000
G01 X2.066329 Y1.846755 Z-0.125000
G01 X2.066215 Y1.847315 Z-0.125000
G01 X2.066074 Y1.847880 Z-0.125000
G01 X2.065904 Y1.848437 Z-0.125000
G01 X2.065693 Y1.849005 Z-0.125000
G01 X2.065444 Y1.849557 Z-0.125000
G01 X2.065135 Y1.850130 Z-0.125000
G01 X2.064707 Y1.851271 Z-0.125000
G01 X2.064396 Y1.852380 Z-0.125000
G01 X2.064152 Y1.853509 Z-0.125000
G02 X2.063948 Y1.854630 Z-0.125000 I0.081010 J0.015334
G03 X2.063748 Y1.855752 Z-0.125000 I-0.194897 J-0.034107
G01 X2.063518 Y1.856880 Z-0.125000
G01 X2.063229 Y1.857991 Z-0.125000
G01 X2.062835 Y1.859130 Z-0.125000
G03 X2.062487 Y1.860258 Z-0.125000 I-0.053624 J-0.015909
G03 X2.062069 Y1.861539 Z-0.125000 I-0.104359 J-0.033372
G03 X2.061638 Y1.862815 Z-0.125000 I-0.150933 J-0.050320
G03 X2.061176 Y1.864155 Z-0.125000 I-0.508850 J-0.174448
G02 X2.060713 Y1.865494 Z-0.125000 I44.319559 J15.324652
G02 X2.060263 Y1.866808 Z-0.125000 I0.239130 J0.082677
G02 X2.059822 Y1.868126 Z-0.125000 I0.152258 J0.051708
G02 X2.059435 Y1.869330 Z-0.125000 I0.075739 J0.024994
G01 X2.059354 Y1.870456 Z-0.125000
G02 X2.059308 Y1.871580 Z-0.125000 I0.072925 J0.003578
G02 X2.059270 Y1.872705 Z-0.125000 I2.308181 J0.077613
G01 X2.059217 Y1.873830 Z-0.125000
G01 X2.059122 Y1.874951 Z-0.125000
G01 X2.058959 Y1.876080 Z-0.125000
G01 X2.058710 Y1.877190 Z-0.125000
G01 X2.058335 Y1.878330 Z-0.125000
G01 X2.058074 Y1.879453 Z-0.125000
G01 X2.057710 Y1.880746 Z-0.125000
G03 X2.057309 Y1.882028 Z-0.125000 I-0.059412 J-0.017849
G03 X2.056860 Y1.883405 Z-0.125000 I-0.338136 J-0.109620
G02 X2.056410 Y1.884782 Z-0.125000 I0.361742 J0.118904
G02 X2.055972 Y1.886177 Z-0.125000 I0.070914 J0.023011
G02 X2.055568 Y1.887581 Z-0.125000 I0.049674 J0.015049
G01 X2.055235 Y1.888930 Z-0.125000
G01 X2.055158 Y1.889495 Z-0.125000
G01 X2.055107 Y1.890098 Z-0.125000
G01 X2.055082 Y1.890703 Z-0.125000
G01 X2.055075 Y1.891336 Z-0.125000
G01 X2.055104 Y1.892609 Z-0.125000
G02 X2.055160 Y1.893930 Z-0.125000 I0.628975 J-0.026082
G03 X2.055187 Y1.894587 Z-0.125000 I-0.123780 J0.005393
G01 X2.055207 Y1.895239 Z-0.125000
G01 X2.055217 Y1.895890 Z-0.125000
G01 X2.055212 Y1.896524 Z-0.125000
G01 X2.055186 Y1.897157 Z-0.125000
G01 X2.055138 Y1.897762 Z-0.125000
G01 X2.055060 Y1.898364 Z-0.125000
G01 X2.054952 Y1.898930 Z-0.125000
G03 X2.054324 Y1.901881 Z-0.125000 I-0.794108 J-0.167358
G03 X2.053786 Y1.904355 Z-0.125000 I-0.429568 J-0.092201
G03 X2.053233 Y1.906822 Z-0.125000 I-0.364178 J-0.080364
G03 X2.052652 Y1.909330 Z-0.125000 I-0.352510 J-0.080299
G01 X2.052264 Y1.910825 Z-0.125000
G03 X2.051820 Y1.912321 Z-0.125000 I-0.067870 J-0.019358
G03 X2.051351 Y1.913810 Z-0.125000 I-0.152399 J-0.047133
G02 X2.050901 Y1.915255 Z-0.125000 I0.092115 J0.029479
G02 X2.050687 Y1.915979 Z-0.125000 I0.055520 J0.016814
G01 X2.050491 Y1.916684 Z-0.125000
G01 X2.050311 Y1.917392 Z-0.125000
G01 X2.050158 Y1.918077 Z-0.125000
G01 X2.050029 Y1.918766 Z-0.125000
G01 X2.049934 Y1.919428 Z-0.125000
G01 X2.049873 Y1.920093 Z-0.125000
G01 X2.049852 Y1.920730 Z-0.125000
G01 X2.050072 Y1.922226 Z-0.125000
G01 X2.050199 Y1.923574 Z-0.125000
G01 X2.050259 Y1.924926 Z-0.125000
G01 X2.050264 Y1.926230 Z-0.125000
G01 X2.050227 Y1.927534 Z-0.125000
G03 X2.050162 Y1.928886 Z-0.125000 I-0.111144 J-0.004690
G03 X2.050086 Y1.930238 Z-0.125000 I-0.338776 J-0.018428
G02 X2.050006 Y1.931730 Z-0.125000 I0.147333 J0.008604
G01 X2.050081 Y1.933222 Z-0.125000
G01 X2.050205 Y1.934564 Z-0.125000
G02 X2.050366 Y1.935903 Z-0.125000 I0.055779 J-0.006041
G02 X2.050533 Y1.937155 Z-0.125000 I0.745281 J-0.098893
G03 X2.050695 Y1.938407 Z-0.125000 I-0.117952 J0.015853
G01 X2.050824 Y1.939633 Z-0.125000
G01 X2.050903 Y1.940862 Z-0.125000
G01 X2.050911 Y1.942130 Z-0.125000
G01 X2.051006 Y1.942690 Z-0.125000
G01 X2.051146 Y1.943299 Z-0.125000
G01 X2.051313 Y1.943902 Z-0.125000
G01 X2.051513 Y1.944544 Z-0.125000
G01 X2.051726 Y1.945182 Z-0.125000
G02 X2.051957 Y1.945848 Z-0.125000 I0.122243 J-0.042049
G03 X2.052190 Y1.946513 Z-0.125000 I-6.915117 J2.420902
G03 X2.052424 Y1.947192 Z-0.125000 I-0.062615 J0.021914
G01 X2.052648 Y1.947875 Z-0.125000
G01 X2.052858 Y1.948561 Z-0.125000
G01 X2.053046 Y1.949252 Z-0.125000
G01 X2.053203 Y1.949935 Z-0.125000
G01 X2.053327 Y1.950624 Z-0.125000
G01 X2.053406 Y1.951297 Z-0.125000
G01 X2.053437 Y1.951973 Z-0.125000
G01 X2.053411 Y1.952630 Z-0.125000
G01 X2.053620 Y1.953767 Z-0.125000
G01 X2.053790 Y1.955036 Z-0.125000
G01 X2.053920 Y1.956311 Z-0.125000
G03 X2.054030 Y1.957630 Z-0.125000 I-0.127689 J0.011288
G03 X2.054131 Y1.958950 Z-0.125000 I-0.470420 J0.036693
G02 X2.054235 Y1.960224 Z-0.125000 I0.099462 J-0.007477
G02 X2.054361 Y1.961495 Z-0.125000 I0.057941 J-0.005103
G01 X2.054511 Y1.962630 Z-0.125000
G01 X2.054802 Y1.963770 Z-0.125000
G01 X2.055054 Y1.965036 Z-0.125000
G01 X2.055259 Y1.966312 Z-0.125000
G03 X2.055436 Y1.967630 Z-0.125000 I-0.067532 J0.009704
G03 X2.055590 Y1.968951 Z-0.125000 I-0.098051 J0.012144
G03 X2.055730 Y1.970224 Z-0.125000 I-0.854673 J0.094194
G02 X2.055871 Y1.971497 Z-0.125000 I0.265833 J-0.028897
G02 X2.056011 Y1.972630 Z-0.125000 I0.058234 J-0.006613
G03 X2.056529 Y1.974884 Z-0.125000 I-0.110622 J0.026586
G03 X2.057006 Y1.977130 Z-0.125000 I-0.189857 J0.041566
G03 X2.057463 Y1.979381 Z-0.125000 I-0.299508 J0.061873
G02 X2.057911 Y1.981630 Z-0.125000 I1.895252 J-0.376712
G01 X2.058278 Y1.982774 Z-0.125000
G01 X2.058588 Y1.984036 Z-0.125000
G01 X2.058836 Y1.985313 Z-0.125000
G03 X2.059049 Y1.986630 Z-0.125000 I-0.059390 J0.010257
G03 X2.059238 Y1.987951 Z-0.125000 I-0.101832 J0.015275
G02 X2.059416 Y1.989224 Z-0.125000 I0.223181 J-0.030526
G02 X2.059607 Y1.990495 Z-0.125000 I0.079446 J-0.011328
G01 X2.059811 Y1.991630 Z-0.125000
G01 X2.060129 Y1.992748 Z-0.125000
G01 X2.060525 Y1.993864 Z-0.125000
G01 X2.060976 Y1.994962 Z-0.125000
G01 X2.061448 Y1.996005 Z-0.125000
G02 X2.061946 Y1.997038 Z-0.125000 I0.051548 J-0.024213
G02 X2.062403 Y1.997958 Z-0.125000 I0.302397 J-0.149546
G03 X2.062859 Y1.998880 Z-0.125000 I-0.135751 J0.067649
G01 X2.063211 Y1.999630 Z-0.125000
G01 X2.063525 Y2.000746 Z-0.125000
G01 X2.063905 Y2.001880 Z-0.125000
G01 X2.064329 Y2.002999 Z-0.125000
G02 X2.064792 Y2.004130 Z-0.125000 I0.058184 J-0.023165
G02 X2.065273 Y2.005254 Z-0.125000 I0.090089 J-0.037920
G03 X2.065763 Y2.006380 Z-0.125000 I-1.082421 J0.471629
G03 X2.066248 Y2.007508 Z-0.125000 I-0.144739 J0.062886
G03 X2.066711 Y2.008630 Z-0.125000 I-0.051733 J0.022000
G01 X2.067369 Y2.009780 Z-0.125000
G01 X2.067883 Y2.010880 Z-0.125000
G01 X2.068315 Y2.012017 Z-0.125000
G01 X2.068661 Y2.013130 Z-0.125000
G01 X2.068956 Y2.014259 Z-0.125000
G03 X2.069214 Y2.015380 Z-0.125000 I-0.062747 J0.015034
G03 X2.069459 Y2.016504 Z-0.125000 I-0.188781 J0.041689
G02 X2.069711 Y2.017630 Z-0.125000 I0.063234 J-0.013570
G01 X2.070129 Y2.018732 Z-0.125000
G01 X2.070586 Y2.019724 Z-0.125000
G01 X2.071092 Y2.020694 Z-0.125000
G02 X2.071611 Y2.021630 Z-0.125000 I0.108345 J-0.059446
G03 X2.072130 Y2.022566 Z-0.125000 I-0.107826 J0.060383
G01 X2.072636 Y2.023536 Z-0.125000
G01 X2.073093 Y2.024528 Z-0.125000
G01 X2.073511 Y2.025630 Z-0.125000
G01 X2.074080 Y2.026771 Z-0.125000
G01 X2.074564 Y2.027864 Z-0.125000
G01 X2.075013 Y2.028974 Z-0.125000
G03 X2.075411 Y2.030005 Z-0.125000 I-0.163075 J0.063448
G02 X2.075808 Y2.031037 Z-0.125000 I0.190982 J-0.072921
G01 X2.076183 Y2.031958 Z-0.125000
G01 X2.076595 Y2.032862 Z-0.125000
G01 X2.077011 Y2.033630 Z-0.125000
G01 X2.077636 Y2.034738 Z-0.125000
G01 X2.078239 Y2.035708 Z-0.125000
G01 X2.078878 Y2.036656 Z-0.125000
G01 X2.079486 Y2.037505 Z-0.125000
G02 X2.080110 Y2.038342 Z-0.125000 I0.053077 J-0.038923
G03 X2.080695 Y2.039114 Z-0.125000 I-2.698567 J2.045584
G03 X2.081277 Y2.039889 Z-0.125000 I-0.082646 J0.062611
G01 X2.081811 Y2.040630 Z-0.125000
G03 X2.082372 Y2.041759 Z-0.125000 I-0.223859 J0.111929
G02 X2.082919 Y2.042864 Z-0.125000 I0.678629 J-0.335051
G02 X2.083469 Y2.043968 Z-0.125000 I0.214720 J-0.106446
G02 X2.083999 Y2.045005 Z-0.125000 I0.081919 J-0.041137
G02 X2.084543 Y2.046034 Z-0.125000 I0.058996 J-0.030571
G01 X2.085059 Y2.046958 Z-0.125000
G01 X2.085604 Y2.047865 Z-0.125000
G01 X2.086111 Y2.048630 Z-0.125000
G01 X2.086710 Y2.049412 Z-0.125000
G01 X2.087272 Y2.050286 Z-0.125000
G01 X2.087784 Y2.051193 Z-0.125000
G03 X2.088274 Y2.052130 Z-0.125000 I-0.049525 J0.026444
G03 X2.088752 Y2.053073 Z-0.125000 I-0.187813 J0.095784
G01 X2.089219 Y2.053974 Z-0.125000
G01 X2.089715 Y2.054858 Z-0.125000
G01 X2.090211 Y2.055630 Z-0.125000
G01 X2.090826 Y2.056403 Z-0.125000
G01 X2.091459 Y2.057286 Z-0.125000
G03 X2.092070 Y2.058187 Z-0.125000 I-0.045429 J0.031442
G02 X2.092699 Y2.059130 Z-0.125000 I0.205759 J-0.136494
G02 X2.093337 Y2.060066 Z-0.125000 I0.058365 J-0.039105
G01 X2.093994 Y2.060974 Z-0.125000
G01 X2.094692 Y2.061848 Z-0.125000
G01 X2.095411 Y2.062630 Z-0.125000
G01 X2.096096 Y2.063372 Z-0.125000
G02 X2.096828 Y2.064130 Z-0.125000 I0.039984 J-0.037881
G02 X2.097573 Y2.064875 Z-0.125000 I0.047272 J-0.046534
G02 X2.098349 Y2.065630 Z-0.125000 I0.073040 J-0.074220
G02 X2.099923 Y2.067128 Z-0.125000 I0.116706 J-0.121082
G03 X2.101511 Y2.068630 Z-0.125000 I-0.215765 J0.229724
G01 X2.101908 Y2.069175 Z-0.125000
G01 X2.102330 Y2.069667 Z-0.125000
G01 X2.102788 Y2.070128 Z-0.125000
G01 X2.103266 Y2.070552 Z-0.125000
G01 X2.103767 Y2.070949 Z-0.125000
G01 X2.104283 Y2.071319 Z-0.125000
G01 X2.104813 Y2.071671 Z-0.125000
G01 X2.105349 Y2.072005 Z-0.125000
G01 X2.105891 Y2.072329 Z-0.125000
G02 X2.106428 Y2.072644 Z-0.125000 I0.099085 J-0.168690
G03 X2.106965 Y2.072958 Z-0.125000 I-0.098922 J0.169647
G01 X2.107488 Y2.073271 Z-0.125000
G01 X2.108003 Y2.073593 Z-0.125000
G01 X2.108493 Y2.073921 Z-0.125000
G01 X2.108969 Y2.074269 Z-0.125000
G01 X2.109411 Y2.074630 Z-0.125000
G03 X2.111120 Y2.076151 Z-0.125000 I-0.065233 J0.075018
G03 X2.112699 Y2.077630 Z-0.125000 I-0.051584 J0.056635
G03 X2.114231 Y2.079156 Z-0.125000 I-0.046718 J0.048470
G03 X2.115611 Y2.080630 Z-0.125000 I-0.037246 J0.036237
G03 X2.117327 Y2.082137 Z-0.125000 I-0.150168 J0.172693
G03 X2.118999 Y2.083630 Z-0.125000 I-0.229846 J0.259057
G03 X2.120662 Y2.085132 Z-0.125000 I-0.320356 J0.356397
G03 X2.122311 Y2.086630 Z-0.125000 I-1.586261 J1.748199
G01 X2.123187 Y2.087371 Z-0.125000
G02 X2.124124 Y2.088130 Z-0.125000 I0.058001 J-0.070572
G01 X2.126011 Y2.089630 Z-0.125000
G03 X2.126947 Y2.090389 Z-0.125000 I-0.057065 J0.071331
G01 X2.127824 Y2.091130 Z-0.125000
G01 X2.128675 Y2.091899 Z-0.125000
G01 X2.129411 Y2.092630 Z-0.125000
G02 X2.130314 Y2.093380 Z-0.125000 I0.271281 J-0.325537
G02 X2.131213 Y2.094114 Z-0.125000 I0.052640 J-0.063525
G02 X2.132124 Y2.094833 Z-0.125000 I0.036182 J-0.044936
G01 X2.133024 Y2.095505 Z-0.125000
G01 X2.133947 Y2.096143 Z-0.125000
G01 X2.134853 Y2.096708 Z-0.125000
G01 X2.135791 Y2.097217 Z-0.125000
G01 X2.136711 Y2.097630 Z-0.125000
G01 X2.137669 Y2.098345 Z-0.125000
G01 X2.138619 Y2.098974 Z-0.125000
G01 X2.139594 Y2.099565 Z-0.125000
G02 X2.140574 Y2.100130 Z-0.125000 I0.066275 J-0.113703
G03 X2.141554 Y2.100693 Z-0.125000 I-0.126034 J0.220560
G01 X2.142547 Y2.101286 Z-0.125000
G01 X2.143517 Y2.101913 Z-0.125000
G01 X2.144511 Y2.102630 Z-0.125000
G01 X2.145665 Y2.103045 Z-0.125000
G01 X2.146819 Y2.103536 Z-0.125000
G01 X2.147952 Y2.104077 Z-0.125000
G03 X2.149024 Y2.104630 Z-0.125000 I-0.023067 J0.046014
G03 X2.150085 Y2.105205 Z-0.125000 I-0.033534 J0.063156
G03 X2.151022 Y2.105724 Z-0.125000 I-0.505206 J0.913876
G02 X2.151962 Y2.106239 Z-0.125000 I0.061306 J-0.110629
G01 X2.152711 Y2.106630 Z-0.125000
G01 X2.153919 Y2.107061 Z-0.125000
G01 X2.154961 Y2.107536 Z-0.125000
G01 X2.155972 Y2.108079 Z-0.125000
G03 X2.156911 Y2.108630 Z-0.125000 I-0.028389 J0.049430
G02 X2.157845 Y2.109189 Z-0.125000 I0.308075 J-0.513459
G01 X2.158786 Y2.109724 Z-0.125000
G01 X2.159751 Y2.110205 Z-0.125000
G01 X2.160811 Y2.110630 Z-0.125000
G01 X2.161312 Y2.110833 Z-0.125000
G01 X2.161862 Y2.111091 Z-0.125000
G01 X2.162401 Y2.111371 Z-0.125000
G01 X2.162974 Y2.111692 Z-0.125000
G01 X2.164107 Y2.112378 Z-0.125000
G03 X2.165286 Y2.113130 Z-0.125000 I-0.074561 J0.118150
G02 X2.166462 Y2.113887 Z-0.125000 I0.285807 J-0.443000
G01 X2.167561 Y2.114567 Z-0.125000
G01 X2.168115 Y2.114890 Z-0.125000
G01 X2.168626 Y2.115169 Z-0.125000
G01 X2.169147 Y2.115428 Z-0.125000
G01 X2.169611 Y2.115630 Z-0.125000
G01 X2.170676 Y2.115989 Z-0.125000
G02 X2.171949 Y2.116380 Z-0.125000 I0.020366 J-0.064085
G02 X2.173227 Y2.116749 Z-0.125000 I0.028295 J-0.095550
G02 X2.174590 Y2.117130 Z-0.125000 I0.092638 J-0.328898
G02 X2.175953 Y2.117508 Z-0.125000 I15.867272 J-57.241022
G03 X2.177274 Y2.117880 Z-0.125000 I-0.042986 J0.155087
G03 X2.178591 Y2.118267 Z-0.125000 I-0.027547 J0.096192
G01 X2.179741 Y2.118630 Z-0.125000
G01 X2.180695 Y2.118943 Z-0.125000
G01 X2.181743 Y2.119203 Z-0.125000
G01 X2.182803 Y2.119415 Z-0.125000
G02 X2.183904 Y2.119611 Z-0.125000 I0.033545 J-0.184973
G03 X2.185004 Y2.119809 Z-0.125000 I-0.022469 J0.128237
G01 X2.186083 Y2.120029 Z-0.125000
G01 X2.187149 Y2.120299 Z-0.125000
G01 X2.188141 Y2.120630 Z-0.125000
G01 X2.189239 Y2.120962 Z-0.125000
G01 X2.190350 Y2.121224 Z-0.125000
G01 X2.191474 Y2.121438 Z-0.125000
G02 X2.192616 Y2.121630 Z-0.125000 I0.024163 J-0.140234
G03 X2.193759 Y2.121820 Z-0.125000 I-0.034607 J0.211105
G01 X2.194919 Y2.122036 Z-0.125000
G01 X2.196069 Y2.122296 Z-0.125000
G01 X2.197241 Y2.122630 Z-0.125000
G01 X2.197825 Y2.122726 Z-0.125000
G01 X2.198464 Y2.122807 Z-0.125000
G01 X2.199105 Y2.122870 Z-0.125000
G01 X2.199786 Y2.122921 Z-0.125000
G01 X2.201157 Y2.122989 Z-0.125000
G02 X2.202597 Y2.123026 Z-0.125000 I0.003377 J-0.101811
G02 X2.204038 Y2.123049 Z-0.125000 I0.004278 J-0.224950
G03 X2.205418 Y2.123073 Z-0.125000 I-0.001841 J0.145993
G03 X2.206799 Y2.123116 Z-0.125000 I-0.001619 J0.073344
G01 X2.207991 Y2.123190 Z-0.125000
G02 X2.209046 Y2.123367 Z-0.125000 I0.293493 J-1.748470
G02 X2.210130 Y2.123545 Z-0.125000 I0.028641 J-0.171258
G02 X2.211216 Y2.123714 Z-0.125000 I0.018927 J-0.117750
G02 X2.212279 Y2.123866 Z-0.125000 I0.010308 J-0.068128
G02 X2.213344 Y2.124000 Z-0.125000 I0.007340 J-0.054208
G01 X2.214333 Y2.124100 Z-0.125000
G01 X2.215325 Y2.124168 Z-0.125000
G01 X2.216191 Y2.124190 Z-0.125000
G02 X2.218748 Y2.124492 Z-0.125000 I0.019780 J-0.156397
G02 X2.221429 Y2.124735 Z-0.125000 I0.007687 J-0.069934
G02 X2.224114 Y2.124862 Z-0.125000 I0.003975 J-0.055728
G01 X2.226891 Y2.124830 Z-0.125000
G03 X2.228128 Y2.124823 Z-0.125000 I0.005043 J0.832075
G02 X2.229387 Y2.124813 Z-0.125000 I-0.000748 J-0.163442
G02 X2.230646 Y2.124790 Z-0.125000 I-0.001280 J-0.104232
G02 X2.231935 Y2.124745 Z-0.125000 I-0.001517 J-0.062271
G02 X2.233222 Y2.124671 Z-0.125000 I-0.002369 J-0.052531
G01 X2.234548 Y2.124557 Z-0.125000
G01 X2.235869 Y2.124399 Z-0.125000
G01 X2.237241 Y2.124180 Z-0.125000
G01 X2.238807 Y2.124145 Z-0.125000
G01 X2.240163 Y2.124163 Z-0.125000
G03 X2.241519 Y2.124218 Z-0.125000 I-0.001555 J0.054893
G03 X2.242770 Y2.124289 Z-0.125000 I-0.009211 J0.173532
G02 X2.244020 Y2.124363 Z-0.125000 I0.028184 J-0.467294
G02 X2.245269 Y2.124420 Z-0.125000 I0.003216 J-0.055812
G01 X2.246519 Y2.124445 Z-0.125000
G01 X2.247871 Y2.124420 Z-0.125000
G02 X2.250620 Y2.124482 Z-0.125000 I0.002867 J-0.066304
G02 X2.253221 Y2.124431 Z-0.125000 I0.000109 J-0.061255
G02 X2.255818 Y2.124272 Z-0.125000 I-0.002592 J-0.063674
G02 X2.258571 Y2.124000 Z-0.125000 I-0.006592 J-0.080685
G01 X2.259988 Y2.123913 Z-0.125000
G01 X2.261231 Y2.123893 Z-0.125000
G03 X2.262474 Y2.123908 Z-0.125000 I-0.000073 J0.055588
G02 X2.263649 Y2.123931 Z-0.125000 I0.003227 J-0.136258
G01 X2.264822 Y2.123934 Z-0.125000
G01 X2.266033 Y2.123889 Z-0.125000
G01 X2.267236 Y2.123772 Z-0.125000
G01 X2.268591 Y2.123540 Z-0.125000
G03 X2.269948 Y2.123349 Z-0.125000 I0.027808 J0.192520
G02 X2.271396 Y2.123149 Z-0.125000 I-0.107778 J-0.785198
G02 X2.272843 Y2.122943 Z-0.125000 I-0.034150 J-0.245430
G02 X2.274306 Y2.122720 Z-0.125000 I-0.014863 J-0.102391
G02 X2.275765 Y2.122473 Z-0.125000 I-0.012396 J-0.077575
G01 X2.277164 Y2.122201 Z-0.125000
G01 X2.278553 Y2.121885 Z-0.125000
G01 X2.279811 Y2.121540 Z-0.125000
G01 X2.280972 Y2.121326 Z-0.125000
G03 X2.282056 Y2.121153 Z-0.125000 I0.013540 J0.081521
G03 X2.283141 Y2.120988 Z-0.125000 I0.225581 J1.479479
G01 X2.284199 Y2.120814 Z-0.125000
G01 X2.285248 Y2.120606 Z-0.125000
G01 X2.286322 Y2.120338 Z-0.125000
G01 X2.287375 Y2.120000 Z-0.125000
G01 X2.288511 Y2.119540 Z-0.125000
G01 X2.289631 Y2.119269 Z-0.125000
G01 X2.290794 Y2.118938 Z-0.125000
G01 X2.291947 Y2.118571 Z-0.125000
G02 X2.293124 Y2.118171 Z-0.125000 I-0.027623 J-0.083157
G02 X2.294296 Y2.117758 Z-0.125000 I-0.048671 J-0.139858
G03 X2.295472 Y2.117339 Z-0.125000 I0.150323 J0.420554
G03 X2.296650 Y2.116927 Z-0.125000 I0.049579 J0.139939
G03 X2.297811 Y2.116540 Z-0.125000 I0.019905 J0.057721
G01 X2.299080 Y2.116192 Z-0.125000
G03 X2.300136 Y2.115931 Z-0.125000 I0.021896 J0.086127
G02 X2.301192 Y2.115674 Z-0.125000 I-0.062611 J-0.259552
G01 X2.302161 Y2.115415 Z-0.125000
G01 X2.303114 Y2.115110 Z-0.125000
G01 X2.304111 Y2.114712 Z-0.125000
G01 X2.304601 Y2.114480 Z-0.125000
G01 X2.305128 Y2.114202 Z-0.125000
G01 X2.305643 Y2.113902 Z-0.125000
G01 X2.306211 Y2.113540 Z-0.125000
G02 X2.308434 Y2.112777 Z-0.125000 I-0.041413 J-0.124238
G02 X2.310499 Y2.112040 Z-0.125000 I-0.118238 J-0.334577
G03 X2.312561 Y2.111297 Z-0.125000 I1.379148 J3.827136
G03 X2.314711 Y2.110540 Z-0.125000 I0.058125 J0.161568
G01 X2.315881 Y2.109816 Z-0.125000
G03 X2.316953 Y2.109196 Z-0.125000 I0.026118 J0.043982
G03 X2.318038 Y2.108599 Z-0.125000 I0.035662 J0.063506
G02 X2.319074 Y2.108040 Z-0.125000 I-0.634378 J-1.176075
G02 X2.320106 Y2.107475 Z-0.125000 I-0.053450 J-0.098883
G01 X2.321138 Y2.106884 Z-0.125000
G01 X2.322149 Y2.106260 Z-0.125000
G01 X2.323211 Y2.105540 Z-0.125000
G01 X2.324136 Y2.105128 Z-0.125000
G01 X2.325081 Y2.104634 Z-0.125000
G01 X2.326007 Y2.104099 Z-0.125000
G02 X2.326924 Y2.103540 Z-0.125000 I-0.044566 J-0.074091
G02 X2.327837 Y2.102974 Z-0.125000 I-0.416318 J-0.673048
G01 X2.328709 Y2.102446 Z-0.125000
G01 X2.329597 Y2.101945 Z-0.125000
G01 X2.330411 Y2.101540 Z-0.125000
G01 X2.331435 Y2.100816 Z-0.125000
G01 X2.332381 Y2.100196 Z-0.125000
G03 X2.333341 Y2.099598 Z-0.125000 I0.034403 J0.054119
G02 X2.334249 Y2.099040 Z-0.125000 I-0.104031 J-0.170208
G02 X2.335149 Y2.098472 Z-0.125000 I-0.031346 J-0.050677
G01 X2.336022 Y2.097884 Z-0.125000
G01 X2.336865 Y2.097256 Z-0.125000
G01 X2.337711 Y2.096540 Z-0.125000
G03 X2.338660 Y2.095797 Z-0.125000 I0.035845 J0.044806
G03 X2.339658 Y2.095040 Z-0.125000 I0.080273 J0.104777
G03 X2.340661 Y2.094289 Z-0.125000 I0.182282 J0.242663
G02 X2.341661 Y2.093540 Z-0.125000 I-0.116779 J-0.156806
G02 X2.342654 Y2.092782 Z-0.125000 I-0.063330 J-0.083912
G02 X2.343589 Y2.092040 Z-0.125000 I-0.030780 J-0.039791
G01 X2.344504 Y2.091273 Z-0.125000
G01 X2.345311 Y2.090540 Z-0.125000
G01 X2.346061 Y2.089828 Z-0.125000
G01 X2.346845 Y2.089196 Z-0.125000
G01 X2.347660 Y2.088598 Z-0.125000
G02 X2.348436 Y2.088040 Z-0.125000 I-0.035243 J-0.049785
G01 X2.348818 Y2.087755 Z-0.125000
G01 X2.349176 Y2.087474 Z-0.125000
G01 X2.349524 Y2.087179 Z-0.125000
G01 X2.349839 Y2.086884 Z-0.125000
G01 X2.350135 Y2.086569 Z-0.125000
G01 X2.350394 Y2.086247 Z-0.125000
G01 X2.350622 Y2.085903 Z-0.125000
G01 X2.350811 Y2.085540 Z-0.125000
G01 X2.351639 Y2.084810 Z-0.125000
G03 X2.352381 Y2.084181 Z-0.125000 I0.079524 J0.093034
G02 X2.353124 Y2.083552 Z-0.125000 I-0.109034 J-0.129630
G01 X2.353849 Y2.082915 Z-0.125000
G01 X2.354548 Y2.082251 Z-0.125000
G01 X2.355297 Y2.081462 Z-0.125000
G01 X2.355999 Y2.080629 Z-0.125000
G01 X2.356811 Y2.079540 Z-0.125000
G01 X2.357587 Y2.078768 Z-0.125000
G01 X2.358409 Y2.077884 Z-0.125000
G01 X2.359207 Y2.076977 Z-0.125000
G02 X2.359999 Y2.076040 Z-0.125000 I-0.056205 J-0.048244
G02 X2.360776 Y2.075091 Z-0.125000 I-0.071499 J-0.059344
G02 X2.361494 Y2.074196 Z-0.125000 I-0.138765 J-0.112114
G02 X2.362208 Y2.073297 Z-0.125000 I-0.273072 J-0.217739
G03 X2.362811 Y2.072540 Z-0.125000 I0.155064 J0.122812
G01 X2.363497 Y2.071798 Z-0.125000
G02 X2.364228 Y2.071024 Z-0.125000 I-0.231287 J-0.219433
G02 X2.364951 Y2.070244 Z-0.125000 I-0.045452 J-0.042835
G01 X2.365674 Y2.069415 Z-0.125000
G01 X2.366352 Y2.068553 Z-0.125000
G01 X2.366988 Y2.067618 Z-0.125000
G01 X2.367538 Y2.066635 Z-0.125000
G01 X2.368011 Y2.065540 Z-0.125000
G01 X2.368688 Y2.064456 Z-0.125000
G01 X2.369311 Y2.063602 Z-0.125000
G01 X2.369979 Y2.062782 Z-0.125000
G02 X2.370611 Y2.062040 Z-0.125000 I-0.484296 J-0.412931
G01 X2.371231 Y2.061290 Z-0.125000
G01 X2.371836 Y2.060477 Z-0.125000
G01 X2.372372 Y2.059621 Z-0.125000
G01 X2.372911 Y2.058540 Z-0.125000
G01 X2.373565 Y2.057406 Z-0.125000
G02 X2.374166 Y2.056290 Z-0.125000 I-0.046246 J-0.025613
G02 X2.374743 Y2.055161 Z-0.125000 I-0.060934 J-0.031863
G02 X2.375299 Y2.054040 Z-0.125000 I-0.174385 J-0.087134
G02 X2.375851 Y2.052917 Z-0.125000 I-4.155770 J-2.043254
G03 X2.376413 Y2.051790 Z-0.125000 I0.094586 J0.046473
G03 X2.376991 Y2.050672 Z-0.125000 I0.063051 J0.031919
G01 X2.377611 Y2.049540 Z-0.125000
G03 X2.378377 Y2.048422 Z-0.125000 I0.045406 J0.030270
G03 X2.379181 Y2.047290 Z-0.125000 I0.109625 J0.077083
G03 X2.379994 Y2.046164 Z-0.125000 I0.327588 J0.235454
G02 X2.380799 Y2.045040 Z-0.125000 I-0.108211 J-0.078343
G02 X2.381587 Y2.043906 Z-0.125000 I-0.064287 J-0.045537
G01 X2.382322 Y2.042790 Z-0.125000
G01 X2.383014 Y2.041649 Z-0.125000
G01 X2.383611 Y2.040540 Z-0.125000
G03 X2.384184 Y2.039428 Z-0.125000 I0.044923 J0.022461
G03 X2.384714 Y2.038446 Z-0.125000 I0.079064 J0.042025
G03 X2.385253 Y2.037469 Z-0.125000 I0.185886 J0.101795
G02 X2.385761 Y2.036540 Z-0.125000 I-0.083116 J-0.046086
G02 X2.386255 Y2.035604 Z-0.125000 I-0.047272 J-0.025527
G01 X2.386733 Y2.034634 Z-0.125000
G01 X2.387174 Y2.033647 Z-0.125000
G01 X2.387611 Y2.032540 Z-0.125000
G01 X2.388061 Y2.031427 Z-0.125000
G01 X2.388591 Y2.030290 Z-0.125000
G01 X2.389158 Y2.029169 Z-0.125000
G03 X2.389749 Y2.028040 Z-0.125000 I0.466962 J0.243716
G02 X2.390336 Y2.026909 Z-0.125000 I-0.125465 J-0.065869
G01 X2.390888 Y2.025790 Z-0.125000
G01 X2.391394 Y2.024651 Z-0.125000
G01 X2.391811 Y2.023540 Z-0.125000
G01 X2.392162 Y2.022409 Z-0.125000
G01 X2.392464 Y2.021290 Z-0.125000
G01 X2.392736 Y2.020163 Z-0.125000
G02 X2.392986 Y2.019040 Z-0.125000 I-0.099631 J-0.022764
G02 X2.393227 Y2.017915 Z-0.125000 I-0.242125 J-0.052460
G03 X2.393470 Y2.016790 Z-0.125000 I0.130668 J0.027677
G03 X2.393727 Y2.015668 Z-0.125000 I0.074026 J0.016347
G01 X2.394011 Y2.014540 Z-0.125000
G01 X2.394470 Y2.013059 Z-0.125000
G01 X2.394969 Y2.011699 Z-0.125000
G03 X2.395512 Y2.010355 Z-0.125000 I0.053139 J0.020686
G02 X2.396049 Y2.009065 Z-0.125000 I-0.259672 J-0.108767
G02 X2.396568 Y2.007769 Z-0.125000 I-0.061354 J-0.025342
G01 X2.397034 Y2.006468 Z-0.125000
G01 X2.397421 Y2.005144 Z-0.125000
G01 X2.397711 Y2.003740 Z-0.125000
G02 X2.397898 Y2.002606 Z-0.125000 I-0.064401 J-0.011227
G02 X2.398089 Y2.001334 Z-0.125000 I-0.101027 J-0.015788
G02 X2.398265 Y2.000060 Z-0.125000 I-0.122672 J-0.017592
G02 X2.398435 Y1.998740 Z-0.125000 I-0.174426 J-0.023169
G02 X2.398756 Y1.996046 Z-0.125000 I-0.223266 J-0.027940
G02 X2.399011 Y1.993740 Z-0.125000 I-0.509273 J-0.057505
G01 X2.399075 Y1.993179 Z-0.125000
G01 X2.399168 Y1.992570 Z-0.125000
G01 X2.399280 Y1.991964 Z-0.125000
G01 X2.399414 Y1.991315 Z-0.125000
G03 X2.399710 Y1.990020 Z-0.125000 I0.055154 J0.011921
G02 X2.400052 Y1.988590 Z-0.125000 I-0.590407 J-0.142238
G02 X2.400383 Y1.987158 Z-0.125000 I-0.105150 J-0.025063
G01 X2.400695 Y1.985640 Z-0.125000
G01 X2.400945 Y1.984113 Z-0.125000
G01 X2.401111 Y1.982540 Z-0.125000
G02 X2.401283 Y1.981048 Z-0.125000 I-0.116353 J-0.014195
G02 X2.401420 Y1.979692 Z-0.125000 I-0.086715 J-0.009454
G02 X2.401535 Y1.978333 Z-0.125000 I-0.078902 J-0.007356
G02 X2.401624 Y1.977002 Z-0.125000 I-0.072813 J-0.005526
G02 X2.401689 Y1.975670 Z-0.125000 I-0.073876 J-0.004252
G02 X2.401733 Y1.974257 Z-0.125000 I-0.084342 J-0.003330
G02 X2.401754 Y1.972843 Z-0.125000 I-0.094845 J-0.002155
G02 X2.401757 Y1.971240 Z-0.125000 I-0.131133 J-0.001023
G01 X2.401808 Y1.969747 Z-0.125000
G01 X2.401773 Y1.968399 Z-0.125000
G01 X2.401664 Y1.967055 Z-0.125000
G01 X2.401501 Y1.965765 Z-0.125000
G01 X2.401294 Y1.964480 Z-0.125000
G02 X2.401056 Y1.963168 Z-0.125000 I-0.126832 J0.022295
G02 X2.400811 Y1.961857 Z-0.125000 I-1.386017 J0.258460
G03 X2.400557 Y1.960440 Z-0.125000 I0.089019 J-0.016687
G02 X2.400344 Y1.958950 Z-0.125000 I-0.113136 J0.015387
G02 X2.400140 Y1.957593 Z-0.125000 I-0.603392 J0.090179
G03 X2.399937 Y1.956237 Z-0.125000 I0.338268 J-0.051333
G03 X2.399753 Y1.954915 Z-0.125000 I0.079400 J-0.011724
G03 X2.399595 Y1.953590 Z-0.125000 I0.058596 J-0.007659
G01 X2.399468 Y1.952199 Z-0.125000
G01 X2.399388 Y1.950805 Z-0.125000
G01 X2.399357 Y1.949240 Z-0.125000
G01 X2.399004 Y1.941240 Z-0.125000
G01 X2.399153 Y1.931240 Z-0.125000
G01 X2.399708 Y1.922240 Z-0.125000
G01 X2.399315 Y1.914340 Z-0.125000
G00 Z5.000000

(End cutting path id: path1150)


(Start cutting path id: path1150)
(Change tool to Default tool)

G00 Z5.000000
G00 X2.336525 Y1.963640

G01 Z-0.125000 F100.0(Penetrate)
G01 X2.336560 Y1.965142 Z-0.125000 F400.000000
G01 X2.336523 Y1.966631 Z-0.125000
G01 X2.336432 Y1.968118 Z-0.125000
G03 X2.336306 Y1.969565 Z-0.125000 I-0.079527 J-0.006194
G03 X2.336159 Y1.971011 Z-0.125000 I-0.131081 J-0.012614
G02 X2.336014 Y1.972387 Z-0.125000 I0.300999 J0.032323
G02 X2.335882 Y1.973764 Z-0.125000 I0.104244 J0.010713
G01 X2.335788 Y1.975040 Z-0.125000
G01 X2.335871 Y1.976174 Z-0.125000
G01 X2.335894 Y1.977446 Z-0.125000
G01 X2.335859 Y1.978718 Z-0.125000
G01 X2.335772 Y1.980040 Z-0.125000
G01 X2.335641 Y1.981358 Z-0.125000
G01 X2.335473 Y1.982634 Z-0.125000
G01 X2.335267 Y1.983904 Z-0.125000
G01 X2.335046 Y1.985040 Z-0.125000
G01 X2.334851 Y1.986178 Z-0.125000
G03 X2.334575 Y1.987596 Z-0.125000 I-0.087997 J-0.016397
G03 X2.334280 Y1.989009 Z-0.125000 I-0.126153 J-0.025620
G03 X2.333958 Y1.990490 Z-0.125000 I-0.297684 J-0.063938
G03 X2.333630 Y1.991971 Z-0.125000 I-0.613180 J-0.134899
G02 X2.333335 Y1.993309 Z-0.125000 I0.414491 J0.092238
G02 X2.333046 Y1.994652 Z-0.125000 I0.187441 J0.041078
G02 X2.332846 Y1.995640 Z-0.125000 I0.053050 J0.011228
G01 X2.332621 Y1.996762 Z-0.125000
G03 X2.332368 Y1.997890 Z-0.125000 I-0.060507 J-0.013017
G03 X2.332096 Y1.999014 Z-0.125000 I-0.081926 J-0.019232
G03 X2.331812 Y2.000140 Z-0.125000 I-0.274027 J-0.068313
G02 X2.331527 Y2.001266 Z-0.125000 I1.698367 J0.430819
G02 X2.331249 Y2.002390 Z-0.125000 I0.109542 J0.027710
G02 X2.330985 Y2.003517 Z-0.125000 I0.074403 J0.018012
G01 X2.330746 Y2.004640 Z-0.125000
G01 X2.330643 Y2.005757 Z-0.125000
G01 X2.330417 Y2.006890 Z-0.125000
G01 X2.330104 Y2.008007 Z-0.125000
G01 X2.329726 Y2.009140 Z-0.125000
G03 X2.329322 Y2.010265 Z-0.125000 I-0.077527 J-0.027218
G02 X2.328920 Y2.011390 Z-0.125000 I0.062189 J0.022856
G01 X2.328548 Y2.012524 Z-0.125000
G01 X2.328246 Y2.013640 Z-0.125000
G01 X2.327842 Y2.014786 Z-0.125000
G02 X2.327374 Y2.016188 Z-0.125000 I0.147895 J0.050104
G02 X2.326916 Y2.017592 Z-0.125000 I0.375407 J0.123230
G03 X2.326446 Y2.019028 Z-0.125000 I-0.227174 J-0.073632
G03 X2.325962 Y2.020459 Z-0.125000 I-0.121274 J-0.040157
G03 X2.325518 Y2.021698 Z-0.125000 I-0.047633 J-0.016400
G01 X2.325284 Y2.022306 Z-0.125000
G01 X2.325071 Y2.022826 Z-0.125000
G01 X2.324843 Y2.023340 Z-0.125000
G01 X2.324646 Y2.023740 Z-0.125000
G01 X2.324375 Y2.024489 Z-0.125000
G01 X2.323992 Y2.025396 Z-0.125000
G01 X2.323577 Y2.026288 Z-0.125000
G01 X2.323101 Y2.027240 Z-0.125000
G03 X2.322605 Y2.028181 Z-0.125000 I-0.046734 J-0.024054
G03 X2.322107 Y2.029084 Z-0.125000 I-0.056638 J-0.030617
G03 X2.321595 Y2.029979 Z-0.125000 I-0.058809 J-0.033018
G03 X2.321146 Y2.030740 Z-0.125000 I-0.056423 J-0.032824
G02 X2.320627 Y2.031491 Z-0.125000 I0.057405 J0.040183
G03 X2.320116 Y2.032240 Z-0.125000 I-0.303802 J-0.206816
G03 X2.319601 Y2.032985 Z-0.125000 I-0.073072 J-0.050009
G01 X2.319058 Y2.033740 Z-0.125000
G01 X2.318496 Y2.034479 Z-0.125000
G01 X2.317869 Y2.035240 Z-0.125000
G01 X2.317210 Y2.035972 Z-0.125000
G01 X2.316446 Y2.036740 Z-0.125000
G01 X2.315933 Y2.037484 Z-0.125000
G01 X2.315243 Y2.038396 Z-0.125000
G01 X2.314526 Y2.039286 Z-0.125000
G03 X2.313721 Y2.040240 Z-0.125000 I-0.051090 J-0.042291
G03 X2.312900 Y2.041180 Z-0.125000 I-0.059052 J-0.050784
G03 X2.312087 Y2.042084 Z-0.125000 I-0.073876 J-0.065622
G03 X2.311262 Y2.042979 Z-0.125000 I-0.078154 J-0.071162
G03 X2.310546 Y2.043740 Z-0.125000 I-0.079243 J-0.073839
G03 X2.309111 Y2.045233 Z-0.125000 I-0.126062 J-0.119759
G03 X2.307633 Y2.046740 Z-0.125000 I-0.203422 J-0.197914
G03 X2.306147 Y2.048238 Z-0.125000 I-0.286085 J-0.282509
G03 X2.304646 Y2.049740 Z-0.125000 I-1.444506 J-1.441503
G03 X2.303853 Y2.050489 Z-0.125000 I-0.091077 J-0.095631
G03 X2.303054 Y2.051224 Z-0.125000 I-0.041609 J-0.044418
G01 X2.302240 Y2.051943 Z-0.125000
G01 X2.301433 Y2.052615 Z-0.125000
G01 X2.300603 Y2.053255 Z-0.125000
G01 X2.299794 Y2.053818 Z-0.125000
G01 X2.298954 Y2.054330 Z-0.125000
G01 X2.298146 Y2.054740 Z-0.125000
G01 X2.297268 Y2.055480 Z-0.125000
G01 X2.296326 Y2.056224 Z-0.125000
G01 X2.295361 Y2.056939 Z-0.125000
G01 X2.294383 Y2.057615 Z-0.125000
G01 X2.293383 Y2.058256 Z-0.125000
G01 X2.292423 Y2.058818 Z-0.125000
G01 X2.291437 Y2.059335 Z-0.125000
G01 X2.290546 Y2.059740 Z-0.125000
G01 X2.289769 Y2.060141 Z-0.125000
G01 X2.288894 Y2.060646 Z-0.125000
G02 X2.288030 Y2.061169 Z-0.125000 I0.042262 J0.070885
G03 X2.287083 Y2.061740 Z-0.125000 I-0.041766 J-0.068141
G01 X2.286127 Y2.062292 Z-0.125000
G01 X2.285104 Y2.062834 Z-0.125000
G01 X2.284055 Y2.063319 Z-0.125000
G01 X2.282946 Y2.063740 Z-0.125000
G01 X2.281904 Y2.064147 Z-0.125000
G01 X2.280780 Y2.064646 Z-0.125000
G02 X2.279670 Y2.065176 Z-0.125000 I0.024537 J0.052866
G02 X2.278521 Y2.065740 Z-0.125000 I0.397584 J0.811322
G03 X2.277370 Y2.066300 Z-0.125000 I-0.071716 J-0.145823
G01 X2.276224 Y2.066834 Z-0.125000
G01 X2.275062 Y2.067329 Z-0.125000
G01 X2.273946 Y2.067740 Z-0.125000
G01 X2.272906 Y2.068087 Z-0.125000
G01 X2.272071 Y2.068330 Z-0.125000
G01 X2.271230 Y2.068543 Z-0.125000
G03 X2.270421 Y2.068729 Z-0.125000 I-0.016172 J-0.068440
G02 X2.269610 Y2.068910 Z-0.125000 I0.564810 J2.523008
G01 X2.268659 Y2.069134 Z-0.125000
G01 X2.267709 Y2.069378 Z-0.125000
G01 X2.266446 Y2.069740 Z-0.125000
G01 X2.265168 Y2.070025 Z-0.125000
G01 X2.263852 Y2.070266 Z-0.125000
G03 X2.262530 Y2.070476 Z-0.125000 I-0.011340 J-0.067194
G03 X2.261145 Y2.070680 Z-0.125000 I-0.075596 J-0.508618
G02 X2.259759 Y2.070886 Z-0.125000 I0.038384 J0.263180
G02 X2.258286 Y2.071124 Z-0.125000 I0.011174 J0.073890
G02 X2.256818 Y2.071395 Z-0.125000 I0.009792 J0.057022
G01 X2.255236 Y2.071740 Z-0.125000
G01 X2.253933 Y2.072002 Z-0.125000
G01 X2.252833 Y2.072153 Z-0.125000
G01 X2.251726 Y2.072237 Z-0.125000
G01 X2.250636 Y2.072268 Z-0.125000
G01 X2.249544 Y2.072263 Z-0.125000
G02 X2.248289 Y2.072243 Z-0.125000 I-0.195322 J12.230741
G02 X2.247032 Y2.072230 Z-0.125000 I-0.001986 J0.125185
G02 X2.245436 Y2.072240 Z-0.125000 I-0.000381 J0.065338
G01 X2.244052 Y2.072307 Z-0.125000
G01 X2.242739 Y2.072331 Z-0.125000
G01 X2.241426 Y2.072317 Z-0.125000
G03 X2.240136 Y2.072270 Z-0.125000 I0.001385 J-0.055975
G03 X2.238847 Y2.072195 Z-0.125000 I0.003056 J-0.063892
G03 X2.237533 Y2.072097 Z-0.125000 I0.006373 J-0.093608
G03 X2.236220 Y2.071982 Z-0.125000 I0.010172 J-0.123743
G03 X2.234836 Y2.071850 Z-0.125000 I0.029529 J-0.317846
G01 X2.233582 Y2.071824 Z-0.125000
G01 X2.232628 Y2.071777 Z-0.125000
G01 X2.231679 Y2.071705 Z-0.125000
G03 X2.230824 Y2.071624 Z-0.125000 I0.006912 J-0.077758
G03 X2.229968 Y2.071538 Z-0.125000 I0.054671 J-0.546706
G02 X2.229000 Y2.071446 Z-0.125000 I-0.006659 J0.065557
G02 X2.228028 Y2.071371 Z-0.125000 I-0.004451 J0.051341
G02 X2.226736 Y2.071300 Z-0.125000 I-0.003532 J0.052201
G02 X2.225196 Y2.071220 Z-0.125000 I-0.010875 J0.193863
G02 X2.223616 Y2.071145 Z-0.125000 I-0.036706 J0.762615
G03 X2.222035 Y2.071072 Z-0.125000 I0.095888 J-2.082005
G03 X2.220447 Y2.070993 Z-0.125000 I0.011636 J-0.248546
G03 X2.218860 Y2.070901 Z-0.125000 I0.009131 J-0.171556
G03 X2.217296 Y2.070791 Z-0.125000 I0.006433 J-0.102914
G03 X2.215734 Y2.070655 Z-0.125000 I0.006554 J-0.084253
G03 X2.214226 Y2.070490 Z-0.125000 I0.005734 J-0.059435
G03 X2.213151 Y2.070315 Z-0.125000 I0.007660 J-0.050488
G01 X2.212162 Y2.070133 Z-0.125000
G01 X2.211177 Y2.069929 Z-0.125000
G03 X2.210164 Y2.069700 Z-0.125000 I0.013192 J-0.060716
G03 X2.209152 Y2.069455 Z-0.125000 I0.017701 J-0.075368
G03 X2.207996 Y2.069163 Z-0.125000 I0.036272 J-0.145617
G03 X2.206841 Y2.068862 Z-0.125000 I0.062291 J-0.241863
G03 X2.205426 Y2.068490 Z-0.125000 I0.781714 J-2.976259
G01 X2.204972 Y2.068389 Z-0.125000
G01 X2.204426 Y2.068295 Z-0.125000
G01 X2.203877 Y2.068221 Z-0.125000
G01 X2.203257 Y2.068155 Z-0.125000
G01 X2.202003 Y2.068055 Z-0.125000
G02 X2.200597 Y2.067971 Z-0.125000 I-0.011424 J0.178920
G03 X2.199192 Y2.067891 Z-0.125000 I0.042309 J-0.755948
G03 X2.197820 Y2.067797 Z-0.125000 I0.003599 J-0.062225
G01 X2.197140 Y2.067737 Z-0.125000
G01 X2.196503 Y2.067669 Z-0.125000
G01 X2.195867 Y2.067585 Z-0.125000
G01 X2.195296 Y2.067490 Z-0.125000
G01 X2.194759 Y2.067347 Z-0.125000
G01 X2.194316 Y2.067204 Z-0.125000
G01 X2.193883 Y2.067037 Z-0.125000
G01 X2.193515 Y2.066871 Z-0.125000
G01 X2.193156 Y2.066686 Z-0.125000
G01 X2.192835 Y2.066501 Z-0.125000
G01 X2.192521 Y2.066305 Z-0.125000
G01 X2.192221 Y2.066106 Z-0.125000
G01 X2.191923 Y2.065904 Z-0.125000
G01 X2.191616 Y2.065697 Z-0.125000
G01 X2.191306 Y2.065494 Z-0.125000
G01 X2.190965 Y2.065284 Z-0.125000
G01 X2.190269 Y2.064907 Z-0.125000
G01 X2.189296 Y2.064490 Z-0.125000
G01 X2.187981 Y2.064155 Z-0.125000
G01 X2.186745 Y2.063902 Z-0.125000
G01 X2.185500 Y2.063692 Z-0.125000
G02 X2.184263 Y2.063505 Z-0.125000 I-0.031828 J0.206776
G03 X2.183027 Y2.063318 Z-0.125000 I0.030608 J-0.207075
G01 X2.181733 Y2.063101 Z-0.125000
G01 X2.180448 Y2.062841 Z-0.125000
G01 X2.179036 Y2.062490 Z-0.125000
G01 X2.178285 Y2.062101 Z-0.125000
G01 X2.177322 Y2.061568 Z-0.125000
G03 X2.176371 Y2.061016 Z-0.125000 I0.027725 J-0.048821
G03 X2.175298 Y2.060365 Z-0.125000 I0.034555 J-0.058165
G03 X2.174238 Y2.059695 Z-0.125000 I0.036823 J-0.059443
G03 X2.173144 Y2.058974 Z-0.125000 I0.036505 J-0.056635
G03 X2.172064 Y2.058232 Z-0.125000 I0.035293 J-0.052484
G03 X2.171036 Y2.057490 Z-0.125000 I0.029361 J-0.041768
G01 X2.170119 Y2.056771 Z-0.125000
G01 X2.169234 Y2.056146 Z-0.125000
G01 X2.168327 Y2.055554 Z-0.125000
G02 X2.167424 Y2.054990 Z-0.125000 I-0.067777 J0.107549
G03 X2.166519 Y2.054428 Z-0.125000 I0.149922 J-0.242374
G01 X2.165594 Y2.053834 Z-0.125000
G01 X2.164688 Y2.053211 Z-0.125000
G01 X2.163736 Y2.052490 Z-0.125000
G03 X2.161965 Y2.050971 Z-0.125000 I0.052944 J-0.063532
G03 X2.160311 Y2.049490 Z-0.125000 I0.098816 J-0.111998
G01 X2.157036 Y2.046490 Z-0.125000
G01 X2.156185 Y2.045731 Z-0.125000
G03 X2.155392 Y2.044990 Z-0.125000 I0.037742 J-0.041202
G03 X2.154612 Y2.044235 Z-0.125000 I0.046448 J-0.048771
G03 X2.153861 Y2.043490 Z-0.125000 I0.089713 J-0.091210
G01 X2.152367 Y2.041990 Z-0.125000
G02 X2.151616 Y2.041245 Z-0.125000 I-0.090465 J0.090465
G02 X2.150836 Y2.040490 Z-0.125000 I-0.047228 J0.048016
G01 X2.149991 Y2.039713 Z-0.125000
G01 X2.149116 Y2.038834 Z-0.125000
G01 X2.148268 Y2.037927 Z-0.125000
G03 X2.147423 Y2.036990 Z-0.125000 I0.079364 J-0.072323
G03 X2.146587 Y2.036045 Z-0.125000 I0.187386 J-0.166773
G02 X2.145788 Y2.035146 Z-0.125000 I-0.098911 J0.087143
G02 X2.144976 Y2.034258 Z-0.125000 I-0.051350 J0.046079
G01 X2.144236 Y2.033490 Z-0.125000
G01 X2.143466 Y2.032715 Z-0.125000
G01 X2.142666 Y2.031834 Z-0.125000
G01 X2.141893 Y2.030928 Z-0.125000
G03 X2.141123 Y2.029990 Z-0.125000 I0.075753 J-0.062921
G03 X2.140362 Y2.029045 Z-0.125000 I0.161169 J-0.130547
G02 X2.139638 Y2.028146 Z-0.125000 I-0.116243 J0.093036
G02 X2.138902 Y2.027256 Z-0.125000 I-0.056939 J0.046300
G01 X2.138236 Y2.026490 Z-0.125000
G01 X2.137697 Y2.025381 Z-0.125000
G01 X2.137184 Y2.024396 Z-0.125000
G02 X2.136651 Y2.023423 Z-0.125000 I-0.050927 J0.027282
G02 X2.136123 Y2.022490 Z-0.125000 I-0.132553 J0.074321
G02 X2.135592 Y2.021559 Z-0.125000 I-2.034277 J1.159538
G03 X2.135044 Y2.020584 Z-0.125000 I0.080726 J-0.046063
G03 X2.134509 Y2.019601 Z-0.125000 I0.057361 J-0.031822
G01 X2.133936 Y2.018490 Z-0.125000
G01 X2.133352 Y2.017723 Z-0.125000
G01 X2.132723 Y2.016818 Z-0.125000
G01 X2.132127 Y2.015891 Z-0.125000
G01 X2.131511 Y2.014865 Z-0.125000
G01 X2.130922 Y2.013823 Z-0.125000
G03 X2.130336 Y2.012724 Z-0.125000 I0.048025 J-0.026335
G03 X2.129774 Y2.011613 Z-0.125000 I0.051080 J-0.026518
G03 X2.129236 Y2.010490 Z-0.125000 I0.054284 J-0.026707
G01 X2.128956 Y2.010093 Z-0.125000
G01 X2.128744 Y2.009652 Z-0.125000
G01 X2.128593 Y2.009183 Z-0.125000
G01 X2.128486 Y2.008662 Z-0.125000
G01 X2.128420 Y2.008132 Z-0.125000
G01 X2.128381 Y2.007554 Z-0.125000
G01 X2.128359 Y2.006976 Z-0.125000
G03 X2.128344 Y2.006365 Z-0.125000 I1.001903 J-0.024580
G02 X2.128327 Y2.005754 Z-0.125000 I-0.057568 J0.001377
G01 X2.128295 Y2.005129 Z-0.125000
G01 X2.128239 Y2.004505 Z-0.125000
G01 X2.128149 Y2.003881 Z-0.125000
G01 X2.128014 Y2.003265 Z-0.125000
G01 X2.127823 Y2.002656 Z-0.125000
G01 X2.127571 Y2.002071 Z-0.125000
G01 X2.127236 Y2.001490 Z-0.125000
G01 X2.126695 Y2.000357 Z-0.125000
G03 X2.126202 Y1.999240 Z-0.125000 I0.051696 J-0.023515
G03 X2.125727 Y1.998114 Z-0.125000 I0.082873 J-0.035566
G02 X2.125261 Y1.996990 Z-0.125000 I-0.381439 J0.157615
G02 X2.124787 Y1.995870 Z-0.125000 I-0.100213 J0.041755
G01 X2.124283 Y1.994740 Z-0.125000
G01 X2.123745 Y1.993627 Z-0.125000
G01 X2.123136 Y1.992490 Z-0.125000
G01 X2.123016 Y1.991933 Z-0.125000
G01 X2.122866 Y1.991408 Z-0.125000
G01 X2.122683 Y1.990893 Z-0.125000
G01 X2.122476 Y1.990396 Z-0.125000
G01 X2.122247 Y1.989909 Z-0.125000
G01 X2.122001 Y1.989431 Z-0.125000
G01 X2.121742 Y1.988960 Z-0.125000
G02 X2.121474 Y1.988490 Z-0.125000 I-0.046501 J0.026202
G02 X2.120934 Y1.987554 Z-0.125000 I-0.846955 J0.488608
G01 X2.120404 Y1.986584 Z-0.125000
G01 X2.119934 Y1.985587 Z-0.125000
G01 X2.119536 Y1.984490 Z-0.125000
G01 X2.119255 Y1.983382 Z-0.125000
G01 X2.118967 Y1.982381 Z-0.125000
G02 X2.118662 Y1.981384 Z-0.125000 I-0.084980 J0.025470
G03 X2.118350 Y1.980365 Z-0.125000 I0.091241 J-0.028519
G03 X2.118054 Y1.979340 Z-0.125000 I0.048264 J-0.014497
G01 X2.117751 Y1.978162 Z-0.125000
G01 X2.117492 Y1.976972 Z-0.125000
G01 X2.117236 Y1.975490 Z-0.125000
G03 X2.117035 Y1.974356 Z-0.125000 I0.049377 J-0.009349
G03 X2.116834 Y1.973084 Z-0.125000 I0.083405 J-0.013819
G03 X2.116650 Y1.971810 Z-0.125000 I0.107399 J-0.016118
G03 X2.116473 Y1.970490 Z-0.125000 I0.188665 J-0.026031
G03 X2.116303 Y1.969169 Z-0.125000 I0.270917 J-0.035451
G03 X2.116144 Y1.967896 Z-0.125000 I1.800210 J-0.226653
G02 X2.115983 Y1.966623 Z-0.125000 I-0.871974 J0.109158
G02 X2.115836 Y1.965490 Z-0.125000 I-0.172907 J0.021902
G01 X2.125436 Y1.966140 Z-0.125000
G01 X2.135916 Y1.966000 Z-0.125000
G01 X2.144516 Y1.966710 Z-0.125000
G01 X2.153916 Y1.966870 Z-0.125000
G01 X2.163616 Y1.967870 Z-0.125000
G01 X2.173116 Y1.968380 Z-0.125000
G01 X2.183116 Y1.968110 Z-0.125000
G01 X2.192216 Y1.969110 Z-0.125000
G01 X2.202336 Y1.968710 Z-0.125000
G01 X2.212556 Y1.968250 Z-0.125000
G01 X2.220956 Y1.969250 Z-0.125000
G01 X2.230996 Y1.968900 Z-0.125000
G01 X2.241146 Y1.968180 Z-0.125000
G01 X2.250846 Y1.967390 Z-0.125000
G01 X2.259946 Y1.966980 Z-0.125000
G01 X2.270116 Y1.966250 Z-0.125000
G01 X2.278516 Y1.966600 Z-0.125000
G01 X2.288316 Y1.966260 Z-0.125000
G01 X2.298216 Y1.965650 Z-0.125000
G01 X2.308666 Y1.965040 Z-0.125000
G01 X2.317166 Y1.964760 Z-0.125000
G01 X2.326866 Y1.964130 Z-0.125000
G01 X2.336525 Y1.963640 Z-0.125000
G00 Z5.000000

(End cutting path id: path1150)


(Start cutting path id: path1148)
(Change tool to Default tool)

G00 Z5.000000
G00 X1.994518 Y1.752440

G01 Z-0.125000 F100.0(Penetrate)
G01 X1.993292 Y1.752024 Z-0.125000 F400.000000
G01 X1.992065 Y1.751534 Z-0.125000
G01 X1.990856 Y1.750998 Z-0.125000
G03 X1.989668 Y1.750440 Z-0.125000 I0.049380 J-0.106750
G03 X1.988483 Y1.749875 Z-0.125000 I0.524205 J-1.100830
G02 X1.987346 Y1.749346 Z-0.125000 I-0.026467 J0.055427
G01 X1.986196 Y1.748848 Z-0.125000
G01 X1.985118 Y1.748440 Z-0.125000
G01 X1.983974 Y1.748021 Z-0.125000
G01 X1.982871 Y1.747534 Z-0.125000
G01 X1.981789 Y1.746999 Z-0.125000
G03 X1.980718 Y1.746440 Z-0.125000 I0.076696 J-0.148315
G02 X1.979647 Y1.745881 Z-0.125000 I-0.077766 J0.147756
G01 X1.978565 Y1.745346 Z-0.125000
G01 X1.977462 Y1.744859 Z-0.125000
G01 X1.976318 Y1.744440 Z-0.125000
G03 X1.975158 Y1.744062 Z-0.125000 I0.070109 J-0.217338
G03 X1.974010 Y1.743674 Z-0.125000 I0.021993 J-0.066951
G03 X1.972871 Y1.743263 Z-0.125000 I0.017267 J-0.049667
G01 X1.971731 Y1.742815 Z-0.125000
G01 X1.970608 Y1.742325 Z-0.125000
G01 X1.969470 Y1.741768 Z-0.125000
G01 X1.968361 Y1.741155 Z-0.125000
G01 X1.967218 Y1.740440 Z-0.125000
G01 X1.966154 Y1.740019 Z-0.125000
G01 X1.965148 Y1.739534 Z-0.125000
G01 X1.964164 Y1.739000 Z-0.125000
G03 X1.963181 Y1.738440 Z-0.125000 I0.199964 J-0.352218
G02 X1.962194 Y1.737886 Z-0.125000 I-0.037688 J0.065954
G01 X1.961157 Y1.737346 Z-0.125000
G01 X1.960094 Y1.736866 Z-0.125000
G01 X1.958918 Y1.736440 Z-0.125000
G01 X1.957707 Y1.736135 Z-0.125000
G01 X1.956459 Y1.735884 Z-0.125000
G02 X1.955202 Y1.735671 Z-0.125000 I-0.009432 J0.051763
G02 X1.953943 Y1.735474 Z-0.125000 I-0.154668 J0.983383
G03 X1.952685 Y1.735271 Z-0.125000 I0.019234 J-0.123315
G01 X1.951465 Y1.735046 Z-0.125000
G01 X1.950256 Y1.734773 Z-0.125000
G01 X1.949118 Y1.734440 Z-0.125000
G01 X1.948240 Y1.734082 Z-0.125000
G01 X1.947168 Y1.733690 Z-0.125000
G02 X1.946088 Y1.733322 Z-0.125000 I-0.020731 J0.059084
G02 X1.944918 Y1.732940 Z-0.125000 I-0.053719 J0.162521
G02 X1.943747 Y1.732564 Z-0.125000 I-0.159150 J0.493366
G03 X1.942593 Y1.732190 Z-0.125000 I0.051636 J-0.161381
G03 X1.941443 Y1.731805 Z-0.125000 I0.030090 J-0.091774
G01 X1.940418 Y1.731440 Z-0.125000
G01 X1.939340 Y1.731102 Z-0.125000
G01 X1.938340 Y1.730753 Z-0.125000
G01 X1.937349 Y1.730378 Z-0.125000
G03 X1.936393 Y1.729996 Z-0.125000 I0.029731 J-0.075806
G03 X1.935441 Y1.729605 Z-0.125000 I0.057640 J-0.141669
G02 X1.934484 Y1.729211 Z-0.125000 I-0.074882 J0.180557
G02 X1.933523 Y1.728825 Z-0.125000 I-0.035234 J0.086246
G01 X1.932518 Y1.728440 Z-0.125000
G01 X1.931502 Y1.728118 Z-0.125000
G01 X1.930541 Y1.727856 Z-0.125000
G02 X1.929578 Y1.727604 Z-0.125000 I-0.171134 J0.653221
G01 X1.928630 Y1.727337 Z-0.125000
G01 X1.927699 Y1.727025 Z-0.125000
G01 X1.926738 Y1.726620 Z-0.125000
G01 X1.925822 Y1.726127 Z-0.125000
G01 X1.924818 Y1.725440 Z-0.125000
G01 X1.923758 Y1.725151 Z-0.125000
G01 X1.922635 Y1.724905 Z-0.125000
G01 X1.921504 Y1.724695 Z-0.125000
G02 X1.920330 Y1.724492 Z-0.125000 I-0.098010 J0.565434
G03 X1.919158 Y1.724286 Z-0.125000 I0.022730 J-0.132770
G01 X1.917970 Y1.724053 Z-0.125000
G01 X1.916791 Y1.723778 Z-0.125000
G01 X1.915618 Y1.723440 Z-0.125000
G02 X1.913750 Y1.722959 Z-0.125000 I-0.068433 J0.261655
G03 X1.912255 Y1.722560 Z-0.125000 I0.015936 J-0.062756
G01 X1.911488 Y1.722338 Z-0.125000
G01 X1.910654 Y1.722079 Z-0.125000
G01 X1.909824 Y1.721801 Z-0.125000
G03 X1.908818 Y1.721440 Z-0.125000 I0.016848 J-0.048567
G01 X1.907477 Y1.721305 Z-0.125000
G01 X1.906260 Y1.721142 Z-0.125000
G01 X1.905049 Y1.720937 Z-0.125000
G01 X1.903880 Y1.720702 Z-0.125000
G01 X1.902718 Y1.720436 Z-0.125000
G03 X1.901520 Y1.720132 Z-0.125000 I0.015618 J-0.064205
G03 X1.900325 Y1.719809 Z-0.125000 I0.022064 J-0.083842
G03 X1.899018 Y1.719440 Z-0.125000 I0.054348 J-0.195163
G01 X1.897891 Y1.719308 Z-0.125000
G02 X1.896715 Y1.719195 Z-0.125000 I-0.006790 J0.064829
G02 X1.895537 Y1.719102 Z-0.125000 I-0.006953 J0.080420
G02 X1.894318 Y1.719020 Z-0.125000 I-0.010153 J0.141560
G02 X1.893098 Y1.718947 Z-0.125000 I-0.013649 J0.216388
G02 X1.891846 Y1.718875 Z-0.125000 I-0.612705 J10.670349
G03 X1.890594 Y1.718801 Z-0.125000 I0.028270 J-0.493339
G03 X1.889318 Y1.718720 Z-0.125000 I0.009837 J-0.164363
G03 X1.888200 Y1.718732 Z-0.125000 I-0.003146 J-0.235977
G03 X1.887227 Y1.718735 Z-0.125000 I-0.000745 J-0.086662
G03 X1.886255 Y1.718725 Z-0.125000 I0.000166 J-0.063179
G01 X1.885343 Y1.718699 Z-0.125000
G01 X1.884432 Y1.718651 Z-0.125000
G01 X1.883496 Y1.718578 Z-0.125000
G01 X1.882562 Y1.718479 Z-0.125000
G01 X1.881518 Y1.718340 Z-0.125000
G01 X1.880306 Y1.718325 Z-0.125000
G02 X1.878872 Y1.718351 Z-0.125000 I0.000463 J0.066010
G02 X1.877440 Y1.718403 Z-0.125000 I0.002725 J0.094824
G02 X1.875950 Y1.718472 Z-0.125000 I0.011512 J0.262429
G02 X1.874461 Y1.718547 Z-0.125000 I0.048914 J0.987051
G03 X1.873078 Y1.718613 Z-0.125000 I-0.009288 J-0.181880
G03 X1.871692 Y1.718663 Z-0.125000 I-0.004377 J-0.100737
G01 X1.870578 Y1.718680 Z-0.125000
G01 X1.869977 Y1.718679 Z-0.125000
G01 X1.869335 Y1.718703 Z-0.125000
G01 X1.868693 Y1.718746 Z-0.125000
G01 X1.868019 Y1.718807 Z-0.125000
G01 X1.866669 Y1.718963 Z-0.125000
G02 X1.865257 Y1.719154 Z-0.125000 I0.026934 J0.205185
G03 X1.863845 Y1.719346 Z-0.125000 I-0.051937 J-0.375601
G03 X1.862463 Y1.719514 Z-0.125000 I-0.007152 J-0.053194
G01 X1.861773 Y1.719582 Z-0.125000
G01 X1.861107 Y1.719634 Z-0.125000
G01 X1.860440 Y1.719668 Z-0.125000
G01 X1.859808 Y1.719680 Z-0.125000
G02 X1.858900 Y1.719683 Z-0.125000 I-0.000263 J0.063131
G02 X1.857780 Y1.719699 Z-0.125000 I0.001273 J0.124707
G02 X1.856661 Y1.719724 Z-0.125000 I0.003216 J0.167497
G02 X1.855433 Y1.719759 Z-0.125000 I0.007726 J0.298501
G02 X1.852924 Y1.719841 Z-0.125000 I0.014382 J0.479392
G03 X1.850608 Y1.719920 Z-0.125000 I-0.042864 J-1.216364
G01 X1.850027 Y1.719955 Z-0.125000
G01 X1.849402 Y1.720029 Z-0.125000
G01 X1.848780 Y1.720132 Z-0.125000
G01 X1.848123 Y1.720266 Z-0.125000
G01 X1.847470 Y1.720418 Z-0.125000
G02 X1.846793 Y1.720588 Z-0.125000 I0.012111 J0.049581
G02 X1.846118 Y1.720766 Z-0.125000 I0.019675 J0.076024
G03 X1.845432 Y1.720950 Z-0.125000 I-57.051868 J-212.631774
G03 X1.844745 Y1.721133 Z-0.125000 I-0.042370 J-0.157916
G03 X1.844061 Y1.721308 Z-0.125000 I-0.013667 J-0.051837
G01 X1.843373 Y1.721473 Z-0.125000
G01 X1.842701 Y1.721619 Z-0.125000
G01 X1.842024 Y1.721744 Z-0.125000
G01 X1.841373 Y1.721837 Z-0.125000
G01 X1.840718 Y1.721899 Z-0.125000
G01 X1.840098 Y1.721920 Z-0.125000
G01 X1.839018 Y1.722040 Z-0.125000
G01 X1.837942 Y1.722202 Z-0.125000
G01 X1.836871 Y1.722400 Z-0.125000
G01 X1.835748 Y1.722642 Z-0.125000
G02 X1.834630 Y1.722909 Z-0.125000 I0.013058 J0.057188
G02 X1.833404 Y1.723222 Z-0.125000 I0.026255 J0.105422
G02 X1.832181 Y1.723547 Z-0.125000 I0.043295 J0.165597
G02 X1.830798 Y1.723920 Z-0.125000 I0.441046 J1.637361
G02 X1.829640 Y1.724082 Z-0.125000 I0.018022 J0.133020
G02 X1.828531 Y1.724242 Z-0.125000 I2.833777 J19.629415
G03 X1.827421 Y1.724400 Z-0.125000 I-0.035314 J-0.244524
G03 X1.826310 Y1.724547 Z-0.125000 I-0.011487 J-0.082173
G03 X1.825198 Y1.724678 Z-0.125000 I-0.007965 J-0.063186
G01 X1.824034 Y1.724789 Z-0.125000
G01 X1.822868 Y1.724870 Z-0.125000
G01 X1.821598 Y1.724920 Z-0.125000
G03 X1.820397 Y1.725096 Z-0.125000 I-1.294312 J-8.812332
G03 X1.819218 Y1.725266 Z-0.125000 I-0.032789 J-0.223455
G03 X1.818038 Y1.725428 Z-0.125000 I-0.020868 J-0.147628
G03 X1.816885 Y1.725574 Z-0.125000 I-0.011378 J-0.085411
G03 X1.815731 Y1.725702 Z-0.125000 I-0.008324 J-0.069651
G01 X1.814609 Y1.725805 Z-0.125000
G01 X1.813485 Y1.725880 Z-0.125000
G01 X1.812398 Y1.725920 Z-0.125000
G03 X1.811200 Y1.726160 Z-0.125000 I-0.014148 J-0.067572
G03 X1.810078 Y1.726370 Z-0.125000 I-0.032749 J-0.171488
G03 X1.808955 Y1.726577 Z-0.125000 I-0.491673 J-2.669240
G02 X1.807860 Y1.726785 Z-0.125000 I0.016273 J0.088552
G02 X1.806770 Y1.727010 Z-0.125000 I0.011448 J0.058235
G01 X1.805662 Y1.727267 Z-0.125000
G01 X1.804563 Y1.727560 Z-0.125000
G01 X1.803398 Y1.727920 Z-0.125000
G01 X1.802241 Y1.728217 Z-0.125000
G01 X1.801090 Y1.728556 Z-0.125000
G01 X1.799948 Y1.728926 Z-0.125000
G02 X1.798810 Y1.729319 Z-0.125000 I0.027864 J0.082575
G02 X1.797677 Y1.729724 Z-0.125000 I0.046365 J0.131384
G03 X1.796550 Y1.730132 Z-0.125000 I-0.239460 J-0.660330
G03 X1.795420 Y1.730535 Z-0.125000 I-0.058760 J-0.162904
G03 X1.794298 Y1.730920 Z-0.125000 I-0.022553 J-0.063909
G01 X1.793223 Y1.731287 Z-0.125000
G01 X1.792262 Y1.731645 Z-0.125000
G02 X1.791308 Y1.732021 Z-0.125000 I0.021129 J0.054894
G02 X1.790385 Y1.732397 Z-0.125000 I0.086686 J0.214003
G03 X1.789463 Y1.732774 Z-0.125000 I-0.142853 J-0.348337
G03 X1.788490 Y1.733162 Z-0.125000 I-0.025413 J-0.062438
G03 X1.787510 Y1.733531 Z-0.125000 I-0.018627 J-0.047882
G01 X1.786398 Y1.733920 Z-0.125000
G01 X1.785318 Y1.734328 Z-0.125000
G01 X1.784160 Y1.734826 Z-0.125000
G02 X1.783017 Y1.735357 Z-0.125000 I0.022767 J0.050500
G02 X1.781848 Y1.735920 Z-0.125000 I0.128167 J0.267858
G03 X1.780679 Y1.736483 Z-0.125000 I-0.129337 J-0.267295
G03 X1.779535 Y1.737014 Z-0.125000 I-0.023910 J-0.049969
G01 X1.778378 Y1.737512 Z-0.125000
G01 X1.777298 Y1.737920 Z-0.125000
G01 X1.776474 Y1.738315 Z-0.125000
G02 X1.775487 Y1.738826 Z-0.125000 I0.025753 J0.050951
G02 X1.774509 Y1.739351 Z-0.125000 I0.048535 J0.091555
G03 X1.773460 Y1.739920 Z-0.125000 I-0.218080 J-0.400940
G03 X1.772409 Y1.740482 Z-0.125000 I-0.065028 J-0.120302
G03 X1.771378 Y1.741014 Z-0.125000 I-0.024368 J-0.046035
G01 X1.770333 Y1.741517 Z-0.125000
G01 X1.769398 Y1.741920 Z-0.125000
G01 X1.768644 Y1.742310 Z-0.125000
G02 X1.767692 Y1.742826 Z-0.125000 I0.042635 J0.079766
G02 X1.766746 Y1.743350 Z-0.125000 I0.082744 J0.150444
G03 X1.765723 Y1.743920 Z-0.125000 I-0.279273 J-0.500281
G03 X1.764698 Y1.744485 Z-0.125000 I-0.096803 J-0.174245
G03 X1.763717 Y1.745014 Z-0.125000 I-0.036262 J-0.066184
G03 X1.762725 Y1.745525 Z-0.125000 I-0.024388 J-0.046116
G01 X1.761898 Y1.745920 Z-0.125000
G01 X1.761051 Y1.746332 Z-0.125000
G01 X1.760190 Y1.746826 Z-0.125000
G01 X1.759351 Y1.747359 Z-0.125000
G02 X1.758510 Y1.747920 Z-0.125000 I0.060478 J0.091515
G03 X1.757672 Y1.748483 Z-0.125000 I-0.140137 J-0.207870
G01 X1.756850 Y1.749014 Z-0.125000
G01 X1.756008 Y1.749511 Z-0.125000
G01 X1.755198 Y1.749920 Z-0.125000
G03 X1.754252 Y1.750664 Z-0.125000 I-0.043932 J-0.054915
G03 X1.753264 Y1.751420 Z-0.125000 I-0.086051 J-0.111420
G03 X1.752270 Y1.752169 Z-0.125000 I-0.152783 J-0.201483
G02 X1.751273 Y1.752920 Z-0.125000 I0.283129 J0.377218
G02 X1.750279 Y1.753675 Z-0.125000 I0.116177 J0.153935
G02 X1.749320 Y1.754420 Z-0.125000 I0.050873 J0.066508
G02 X1.748373 Y1.755181 Z-0.125000 I0.039146 J0.049666
G01 X1.747498 Y1.755920 Z-0.125000
G01 X1.746864 Y1.756649 Z-0.125000
G01 X1.746106 Y1.757404 Z-0.125000
G01 X1.745305 Y1.758115 Z-0.125000
G01 X1.744460 Y1.758795 Z-0.125000
G01 X1.743587 Y1.759438 Z-0.125000
G01 X1.742759 Y1.759998 Z-0.125000
G01 X1.741908 Y1.760524 Z-0.125000
G01 X1.741198 Y1.760920 Z-0.125000
G01 X1.740376 Y1.761688 Z-0.125000
G02 X1.739471 Y1.762561 Z-0.125000 I0.140764 J0.146752
G03 X1.738569 Y1.763434 Z-0.125000 I-0.346275 J-0.356570
G03 X1.737660 Y1.764295 Z-0.125000 I-0.042964 J-0.044465
G01 X1.736730 Y1.765132 Z-0.125000
G01 X1.735868 Y1.765842 Z-0.125000
G01 X1.735424 Y1.766174 Z-0.125000
G01 X1.735011 Y1.766457 Z-0.125000
G01 X1.734585 Y1.766718 Z-0.125000
G01 X1.734198 Y1.766920 Z-0.125000
G01 X1.733584 Y1.767660 Z-0.125000
G01 X1.732912 Y1.768420 Z-0.125000
G01 X1.732220 Y1.769163 Z-0.125000
G03 X1.731485 Y1.769920 Z-0.125000 I-0.043814 J-0.041784
G03 X1.729977 Y1.771408 Z-0.125000 I-0.058559 J-0.057827
G03 X1.728398 Y1.772920 Z-0.125000 I-0.307524 J-0.319730
G01 X1.727699 Y1.773675 Z-0.125000
G01 X1.727034 Y1.774436 Z-0.125000
G01 X1.726389 Y1.775214 Z-0.125000
G01 X1.725735 Y1.776045 Z-0.125000
G01 X1.725101 Y1.776892 Z-0.125000
G02 X1.724418 Y1.777842 Z-0.125000 I0.052158 J0.038197
G02 X1.723751 Y1.778804 Z-0.125000 I0.063765 J0.044947
G02 X1.722998 Y1.779920 Z-0.125000 I0.101253 J0.069120
G03 X1.722251 Y1.781034 Z-0.125000 I-0.230008 J-0.153339
G03 X1.721585 Y1.782014 Z-0.125000 I-0.119502 J-0.080509
G03 X1.720911 Y1.782986 Z-0.125000 I-0.095533 J-0.065509
G03 X1.720248 Y1.783920 Z-0.125000 I-0.073659 J-0.051624
G03 X1.719572 Y1.784845 Z-0.125000 I-0.069514 J-0.050050
G03 X1.718835 Y1.785826 Z-0.125000 I-0.072084 J-0.053379
G03 X1.718085 Y1.786799 Z-0.125000 I-0.077753 J-0.059240
G03 X1.717198 Y1.787920 Z-0.125000 I-0.101485 J-0.079357
G01 X1.716584 Y1.789033 Z-0.125000
G01 X1.716017 Y1.789998 Z-0.125000
G01 X1.715426 Y1.790949 Z-0.125000
G03 X1.714873 Y1.791795 Z-0.125000 I-0.044360 J-0.028359
G03 X1.714305 Y1.792631 Z-0.125000 I-0.051087 J-0.034058
G03 X1.713767 Y1.793404 Z-0.125000 I-0.093487 J-0.064573
G03 X1.713223 Y1.794174 Z-0.125000 I-0.200746 J-0.141131
G02 X1.712698 Y1.794920 Z-0.125000 I0.126794 J0.089870
G03 X1.711616 Y1.797191 Z-0.125000 I-0.145842 J-0.068059
G03 X1.710560 Y1.799295 Z-0.125000 I-0.081970 J-0.039825
G03 X1.710016 Y1.800325 Z-0.125000 I-0.063487 J-0.032898
G01 X1.709506 Y1.801248 Z-0.125000
G01 X1.708974 Y1.802159 Z-0.125000
G01 X1.708498 Y1.802920 Z-0.125000
G02 X1.707256 Y1.805154 Z-0.125000 I0.134963 J0.076479
G02 X1.705998 Y1.807545 Z-0.125000 I0.080995 J0.044150
G02 X1.704812 Y1.809976 Z-0.125000 I0.075539 J0.038351
G02 X1.703498 Y1.812920 Z-0.125000 I0.081149 J0.037991
G03 X1.703043 Y1.814033 Z-0.125000 I-0.073801 J-0.029520
G03 X1.702625 Y1.815014 Z-0.125000 I-0.064404 J-0.026899
G03 X1.702192 Y1.815987 Z-0.125000 I-0.063568 J-0.027698
G03 X1.701760 Y1.816920 Z-0.125000 I-0.071502 J-0.032470
G03 X1.700886 Y1.818732 Z-0.125000 I-0.090160 J-0.042375
G03 X1.699798 Y1.820920 Z-0.125000 I-0.535689 J-0.265113
G02 X1.699201 Y1.822043 Z-0.125000 I0.564775 J0.301214
G02 X1.698601 Y1.823186 Z-0.125000 I0.117062 J0.062134
G02 X1.698015 Y1.824335 Z-0.125000 I0.086352 J0.044762
G02 X1.697423 Y1.825545 Z-0.125000 I0.060346 J0.030272
G02 X1.696857 Y1.826767 Z-0.125000 I0.054519 J0.026001
G02 X1.696282 Y1.828092 Z-0.125000 I0.048453 J0.021796
G02 X1.695745 Y1.829432 Z-0.125000 I0.047593 J0.019872
G02 X1.695198 Y1.830920 Z-0.125000 I0.047932 J0.018456
G01 X1.695119 Y1.831295 Z-0.125000
G01 X1.695006 Y1.831756 Z-0.125000
G01 X1.694882 Y1.832214 Z-0.125000
G01 X1.694732 Y1.832733 Z-0.125000
G01 X1.694408 Y1.833776 Z-0.125000
G03 X1.694031 Y1.834920 Z-0.125000 I-0.107671 J-0.034808
G03 X1.693645 Y1.836061 Z-0.125000 I-0.185326 J-0.062100
G02 X1.693288 Y1.837108 Z-0.125000 I0.364424 J0.124616
G02 X1.692937 Y1.838159 Z-0.125000 I0.121054 J0.041007
G01 X1.692698 Y1.838920 Z-0.125000
G01 X1.692587 Y1.839302 Z-0.125000
G01 X1.692520 Y1.839713 Z-0.125000
G01 X1.692492 Y1.840130 Z-0.125000
G01 X1.692496 Y1.840576 Z-0.125000
G01 X1.692525 Y1.841022 Z-0.125000
G01 X1.692573 Y1.841486 Z-0.125000
G01 X1.692632 Y1.841950 Z-0.125000
G03 X1.692696 Y1.842420 Z-0.125000 I-1.920613 J0.260914
G03 X1.692757 Y1.842890 Z-0.125000 I-0.051005 J0.006916
G01 X1.692809 Y1.843354 Z-0.125000
G01 X1.692846 Y1.843818 Z-0.125000
G01 X1.692859 Y1.844264 Z-0.125000
G01 X1.692842 Y1.844708 Z-0.125000
G01 X1.692790 Y1.845127 Z-0.125000
G01 X1.692694 Y1.845536 Z-0.125000
G01 X1.692549 Y1.845920 Z-0.125000
G01 X1.692249 Y1.847054 Z-0.125000
G01 X1.692034 Y1.848170 Z-0.125000
G01 X1.691875 Y1.849297 Z-0.125000
G02 X1.691753 Y1.850420 Z-0.125000 I0.064433 J0.007605
G02 X1.691642 Y1.851544 Z-0.125000 I0.298243 J0.029949
G01 X1.691520 Y1.852670 Z-0.125000
G01 X1.691364 Y1.853790 Z-0.125000
G01 X1.691149 Y1.854920 Z-0.125000
G03 X1.690672 Y1.857165 Z-0.125000 I-0.072681 J-0.014270
G03 X1.690141 Y1.859420 Z-0.125000 I-0.171946 J-0.039327
G03 X1.689589 Y1.861671 Z-0.125000 I-0.515120 J-0.124959
G02 X1.689049 Y1.863920 Z-0.125000 I0.171044 J0.042285
G01 X1.688832 Y1.865040 Z-0.125000
G01 X1.688565 Y1.866170 Z-0.125000
G03 X1.688270 Y1.867293 Z-0.125000 I-0.055499 J-0.013997
G03 X1.687961 Y1.868420 Z-0.125000 I-1.310784 J-0.359036
G02 X1.687656 Y1.869548 Z-0.125000 I0.128220 J0.035239
G01 X1.687375 Y1.870670 Z-0.125000
G01 X1.687132 Y1.871800 Z-0.125000
G01 X1.686949 Y1.872920 Z-0.125000
G01 X1.686704 Y1.874052 Z-0.125000
G01 X1.686498 Y1.875154 Z-0.125000
G02 X1.686314 Y1.876261 Z-0.125000 I0.060520 J0.010594
G02 X1.686156 Y1.877295 Z-0.125000 I0.145202 J0.022692
G02 X1.686003 Y1.878330 Z-0.125000 I0.758787 J0.113059
G03 X1.685862 Y1.879248 Z-0.125000 I-0.074220 J-0.010955
G01 X1.685704 Y1.880164 Z-0.125000
G01 X1.685549 Y1.880920 Z-0.125000
G01 X1.685307 Y1.882049 Z-0.125000
G01 X1.685102 Y1.883170 Z-0.125000
G01 X1.684927 Y1.884297 Z-0.125000
G02 X1.684775 Y1.885420 Z-0.125000 I0.071869 J0.010312
G02 X1.684638 Y1.886545 Z-0.125000 I0.097696 J0.012464
G02 X1.684509 Y1.887670 Z-0.125000 I0.349963 J0.040561
G03 X1.684382 Y1.888795 Z-0.125000 I-1.183071 J-0.133268
G03 X1.684249 Y1.889920 Z-0.125000 I-0.121571 J-0.013812
G01 X1.684077 Y1.891047 Z-0.125000
G02 X1.683932 Y1.892170 Z-0.125000 I0.054056 J0.007516
G02 X1.683810 Y1.893296 Z-0.125000 I0.063848 J0.007531
G02 X1.683704 Y1.894420 Z-0.125000 I0.100324 J0.010046
G02 X1.683608 Y1.895545 Z-0.125000 I0.141013 J0.012527
G02 X1.683518 Y1.896670 Z-0.125000 I0.750906 J0.060673
G03 X1.683428 Y1.897795 Z-0.125000 I-0.644174 J-0.051078
G03 X1.683332 Y1.898920 Z-0.125000 I-0.136862 J-0.011093
G01 X1.683345 Y1.900041 Z-0.125000
G01 X1.683318 Y1.901186 Z-0.125000
G01 X1.683259 Y1.902330 Z-0.125000
G03 X1.683171 Y1.903545 Z-0.125000 I-0.074924 J-0.004835
G03 X1.683066 Y1.904760 Z-0.125000 I-0.109425 J-0.008847
G03 X1.682941 Y1.906092 Z-0.125000 I-0.500640 J-0.046076
G02 X1.682816 Y1.907424 Z-0.125000 I1.128515 J0.106892
G02 X1.682682 Y1.908920 Z-0.125000 I0.193759 J0.018122
G01 X1.682538 Y1.910418 Z-0.125000
G01 X1.682463 Y1.911748 Z-0.125000
G01 X1.682437 Y1.913080 Z-0.125000
G01 X1.682453 Y1.914295 Z-0.125000
G02 X1.682500 Y1.915509 Z-0.125000 I0.050527 J-0.001360
G02 X1.682566 Y1.916654 Z-0.125000 I0.092188 J-0.004702
G02 X1.682642 Y1.917799 Z-0.125000 I0.186156 J-0.011815
G03 X1.682716 Y1.918920 Z-0.125000 I-0.153942 J0.010721
G02 X1.682693 Y1.920412 Z-0.125000 I0.104036 J0.002367
G02 X1.682690 Y1.921764 Z-0.125000 I0.112709 J0.000948
G02 X1.682702 Y1.923115 Z-0.125000 I0.126352 J-0.000453
G02 X1.682725 Y1.924420 Z-0.125000 I0.198554 J-0.002836
G02 X1.682786 Y1.926987 Z-0.125000 I0.441111 J-0.009200
G03 X1.682847 Y1.929920 Z-0.125000 I-0.256719 J0.006849
G01 X1.682975 Y1.931414 Z-0.125000
G01 X1.683043 Y1.932762 Z-0.125000
G03 X1.683074 Y1.934112 Z-0.125000 I-0.056033 J0.001985
G03 X1.683083 Y1.935408 Z-0.125000 I-0.152001 J0.001722
G03 X1.683087 Y1.936703 Z-0.125000 I-15.967430 J0.044801
G02 X1.683101 Y1.938034 Z-0.125000 I0.081953 J-0.000223
G02 X1.683142 Y1.939364 Z-0.125000 I0.057540 J-0.001091
G01 X1.683229 Y1.940820 Z-0.125000
G01 X1.683494 Y1.941948 Z-0.125000
G02 X1.683833 Y1.943226 Z-0.125000 I0.072679 J-0.018583
G02 X1.684188 Y1.944499 Z-0.125000 I0.150921 J-0.041436
G03 X1.684557 Y1.945820 Z-0.125000 I-0.175846 J0.049880
G03 X1.684911 Y1.947144 Z-0.125000 I-0.085897 J0.023671
G01 X1.685218 Y1.948414 Z-0.125000
G01 X1.685353 Y1.949049 Z-0.125000
G01 X1.685466 Y1.949652 Z-0.125000
G01 X1.685561 Y1.950258 Z-0.125000
G01 X1.685629 Y1.950820 Z-0.125000
G01 X1.685702 Y1.951382 Z-0.125000
G01 X1.685805 Y1.951989 Z-0.125000
G01 X1.685926 Y1.952592 Z-0.125000
G01 X1.686071 Y1.953231 Z-0.125000
G01 X1.686394 Y1.954507 Z-0.125000
