%
(Header)
(Generated by gcodetools from Inkscape.)
(Using default header. To add your own header create file "header" in the output dir.)
M3
(Header end.)
G21 (All units in mm)

(Start cutting path id: path18708)
(Change tool to Default tool)

G00 Z5.000000
G00 X22.196500 Y14.159730

G01 Z-0.125000 F100.0(Penetrate)
G01 X22.186500 Y14.159730 Z-0.125000 F400.000000
G01 X22.176500 Y14.159730 Z-0.125000
G01 X22.166500 Y14.159730 Z-0.125000
G01 X22.156500 Y14.159730 Z-0.125000
G01 X22.146500 Y14.159730 Z-0.125000
G01 X22.136500 Y14.159730 Z-0.125000
G01 X22.126500 Y14.159730 Z-0.125000
G01 X22.116500 Y14.159730 Z-0.125000
G01 X22.106500 Y14.159730 Z-0.125000
G01 X22.096500 Y14.159730 Z-0.125000
G01 X22.086500 Y14.159730 Z-0.125000
G01 X22.076500 Y14.159730 Z-0.125000
G01 X22.066500 Y14.159730 Z-0.125000
G01 X22.056500 Y14.159730 Z-0.125000
G01 X22.046500 Y14.159730 Z-0.125000
G01 X22.036500 Y14.159730 Z-0.125000
G01 X22.026500 Y14.159730 Z-0.125000
G01 X22.016500 Y14.159730 Z-0.125000
G01 X22.006500 Y14.159730 Z-0.125000
G01 X21.996500 Y14.159730 Z-0.125000
G01 X21.986500 Y14.159730 Z-0.125000
G01 X21.976500 Y14.159730 Z-0.125000
G01 X21.966500 Y14.159730 Z-0.125000
G01 X21.956500 Y14.159730 Z-0.125000
G01 X21.946500 Y14.159730 Z-0.125000
G01 X21.936500 Y14.159730 Z-0.125000
G01 X21.926500 Y14.159730 Z-0.125000
G01 X21.916500 Y14.159730 Z-0.125000
G01 X21.906500 Y14.159730 Z-0.125000
G01 X21.896500 Y14.159730 Z-0.125000
G01 X21.886500 Y14.159730 Z-0.125000
G01 X21.876500 Y14.159730 Z-0.125000
G01 X21.866500 Y14.159730 Z-0.125000
G01 X21.856500 Y14.159730 Z-0.125000
G01 X21.846500 Y14.159730 Z-0.125000
G01 X21.836500 Y14.159730 Z-0.125000
G01 X21.826500 Y14.159730 Z-0.125000
G01 X21.816500 Y14.159730 Z-0.125000
G01 X21.806500 Y14.159730 Z-0.125000
G01 X21.796500 Y14.159730 Z-0.125000
G01 X21.786500 Y14.159730 Z-0.125000
G01 X21.776500 Y14.159730 Z-0.125000
G01 X21.766500 Y14.159730 Z-0.125000
G01 X21.756500 Y14.159730 Z-0.125000
G01 X21.746500 Y14.159730 Z-0.125000
G01 X21.736500 Y14.159730 Z-0.125000
G01 X21.726500 Y14.159730 Z-0.125000
G01 X21.716500 Y14.159730 Z-0.125000
G01 X21.706500 Y14.159730 Z-0.125000
G01 X21.696500 Y14.159730 Z-0.125000
G01 X21.686500 Y14.159730 Z-0.125000
G01 X21.676500 Y14.159730 Z-0.125000
G01 X21.666500 Y14.159730 Z-0.125000
G01 X21.656500 Y14.159730 Z-0.125000
G01 X21.646500 Y14.159730 Z-0.125000
G01 X21.636500 Y14.159730 Z-0.125000
G01 X21.626500 Y14.159730 Z-0.125000
G01 X21.616500 Y14.159730 Z-0.125000
G01 X21.606500 Y14.159730 Z-0.125000
G01 X21.596500 Y14.159730 Z-0.125000
G01 X21.586500 Y14.159730 Z-0.125000
G01 X21.576500 Y14.159730 Z-0.125000
G01 X21.566500 Y14.159730 Z-0.125000
G01 X21.556500 Y14.159730 Z-0.125000
G01 X21.546500 Y14.159730 Z-0.125000
G01 X21.536500 Y14.159730 Z-0.125000
G01 X21.526500 Y14.159730 Z-0.125000
G01 X21.516500 Y14.159730 Z-0.125000
G01 X21.506500 Y14.159730 Z-0.125000
G01 X21.496500 Y14.159730 Z-0.125000
G01 X21.486500 Y14.159730 Z-0.125000
G01 X21.476500 Y14.159730 Z-0.125000
G01 X21.466500 Y14.159730 Z-0.125000
G01 X21.456500 Y14.159730 Z-0.125000
G01 X21.446500 Y14.159730 Z-0.125000
G01 X21.436500 Y14.159730 Z-0.125000
G01 X21.426500 Y14.159730 Z-0.125000
G01 X21.416500 Y14.159730 Z-0.125000
G01 X21.406500 Y14.159730 Z-0.125000
G01 X21.396500 Y14.159730 Z-0.125000
G01 X21.386500 Y14.159730 Z-0.125000
G01 X21.376500 Y14.159730 Z-0.125000
G01 X21.366500 Y14.159730 Z-0.125000
G01 X21.356500 Y14.159730 Z-0.125000
G01 X21.346500 Y14.159730 Z-0.125000
G01 X21.336500 Y14.159730 Z-0.125000
G01 X21.326500 Y14.159730 Z-0.125000
G01 X21.326500 Y14.169730 Z-0.125000
G01 X21.326500 Y14.179730 Z-0.125000
G01 X21.326500 Y14.189730 Z-0.125000
G01 X21.326500 Y14.199730 Z-0.125000
G01 X21.326500 Y14.209730 Z-0.125000
G01 X21.326500 Y14.219730 Z-0.125000
G01 X21.326500 Y14.229730 Z-0.125000
G01 X21.326500 Y14.239730 Z-0.125000
G01 X21.326500 Y14.249730 Z-0.125000
G01 X21.326500 Y14.259730 Z-0.125000
G01 X21.326500 Y14.269730 Z-0.125000
G01 X21.326500 Y14.279730 Z-0.125000
G01 X21.326500 Y14.289730 Z-0.125000
G01 X21.326500 Y14.299730 Z-0.125000
G01 X21.326500 Y14.309730 Z-0.125000
G01 X21.326500 Y14.319730 Z-0.125000
G01 X21.326500 Y14.329730 Z-0.125000
G01 X21.326500 Y14.339730 Z-0.125000
G01 X21.326500 Y14.349730 Z-0.125000
G01 X21.326500 Y14.359730 Z-0.125000
G01 X21.326500 Y14.369730 Z-0.125000
G01 X21.326500 Y14.379730 Z-0.125000
G01 X21.326500 Y14.389730 Z-0.125000
G01 X21.326500 Y14.399730 Z-0.125000
G01 X21.326500 Y14.409730 Z-0.125000
G01 X21.326500 Y14.419730 Z-0.125000
G01 X21.326500 Y14.429730 Z-0.125000
G01 X21.326500 Y14.439730 Z-0.125000
G01 X21.326500 Y14.449730 Z-0.125000
G01 X21.326500 Y14.459730 Z-0.125000
G01 X21.326500 Y14.469730 Z-0.125000
G01 X21.326500 Y14.479730 Z-0.125000
G01 X21.326500 Y14.489730 Z-0.125000
G01 X21.326500 Y14.499730 Z-0.125000
G01 X21.326500 Y14.509730 Z-0.125000
G01 X21.326500 Y14.519730 Z-0.125000
G01 X21.326500 Y14.529730 Z-0.125000
G01 X21.326500 Y14.539730 Z-0.125000
G01 X21.326500 Y14.549730 Z-0.125000
G01 X21.326500 Y14.559730 Z-0.125000
G01 X21.326500 Y14.569730 Z-0.125000
G01 X21.326500 Y14.579730 Z-0.125000
G01 X21.326500 Y14.589730 Z-0.125000
G01 X21.326500 Y14.599730 Z-0.125000
G01 X21.326500 Y14.609730 Z-0.125000
G01 X21.326500 Y14.619730 Z-0.125000
G01 X21.326500 Y14.629730 Z-0.125000
G01 X21.326500 Y14.639730 Z-0.125000
G01 X21.326500 Y14.649730 Z-0.125000
G01 X21.326500 Y14.659730 Z-0.125000
G01 X21.326500 Y14.669730 Z-0.125000
G01 X21.326500 Y14.679730 Z-0.125000
G01 X21.326500 Y14.689730 Z-0.125000
G01 X21.326500 Y14.699730 Z-0.125000
G01 X21.326500 Y14.709730 Z-0.125000
G01 X21.326500 Y14.719730 Z-0.125000
G01 X21.326500 Y14.729730 Z-0.125000
G01 X21.326500 Y14.739730 Z-0.125000
G01 X21.326500 Y14.749730 Z-0.125000
G01 X21.326500 Y14.759730 Z-0.125000
G01 X21.326500 Y14.769730 Z-0.125000
G01 X21.326500 Y14.779730 Z-0.125000
G01 X21.326500 Y14.789730 Z-0.125000
G01 X21.326500 Y14.799730 Z-0.125000
G01 X21.326500 Y14.809730 Z-0.125000
G01 X21.326500 Y14.819730 Z-0.125000
G01 X21.326500 Y14.829730 Z-0.125000
G01 X21.326500 Y14.839730 Z-0.125000
G01 X21.326500 Y14.849730 Z-0.125000
G01 X21.326500 Y14.859730 Z-0.125000
G01 X21.326500 Y14.869730 Z-0.125000
G01 X21.326500 Y14.879730 Z-0.125000
G01 X21.326500 Y14.889730 Z-0.125000
G01 X21.326500 Y14.899730 Z-0.125000
G01 X21.326500 Y14.909730 Z-0.125000
G01 X21.326500 Y14.919730 Z-0.125000
G01 X21.326500 Y14.929730 Z-0.125000
G01 X21.326500 Y14.939730 Z-0.125000
G01 X21.326500 Y14.949730 Z-0.125000
G01 X21.326500 Y14.959730 Z-0.125000
G01 X21.326500 Y14.969730 Z-0.125000
G01 X21.326500 Y14.979730 Z-0.125000
G01 X21.326500 Y14.989730 Z-0.125000
G01 X21.326500 Y14.999730 Z-0.125000
G01 X21.326500 Y15.009730 Z-0.125000
G01 X21.326500 Y15.019730 Z-0.125000
G01 X21.326500 Y15.029730 Z-0.125000
G01 X21.326500 Y15.039730 Z-0.125000
G01 X21.326500 Y15.049730 Z-0.125000
G01 X21.326500 Y15.059730 Z-0.125000
G01 X21.326500 Y15.069730 Z-0.125000
G01 X21.326500 Y15.079730 Z-0.125000
G01 X21.326500 Y15.089730 Z-0.125000
G01 X21.326500 Y15.099730 Z-0.125000
G01 X21.326500 Y15.109730 Z-0.125000
G01 X21.326500 Y15.119730 Z-0.125000
G01 X21.326500 Y15.129730 Z-0.125000
G01 X21.326500 Y15.139730 Z-0.125000
G01 X21.326500 Y15.149730 Z-0.125000
G01 X21.326500 Y15.159730 Z-0.125000
G01 X21.326500 Y15.169730 Z-0.125000
G01 X21.326500 Y15.179730 Z-0.125000
G01 X21.326500 Y15.189730 Z-0.125000
G01 X21.326500 Y15.199730 Z-0.125000
G01 X21.326500 Y15.209730 Z-0.125000
G01 X21.326500 Y15.219730 Z-0.125000
G01 X21.326500 Y15.229730 Z-0.125000
G01 X21.326500 Y15.239730 Z-0.125000
G01 X21.326500 Y15.249730 Z-0.125000
G01 X21.326500 Y15.259730 Z-0.125000
G01 X21.326500 Y15.269730 Z-0.125000
G01 X21.326500 Y15.279730 Z-0.125000
G01 X21.326500 Y15.289730 Z-0.125000
G01 X21.326500 Y15.299730 Z-0.125000
G01 X21.326500 Y15.309730 Z-0.125000
G01 X21.326500 Y15.319730 Z-0.125000
G01 X21.326500 Y15.329730 Z-0.125000
G01 X21.326500 Y15.339730 Z-0.125000
G01 X21.326500 Y15.349730 Z-0.125000
G01 X21.326500 Y15.359730 Z-0.125000
G01 X21.326500 Y15.369730 Z-0.125000
G01 X21.326500 Y15.379730 Z-0.125000
G01 X21.326500 Y15.389730 Z-0.125000
G01 X21.326500 Y15.399730 Z-0.125000
G01 X21.326500 Y15.409730 Z-0.125000
G01 X21.326500 Y15.419730 Z-0.125000
G01 X21.326500 Y15.429730 Z-0.125000
G01 X21.326500 Y15.439730 Z-0.125000
G01 X21.326500 Y15.449730 Z-0.125000
G01 X21.326500 Y15.459730 Z-0.125000
G01 X21.326500 Y15.469730 Z-0.125000
G01 X21.326500 Y15.479730 Z-0.125000
G01 X21.326500 Y15.489730 Z-0.125000
G01 X21.326500 Y15.499730 Z-0.125000
G01 X21.326500 Y15.509730 Z-0.125000
G01 X21.326500 Y15.519730 Z-0.125000
G01 X21.326500 Y15.529730 Z-0.125000
G01 X21.326500 Y15.539730 Z-0.125000
G01 X21.326500 Y15.549730 Z-0.125000
G01 X21.326500 Y15.559730 Z-0.125000
G01 X21.326500 Y15.569730 Z-0.125000
G01 X21.326500 Y15.579730 Z-0.125000
G01 X21.326500 Y15.589730 Z-0.125000
G01 X21.326500 Y15.599730 Z-0.125000
G01 X21.326500 Y15.609730 Z-0.125000
G01 X21.326500 Y15.619730 Z-0.125000
G01 X21.326500 Y15.629730 Z-0.125000
G01 X21.326500 Y15.639730 Z-0.125000
G01 X21.326500 Y15.649730 Z-0.125000
G01 X21.326500 Y15.659730 Z-0.125000
G01 X21.326500 Y15.669730 Z-0.125000
G01 X21.326500 Y15.679730 Z-0.125000
G01 X21.326500 Y15.689730 Z-0.125000
G01 X21.326500 Y15.699730 Z-0.125000
G01 X21.326500 Y15.709730 Z-0.125000
G01 X21.326500 Y15.719730 Z-0.125000
G01 X21.326500 Y15.729730 Z-0.125000
G01 X21.326500 Y15.739730 Z-0.125000
G01 X21.326500 Y15.749730 Z-0.125000
G01 X21.326500 Y15.759730 Z-0.125000
G01 X21.326500 Y15.769730 Z-0.125000
G01 X21.326500 Y15.779730 Z-0.125000
G01 X21.326500 Y15.789730 Z-0.125000
G01 X21.326500 Y15.799730 Z-0.125000
G01 X21.326500 Y15.809730 Z-0.125000
G01 X21.326500 Y15.819730 Z-0.125000
G01 X21.326500 Y15.829730 Z-0.125000
G01 X21.326500 Y15.839730 Z-0.125000
G01 X21.326500 Y15.849730 Z-0.125000
G01 X21.326500 Y15.859730 Z-0.125000
G01 X21.326500 Y15.869730 Z-0.125000
G01 X21.326500 Y15.879730 Z-0.125000
G01 X21.326500 Y15.889730 Z-0.125000
G01 X21.326500 Y15.899730 Z-0.125000
G01 X21.326500 Y15.909730 Z-0.125000
G01 X21.326500 Y15.919730 Z-0.125000
G01 X21.326500 Y15.929730 Z-0.125000
G01 X21.326500 Y15.939730 Z-0.125000
G01 X21.326500 Y15.949730 Z-0.125000
G01 X21.326500 Y15.959730 Z-0.125000
G01 X21.326500 Y15.969730 Z-0.125000
G01 X21.326500 Y15.979730 Z-0.125000
G01 X21.326500 Y15.989730 Z-0.125000
G01 X21.326500 Y15.999730 Z-0.125000
G01 X21.326500 Y16.009730 Z-0.125000
G01 X21.326500 Y16.019730 Z-0.125000
G01 X21.326500 Y16.029730 Z-0.125000
G01 X21.326500 Y16.039730 Z-0.125000
G01 X21.326500 Y16.049730 Z-0.125000
G01 X21.326500 Y16.059730 Z-0.125000
G01 X21.326500 Y16.069730 Z-0.125000
G01 X21.326500 Y16.079730 Z-0.125000
G01 X21.326500 Y16.089730 Z-0.125000
G01 X21.326500 Y16.099730 Z-0.125000
G01 X21.326500 Y16.109730 Z-0.125000
G01 X21.326500 Y16.119730 Z-0.125000
G01 X21.326500 Y16.129730 Z-0.125000
G01 X21.326500 Y16.139730 Z-0.125000
G01 X21.326500 Y16.149730 Z-0.125000
G01 X21.326500 Y16.159730 Z-0.125000
G01 X21.326500 Y16.169730 Z-0.125000
G01 X21.326500 Y16.179730 Z-0.125000
G01 X21.326500 Y16.189730 Z-0.125000
G01 X21.326500 Y16.199730 Z-0.125000
G01 X21.326500 Y16.209730 Z-0.125000
G01 X21.326500 Y16.219730 Z-0.125000
G01 X21.326500 Y16.229730 Z-0.125000
G01 X21.326500 Y16.239730 Z-0.125000
G01 X21.326500 Y16.249730 Z-0.125000
G01 X21.326500 Y16.259730 Z-0.125000
G01 X21.326500 Y16.269730 Z-0.125000
G01 X21.326500 Y16.279730 Z-0.125000
G01 X21.326500 Y16.289730 Z-0.125000
G01 X21.326500 Y16.299730 Z-0.125000
G01 X21.326500 Y16.309730 Z-0.125000
G01 X21.326500 Y16.319730 Z-0.125000
G01 X21.326500 Y16.329730 Z-0.125000
G01 X21.326500 Y16.339730 Z-0.125000
G01 X21.326500 Y16.349730 Z-0.125000
G01 X21.326500 Y16.359730 Z-0.125000
G01 X21.326500 Y16.369730 Z-0.125000
G01 X21.326500 Y16.379730 Z-0.125000
G01 X21.326500 Y16.389730 Z-0.125000
G01 X21.326500 Y16.399730 Z-0.125000
G01 X21.326500 Y16.409730 Z-0.125000
G01 X21.326500 Y16.419730 Z-0.125000
G01 X21.326500 Y16.429730 Z-0.125000
G01 X21.326500 Y16.439730 Z-0.125000
G01 X21.326500 Y16.449730 Z-0.125000
G01 X21.326500 Y16.459730 Z-0.125000
G01 X21.326500 Y16.469730 Z-0.125000
G01 X21.326500 Y16.479730 Z-0.125000
G01 X21.326500 Y16.489730 Z-0.125000
G01 X21.326500 Y16.499730 Z-0.125000
G01 X21.326500 Y16.509730 Z-0.125000
G01 X21.326500 Y16.519730 Z-0.125000
G01 X21.326500 Y16.529730 Z-0.125000
G01 X21.326500 Y16.539730 Z-0.125000
G01 X21.326500 Y16.549730 Z-0.125000
G01 X21.326500 Y16.559730 Z-0.125000
G01 X21.326500 Y16.569730 Z-0.125000
G01 X21.326500 Y16.579730 Z-0.125000
G01 X21.326500 Y16.589730 Z-0.125000
G01 X21.326500 Y16.599730 Z-0.125000
G01 X21.326500 Y16.609730 Z-0.125000
G01 X21.326500 Y16.619730 Z-0.125000
G01 X21.326500 Y16.629730 Z-0.125000
G01 X21.326500 Y16.639730 Z-0.125000
G01 X21.326500 Y16.649730 Z-0.125000
G01 X21.326500 Y16.659730 Z-0.125000
G01 X21.326500 Y16.669730 Z-0.125000
G01 X21.326500 Y16.679730 Z-0.125000
G01 X21.326500 Y16.689730 Z-0.125000
G01 X21.326500 Y16.699730 Z-0.125000
G01 X21.326500 Y16.709730 Z-0.125000
G01 X21.326500 Y16.719730 Z-0.125000
G01 X21.326500 Y16.729730 Z-0.125000
G01 X21.326500 Y16.739730 Z-0.125000
G01 X21.326500 Y16.749730 Z-0.125000
G01 X21.326500 Y16.759730 Z-0.125000
G01 X21.326500 Y16.769730 Z-0.125000
G01 X21.326500 Y16.779730 Z-0.125000
G01 X21.326500 Y16.789730 Z-0.125000
G01 X21.326500 Y16.799730 Z-0.125000
G01 X21.326500 Y16.809730 Z-0.125000
G01 X21.326500 Y16.819730 Z-0.125000
G01 X21.326500 Y16.829730 Z-0.125000
G01 X21.326500 Y16.839730 Z-0.125000
G01 X21.326500 Y16.849730 Z-0.125000
G01 X21.326500 Y16.859730 Z-0.125000
G01 X21.326500 Y16.869730 Z-0.125000
G01 X21.326500 Y16.879730 Z-0.125000
G01 X21.326500 Y16.889730 Z-0.125000
G01 X21.326500 Y16.899730 Z-0.125000
G01 X21.326500 Y16.909730 Z-0.125000
G01 X21.326500 Y16.919730 Z-0.125000
G01 X21.326500 Y16.929730 Z-0.125000
G01 X21.326500 Y16.939730 Z-0.125000
G01 X21.326500 Y16.949730 Z-0.125000
G01 X21.326500 Y16.959730 Z-0.125000
G01 X21.326500 Y16.969730 Z-0.125000
G01 X21.326500 Y16.979730 Z-0.125000
G01 X21.326500 Y16.989730 Z-0.125000
G01 X21.326500 Y16.999730 Z-0.125000
G01 X21.326500 Y17.009730 Z-0.125000
G01 X21.326500 Y17.019730 Z-0.125000
G01 X21.326500 Y17.029730 Z-0.125000
G01 X21.326500 Y17.039730 Z-0.125000
G01 X21.326500 Y17.049730 Z-0.125000
G01 X21.326500 Y17.059730 Z-0.125000
G01 X21.326500 Y17.069730 Z-0.125000
G01 X21.326500 Y17.079730 Z-0.125000
G01 X21.326500 Y17.089730 Z-0.125000
G01 X21.326500 Y17.099730 Z-0.125000
G01 X21.326500 Y17.109730 Z-0.125000
G01 X21.326500 Y17.119730 Z-0.125000
G01 X21.326500 Y17.129730 Z-0.125000
G01 X21.326500 Y17.139730 Z-0.125000
G01 X21.326500 Y17.149730 Z-0.125000
G01 X21.326500 Y17.159730 Z-0.125000
G01 X21.326500 Y17.169730 Z-0.125000
G01 X21.326500 Y17.179730 Z-0.125000
G01 X21.326500 Y17.189730 Z-0.125000
G01 X21.326500 Y17.199730 Z-0.125000
G01 X21.326500 Y17.209730 Z-0.125000
G01 X21.326500 Y17.219730 Z-0.125000
G01 X21.326500 Y17.229730 Z-0.125000
G01 X21.326500 Y17.239730 Z-0.125000
G01 X21.326500 Y17.249730 Z-0.125000
G01 X21.326500 Y17.259730 Z-0.125000
G01 X21.326500 Y17.269730 Z-0.125000
G01 X21.326500 Y17.279730 Z-0.125000
G01 X21.326500 Y17.289730 Z-0.125000
G01 X21.326500 Y17.299730 Z-0.125000
G01 X21.326500 Y17.309730 Z-0.125000
G01 X21.326500 Y17.319730 Z-0.125000
G01 X21.326500 Y17.329730 Z-0.125000
G01 X21.326500 Y17.339730 Z-0.125000
G01 X21.326500 Y17.349730 Z-0.125000
G01 X21.326500 Y17.359730 Z-0.125000
G01 X21.326500 Y17.369730 Z-0.125000
G01 X21.326500 Y17.379730 Z-0.125000
G01 X21.326500 Y17.389730 Z-0.125000
G01 X21.326500 Y17.399730 Z-0.125000
G01 X21.326500 Y17.409730 Z-0.125000
G01 X21.326500 Y17.419730 Z-0.125000
G01 X21.326500 Y17.429730 Z-0.125000
G01 X21.326500 Y17.439730 Z-0.125000
G01 X21.326500 Y17.449730 Z-0.125000
G01 X21.326500 Y17.459730 Z-0.125000
G01 X21.326500 Y17.469730 Z-0.125000
G01 X21.326500 Y17.479730 Z-0.125000
G01 X21.326500 Y17.489730 Z-0.125000
G01 X21.326500 Y17.499730 Z-0.125000
G01 X21.326500 Y17.509730 Z-0.125000
G01 X21.326500 Y17.519730 Z-0.125000
G01 X21.326500 Y17.529730 Z-0.125000
G01 X21.326500 Y17.539730 Z-0.125000
G01 X21.326500 Y17.549730 Z-0.125000
G01 X21.326500 Y17.559730 Z-0.125000
G01 X21.326500 Y17.569730 Z-0.125000
G01 X21.326500 Y17.579730 Z-0.125000
G01 X21.326500 Y17.589730 Z-0.125000
G01 X21.326500 Y17.599730 Z-0.125000
G01 X21.326500 Y17.609730 Z-0.125000
G01 X21.326500 Y17.619730 Z-0.125000
G01 X21.326500 Y17.629730 Z-0.125000
G01 X21.326500 Y17.639730 Z-0.125000
G01 X21.326500 Y17.649730 Z-0.125000
G01 X21.326500 Y17.659730 Z-0.125000
G01 X21.326500 Y17.669730 Z-0.125000
G01 X21.326500 Y17.679730 Z-0.125000
G01 X21.326500 Y17.689730 Z-0.125000
G01 X21.326500 Y17.699730 Z-0.125000
G01 X21.326500 Y17.709730 Z-0.125000
G01 X21.326500 Y17.719730 Z-0.125000
G01 X21.326500 Y17.729730 Z-0.125000
G01 X21.326500 Y17.739730 Z-0.125000
G01 X21.326500 Y17.749730 Z-0.125000
G01 X21.326500 Y17.759730 Z-0.125000
G01 X21.326500 Y17.769730 Z-0.125000
G01 X21.326500 Y17.779730 Z-0.125000
G01 X21.326500 Y17.789730 Z-0.125000
G01 X21.326500 Y17.799730 Z-0.125000
G01 X21.326500 Y17.809730 Z-0.125000
G01 X21.326500 Y17.819730 Z-0.125000
G01 X21.326500 Y17.829730 Z-0.125000
G01 X21.326500 Y17.839730 Z-0.125000
G01 X21.326500 Y17.849730 Z-0.125000
G01 X21.326500 Y17.859730 Z-0.125000
G01 X21.326500 Y17.869730 Z-0.125000
G01 X21.326500 Y17.879730 Z-0.125000
G01 X21.326500 Y17.889730 Z-0.125000
G01 X21.326500 Y17.899730 Z-0.125000
G01 X21.326500 Y17.909730 Z-0.125000
G01 X21.326500 Y17.919730 Z-0.125000
G01 X21.336500 Y17.919730 Z-0.125000
G01 X21.346500 Y17.919730 Z-0.125000
G01 X21.356500 Y17.919730 Z-0.125000
G01 X21.366500 Y17.919730 Z-0.125000
G01 X21.376500 Y17.919730 Z-0.125000
G01 X21.386500 Y17.919730 Z-0.125000
G01 X21.396500 Y17.919730 Z-0.125000
G01 X21.406500 Y17.919730 Z-0.125000
G01 X21.416500 Y17.919730 Z-0.125000
G01 X21.426500 Y17.919730 Z-0.125000
G01 X21.436500 Y17.919730 Z-0.125000
G01 X21.446500 Y17.919730 Z-0.125000
G01 X21.456500 Y17.919730 Z-0.125000
G01 X21.466500 Y17.919730 Z-0.125000
G01 X21.476500 Y17.919730 Z-0.125000
G01 X21.486500 Y17.919730 Z-0.125000
G01 X21.496500 Y17.919730 Z-0.125000
G01 X21.506500 Y17.919730 Z-0.125000
G01 X21.516500 Y17.919730 Z-0.125000
G01 X21.526500 Y17.919730 Z-0.125000
G01 X21.536500 Y17.919730 Z-0.125000
G01 X21.546500 Y17.919730 Z-0.125000
G01 X21.556500 Y17.919730 Z-0.125000
G01 X21.566500 Y17.919730 Z-0.125000
G01 X21.576500 Y17.919730 Z-0.125000
G01 X21.586500 Y17.919730 Z-0.125000
G01 X21.596500 Y17.919730 Z-0.125000
G01 X21.606500 Y17.919730 Z-0.125000
G01 X21.616500 Y17.919730 Z-0.125000
G01 X21.626500 Y17.919730 Z-0.125000
G01 X21.636500 Y17.919730 Z-0.125000
G01 X21.646500 Y17.919730 Z-0.125000
G01 X21.656500 Y17.919730 Z-0.125000
G01 X21.666500 Y17.919730 Z-0.125000
G01 X21.676500 Y17.919730 Z-0.125000
G01 X21.686500 Y17.919730 Z-0.125000
G01 X21.696500 Y17.919730 Z-0.125000
G01 X21.706500 Y17.919730 Z-0.125000
G01 X21.716500 Y17.919730 Z-0.125000
G01 X21.726500 Y17.919730 Z-0.125000
G01 X21.736500 Y17.919730 Z-0.125000
G01 X21.746500 Y17.919730 Z-0.125000
G01 X21.756500 Y17.919730 Z-0.125000
G01 X21.766500 Y17.919730 Z-0.125000
G01 X21.776500 Y17.919730 Z-0.125000
G01 X21.786500 Y17.919730 Z-0.125000
G01 X21.796500 Y17.919730 Z-0.125000
G01 X21.806500 Y17.919730 Z-0.125000
G01 X21.816500 Y17.919730 Z-0.125000
G01 X21.826500 Y17.919730 Z-0.125000
G01 X21.836500 Y17.919730 Z-0.125000
G01 X21.846500 Y17.919730 Z-0.125000
G01 X21.856500 Y17.919730 Z-0.125000
G01 X21.866500 Y17.919730 Z-0.125000
G01 X21.876500 Y17.919730 Z-0.125000
G01 X21.886500 Y17.919730 Z-0.125000
G01 X21.896500 Y17.919730 Z-0.125000
G01 X21.906500 Y17.919730 Z-0.125000
G01 X21.916500 Y17.919730 Z-0.125000
G01 X21.926500 Y17.919730 Z-0.125000
G01 X21.936500 Y17.919730 Z-0.125000
G01 X21.946500 Y17.919730 Z-0.125000
G01 X21.956500 Y17.919730 Z-0.125000
G01 X21.966500 Y17.919730 Z-0.125000
G01 X21.976500 Y17.919730 Z-0.125000
G01 X21.986500 Y17.919730 Z-0.125000
G01 X21.996500 Y17.919730 Z-0.125000
G01 X22.006500 Y17.919730 Z-0.125000
G01 X22.016500 Y17.919730 Z-0.125000
G01 X22.026500 Y17.919730 Z-0.125000
G01 X22.036500 Y17.919730 Z-0.125000
G01 X22.046500 Y17.919730 Z-0.125000
G01 X22.056500 Y17.919730 Z-0.125000
G01 X22.066500 Y17.919730 Z-0.125000
G01 X22.076500 Y17.919730 Z-0.125000
G01 X22.086500 Y17.919730 Z-0.125000
G01 X22.096500 Y17.919730 Z-0.125000
G01 X22.106500 Y17.919730 Z-0.125000
G01 X22.116500 Y17.919730 Z-0.125000
G01 X22.126500 Y17.919730 Z-0.125000
G01 X22.136500 Y17.919730 Z-0.125000
G01 X22.146500 Y17.919730 Z-0.125000
G01 X22.156500 Y17.919730 Z-0.125000
G01 X22.166500 Y17.919730 Z-0.125000
G01 X22.176500 Y17.919730 Z-0.125000
G01 X22.186500 Y17.919730 Z-0.125000
G01 X22.196500 Y17.919730 Z-0.125000
G01 X22.196500 Y17.909730 Z-0.125000
G01 X22.196500 Y17.899730 Z-0.125000
G01 X22.196500 Y17.889730 Z-0.125000
G01 X22.196500 Y17.879730 Z-0.125000
G01 X22.196500 Y17.869730 Z-0.125000
G01 X22.196500 Y17.859730 Z-0.125000
G01 X22.196500 Y17.849730 Z-0.125000
G01 X22.196500 Y17.839730 Z-0.125000
G01 X22.196500 Y17.829730 Z-0.125000
G01 X22.196500 Y17.819730 Z-0.125000
G01 X22.196500 Y17.809730 Z-0.125000
G01 X22.196500 Y17.799730 Z-0.125000
G01 X22.196500 Y17.789730 Z-0.125000
G01 X22.196500 Y17.779730 Z-0.125000
G01 X22.196500 Y17.769730 Z-0.125000
G01 X22.196500 Y17.759730 Z-0.125000
G01 X22.196500 Y17.749730 Z-0.125000
G01 X22.196500 Y17.739730 Z-0.125000
G01 X22.196500 Y17.729730 Z-0.125000
G01 X22.196500 Y17.719730 Z-0.125000
G01 X22.196500 Y17.709730 Z-0.125000
G01 X22.196500 Y17.699730 Z-0.125000
G01 X22.196500 Y17.689730 Z-0.125000
G01 X22.196500 Y17.679730 Z-0.125000
G01 X22.196500 Y17.669730 Z-0.125000
G01 X22.196500 Y17.659730 Z-0.125000
G01 X22.196500 Y17.649730 Z-0.125000
G01 X22.196500 Y17.639730 Z-0.125000
G01 X22.196500 Y17.629730 Z-0.125000
G01 X22.196500 Y17.619730 Z-0.125000
G01 X22.196500 Y17.609730 Z-0.125000
G01 X22.196500 Y17.599730 Z-0.125000
G01 X22.196500 Y17.589730 Z-0.125000
G01 X22.196500 Y17.579730 Z-0.125000
G01 X22.196500 Y17.569730 Z-0.125000
G01 X22.196500 Y17.559730 Z-0.125000
G01 X22.196500 Y17.549730 Z-0.125000
G01 X22.196500 Y17.539730 Z-0.125000
G01 X22.196500 Y17.529730 Z-0.125000
G01 X22.196500 Y17.519730 Z-0.125000
G01 X22.196500 Y17.509730 Z-0.125000
G01 X22.196500 Y17.499730 Z-0.125000
G01 X22.196500 Y17.489730 Z-0.125000
G01 X22.196500 Y17.479730 Z-0.125000
G01 X22.196500 Y17.469730 Z-0.125000
G01 X22.196500 Y17.459730 Z-0.125000
G01 X22.196500 Y17.449730 Z-0.125000
G01 X22.196500 Y17.439730 Z-0.125000
G01 X22.196500 Y17.429730 Z-0.125000
G01 X22.196500 Y17.419730 Z-0.125000
G01 X22.196500 Y17.409730 Z-0.125000
G01 X22.196500 Y17.399730 Z-0.125000
G01 X22.196500 Y17.389730 Z-0.125000
G01 X22.196500 Y17.379730 Z-0.125000
G01 X22.196500 Y17.369730 Z-0.125000
G01 X22.196500 Y17.359730 Z-0.125000
G01 X22.196500 Y17.349730 Z-0.125000
G01 X22.196500 Y17.339730 Z-0.125000
G01 X22.196500 Y17.329730 Z-0.125000
G01 X22.196500 Y17.319730 Z-0.125000
G01 X22.196500 Y17.309730 Z-0.125000
G01 X22.196500 Y17.299730 Z-0.125000
G01 X22.196500 Y17.289730 Z-0.125000
G01 X22.196500 Y17.279730 Z-0.125000
G01 X22.196500 Y17.269730 Z-0.125000
G01 X22.196500 Y17.259730 Z-0.125000
G01 X22.196500 Y17.249730 Z-0.125000
G01 X22.196500 Y17.239730 Z-0.125000
G01 X22.196500 Y17.229730 Z-0.125000
G01 X22.196500 Y17.219730 Z-0.125000
G01 X22.196500 Y17.209730 Z-0.125000
G01 X22.196500 Y17.199730 Z-0.125000
G01 X22.196500 Y17.189730 Z-0.125000
G01 X22.196500 Y17.179730 Z-0.125000
G01 X22.196500 Y17.169730 Z-0.125000
G01 X22.196500 Y17.159730 Z-0.125000
G01 X22.196500 Y17.149730 Z-0.125000
G01 X22.196500 Y17.139730 Z-0.125000
G01 X22.196500 Y17.129730 Z-0.125000
G01 X22.196500 Y17.119730 Z-0.125000
G01 X22.196500 Y17.109730 Z-0.125000
G01 X22.196500 Y17.099730 Z-0.125000
G01 X22.196500 Y17.089730 Z-0.125000
G01 X22.196500 Y17.079730 Z-0.125000
G01 X22.196500 Y17.069730 Z-0.125000
G01 X22.196500 Y17.059730 Z-0.125000
G01 X22.196500 Y17.049730 Z-0.125000
G01 X22.196500 Y17.039730 Z-0.125000
G01 X22.196500 Y17.029730 Z-0.125000
G01 X22.196500 Y17.019730 Z-0.125000
G01 X22.196500 Y17.009730 Z-0.125000
G01 X22.196500 Y16.999730 Z-0.125000
G01 X22.196500 Y16.989730 Z-0.125000
G01 X22.196500 Y16.979730 Z-0.125000
G01 X22.196500 Y16.969730 Z-0.125000
G01 X22.196500 Y16.959730 Z-0.125000
G01 X22.196500 Y16.949730 Z-0.125000
G01 X22.196500 Y16.939730 Z-0.125000
G01 X22.196500 Y16.929730 Z-0.125000
G01 X22.196500 Y16.919730 Z-0.125000
G01 X22.196500 Y16.909730 Z-0.125000
G01 X22.196500 Y16.899730 Z-0.125000
G01 X22.196500 Y16.889730 Z-0.125000
G01 X22.196500 Y16.879730 Z-0.125000
G01 X22.196500 Y16.869730 Z-0.125000
G01 X22.196500 Y16.859730 Z-0.125000
G01 X22.196500 Y16.849730 Z-0.125000
G01 X22.196500 Y16.839730 Z-0.125000
G01 X22.196500 Y16.829730 Z-0.125000
G01 X22.196500 Y16.819730 Z-0.125000
G01 X22.196500 Y16.809730 Z-0.125000
G01 X22.196500 Y16.799730 Z-0.125000
G01 X22.196500 Y16.789730 Z-0.125000
G01 X22.196500 Y16.779730 Z-0.125000
G01 X22.196500 Y16.769730 Z-0.125000
G01 X22.196500 Y16.759730 Z-0.125000
G01 X22.196500 Y16.749730 Z-0.125000
G01 X22.196500 Y16.739730 Z-0.125000
G01 X22.196500 Y16.729730 Z-0.125000
G01 X22.196500 Y16.719730 Z-0.125000
G01 X22.196500 Y16.709730 Z-0.125000
G01 X22.196500 Y16.699730 Z-0.125000
G01 X22.196500 Y16.689730 Z-0.125000
G01 X22.196500 Y16.679730 Z-0.125000
G01 X22.196500 Y16.669730 Z-0.125000
G01 X22.196500 Y16.659730 Z-0.125000
G01 X22.196500 Y16.649730 Z-0.125000
G01 X22.196500 Y16.639730 Z-0.125000
G01 X22.196500 Y16.629730 Z-0.125000
G01 X22.196500 Y16.619730 Z-0.125000
G01 X22.196500 Y16.609730 Z-0.125000
G01 X22.196500 Y16.599730 Z-0.125000
G01 X22.196500 Y16.589730 Z-0.125000
G01 X22.196500 Y16.579730 Z-0.125000
G01 X22.196500 Y16.569730 Z-0.125000
G01 X22.196500 Y16.559730 Z-0.125000
G01 X22.196500 Y16.549730 Z-0.125000
G01 X22.196500 Y16.539730 Z-0.125000
G01 X22.196500 Y16.529730 Z-0.125000
G01 X22.196500 Y16.519730 Z-0.125000
G01 X22.196500 Y16.509730 Z-0.125000
G01 X22.196500 Y16.499730 Z-0.125000
G01 X22.196500 Y16.489730 Z-0.125000
G01 X22.196500 Y16.479730 Z-0.125000
G01 X22.196500 Y16.469730 Z-0.125000
G01 X22.196500 Y16.459730 Z-0.125000
G01 X22.196500 Y16.449730 Z-0.125000
G01 X22.196500 Y16.439730 Z-0.125000
G01 X22.196500 Y16.429730 Z-0.125000
G01 X22.196500 Y16.419730 Z-0.125000
G01 X22.196500 Y16.409730 Z-0.125000
G01 X22.196500 Y16.399730 Z-0.125000
G01 X22.196500 Y16.389730 Z-0.125000
G01 X22.196500 Y16.379730 Z-0.125000
G01 X22.196500 Y16.369730 Z-0.125000
G01 X22.196500 Y16.359730 Z-0.125000
G01 X22.196500 Y16.349730 Z-0.125000
G01 X22.196500 Y16.339730 Z-0.125000
G01 X22.196500 Y16.329730 Z-0.125000
G01 X22.196500 Y16.319730 Z-0.125000
G01 X22.196500 Y16.309730 Z-0.125000
G01 X22.196500 Y16.299730 Z-0.125000
G01 X22.196500 Y16.289730 Z-0.125000
G01 X22.196500 Y16.279730 Z-0.125000
G01 X22.196500 Y16.269730 Z-0.125000
G01 X22.196500 Y16.259730 Z-0.125000
G01 X22.196500 Y16.249730 Z-0.125000
G01 X22.196500 Y16.239730 Z-0.125000
G01 X22.196500 Y16.229730 Z-0.125000
G01 X22.196500 Y16.219730 Z-0.125000
G01 X22.196500 Y16.209730 Z-0.125000
G01 X22.196500 Y16.199730 Z-0.125000
G01 X22.196500 Y16.189730 Z-0.125000
G01 X22.196500 Y16.179730 Z-0.125000
G01 X22.196500 Y16.169730 Z-0.125000
G01 X22.196500 Y16.159730 Z-0.125000
G01 X22.196500 Y16.149730 Z-0.125000
G01 X22.196500 Y16.139730 Z-0.125000
G01 X22.196500 Y16.129730 Z-0.125000
G01 X22.196500 Y16.119730 Z-0.125000
G01 X22.196500 Y16.109730 Z-0.125000
G01 X22.196500 Y16.099730 Z-0.125000
G01 X22.196500 Y16.089730 Z-0.125000
G01 X22.196500 Y16.079730 Z-0.125000
G01 X22.196500 Y16.069730 Z-0.125000
G01 X22.196500 Y16.059730 Z-0.125000
G01 X22.196500 Y16.049730 Z-0.125000
G01 X22.196500 Y16.039730 Z-0.125000
G01 X22.196500 Y16.029730 Z-0.125000
G01 X22.196500 Y16.019730 Z-0.125000
G01 X22.196500 Y16.009730 Z-0.125000
G01 X22.196500 Y15.999730 Z-0.125000
G01 X22.196500 Y15.989730 Z-0.125000
G01 X22.196500 Y15.979730 Z-0.125000
G01 X22.196500 Y15.969730 Z-0.125000
G01 X22.196500 Y15.959730 Z-0.125000
G01 X22.196500 Y15.949730 Z-0.125000
G01 X22.196500 Y15.939730 Z-0.125000
G01 X22.196500 Y15.929730 Z-0.125000
G01 X22.196500 Y15.919730 Z-0.125000
G01 X22.196500 Y15.909730 Z-0.125000
G01 X22.196500 Y15.899730 Z-0.125000
G01 X22.196500 Y15.889730 Z-0.125000
G01 X22.196500 Y15.879730 Z-0.125000
G01 X22.196500 Y15.869730 Z-0.125000
G01 X22.196500 Y15.859730 Z-0.125000
G01 X22.196500 Y15.849730 Z-0.125000
G01 X22.196500 Y15.839730 Z-0.125000
G01 X22.196500 Y15.829730 Z-0.125000
G01 X22.196500 Y15.819730 Z-0.125000
G01 X22.196500 Y15.809730 Z-0.125000
G01 X22.196500 Y15.799730 Z-0.125000
G01 X22.196500 Y15.789730 Z-0.125000
G01 X22.196500 Y15.779730 Z-0.125000
G01 X22.196500 Y15.769730 Z-0.125000
G01 X22.196500 Y15.759730 Z-0.125000
G01 X22.196500 Y15.749730 Z-0.125000
G01 X22.196500 Y15.739730 Z-0.125000
G01 X22.196500 Y15.729730 Z-0.125000
G01 X22.196500 Y15.719730 Z-0.125000
G01 X22.196500 Y15.709730 Z-0.125000
G01 X22.196500 Y15.699730 Z-0.125000
G01 X22.196500 Y15.689730 Z-0.125000
G01 X22.196500 Y15.679730 Z-0.125000
G01 X22.196500 Y15.669730 Z-0.125000
G01 X22.196500 Y15.659730 Z-0.125000
G01 X22.196500 Y15.649730 Z-0.125000
G01 X22.196500 Y15.639730 Z-0.125000
G01 X22.196500 Y15.629730 Z-0.125000
G01 X22.196500 Y15.619730 Z-0.125000
G01 X22.196500 Y15.609730 Z-0.125000
G01 X22.196500 Y15.599730 Z-0.125000
G01 X22.196500 Y15.589730 Z-0.125000
G01 X22.196500 Y15.579730 Z-0.125000
G01 X22.196500 Y15.569730 Z-0.125000
G01 X22.196500 Y15.559730 Z-0.125000
G01 X22.196500 Y15.549730 Z-0.125000
G01 X22.196500 Y15.539730 Z-0.125000
G01 X22.196500 Y15.529730 Z-0.125000
G01 X22.196500 Y15.519730 Z-0.125000
G01 X22.196500 Y15.509730 Z-0.125000
G01 X22.196500 Y15.499730 Z-0.125000
G01 X22.196500 Y15.489730 Z-0.125000
G01 X22.196500 Y15.479730 Z-0.125000
G01 X22.196500 Y15.469730 Z-0.125000
G01 X22.196500 Y15.459730 Z-0.125000
G01 X22.196500 Y15.449730 Z-0.125000
G01 X22.196500 Y15.439730 Z-0.125000
G01 X22.196500 Y15.429730 Z-0.125000
G01 X22.196500 Y15.419730 Z-0.125000
G01 X22.196500 Y15.409730 Z-0.125000
G01 X22.196500 Y15.399730 Z-0.125000
G01 X22.196500 Y15.389730 Z-0.125000
G01 X22.196500 Y15.379730 Z-0.125000
G01 X22.196500 Y15.369730 Z-0.125000
G01 X22.196500 Y15.359730 Z-0.125000
G01 X22.196500 Y15.349730 Z-0.125000
G01 X22.196500 Y15.339730 Z-0.125000
G01 X22.196500 Y15.329730 Z-0.125000
G01 X22.196500 Y15.319730 Z-0.125000
G01 X22.196500 Y15.309730 Z-0.125000
G01 X22.196500 Y15.299730 Z-0.125000
G01 X22.196500 Y15.289730 Z-0.125000
G01 X22.196500 Y15.279730 Z-0.125000
G01 X22.196500 Y15.269730 Z-0.125000
G01 X22.196500 Y15.259730 Z-0.125000
G01 X22.196500 Y15.249730 Z-0.125000
G01 X22.196500 Y15.239730 Z-0.125000
G01 X22.196500 Y15.229730 Z-0.125000
G01 X22.196500 Y15.219730 Z-0.125000
G01 X22.196500 Y15.209730 Z-0.125000
G01 X22.196500 Y15.199730 Z-0.125000
G01 X22.196500 Y15.189730 Z-0.125000
G01 X22.196500 Y15.179730 Z-0.125000
G01 X22.196500 Y15.169730 Z-0.125000
G01 X22.196500 Y15.159730 Z-0.125000
G01 X22.196500 Y15.149730 Z-0.125000
G01 X22.196500 Y15.139730 Z-0.125000
G01 X22.196500 Y15.129730 Z-0.125000
G01 X22.196500 Y15.119730 Z-0.125000
G01 X22.196500 Y15.109730 Z-0.125000
G01 X22.196500 Y15.099730 Z-0.125000
G01 X22.196500 Y15.089730 Z-0.125000
G01 X22.196500 Y15.079730 Z-0.125000
G01 X22.196500 Y15.069730 Z-0.125000
G01 X22.196500 Y15.059730 Z-0.125000
G01 X22.196500 Y15.049730 Z-0.125000
G01 X22.196500 Y15.039730 Z-0.125000
G01 X22.196500 Y15.029730 Z-0.125000
G01 X22.196500 Y15.019730 Z-0.125000
G01 X22.196500 Y15.009730 Z-0.125000
G01 X22.196500 Y14.999730 Z-0.125000
G01 X22.196500 Y14.989730 Z-0.125000
G01 X22.196500 Y14.979730 Z-0.125000
G01 X22.196500 Y14.969730 Z-0.125000
G01 X22.196500 Y14.959730 Z-0.125000
G01 X22.196500 Y14.949730 Z-0.125000
G01 X22.196500 Y14.939730 Z-0.125000
G01 X22.196500 Y14.929730 Z-0.125000
G01 X22.196500 Y14.919730 Z-0.125000
G01 X22.196500 Y14.909730 Z-0.125000
G01 X22.196500 Y14.899730 Z-0.125000
G01 X22.196500 Y14.889730 Z-0.125000
G01 X22.196500 Y14.879730 Z-0.125000
G01 X22.196500 Y14.869730 Z-0.125000
G01 X22.196500 Y14.859730 Z-0.125000
G01 X22.196500 Y14.849730 Z-0.125000
G01 X22.196500 Y14.839730 Z-0.125000
G01 X22.196500 Y14.829730 Z-0.125000
G01 X22.196500 Y14.819730 Z-0.125000
G01 X22.196500 Y14.809730 Z-0.125000
G01 X22.196500 Y14.799730 Z-0.125000
G01 X22.196500 Y14.789730 Z-0.125000
G01 X22.196500 Y14.779730 Z-0.125000
G01 X22.196500 Y14.769730 Z-0.125000
G01 X22.196500 Y14.759730 Z-0.125000
G01 X22.196500 Y14.749730 Z-0.125000
G01 X22.196500 Y14.739730 Z-0.125000
G01 X22.196500 Y14.729730 Z-0.125000
G01 X22.196500 Y14.719730 Z-0.125000
G01 X22.196500 Y14.709730 Z-0.125000
G01 X22.196500 Y14.699730 Z-0.125000
G01 X22.196500 Y14.689730 Z-0.125000
G01 X22.196500 Y14.679730 Z-0.125000
G01 X22.196500 Y14.669730 Z-0.125000
G01 X22.196500 Y14.659730 Z-0.125000
G01 X22.196500 Y14.649730 Z-0.125000
G01 X22.196500 Y14.639730 Z-0.125000
G01 X22.196500 Y14.629730 Z-0.125000
G01 X22.196500 Y14.619730 Z-0.125000
G01 X22.196500 Y14.609730 Z-0.125000
G01 X22.196500 Y14.599730 Z-0.125000
G01 X22.196500 Y14.589730 Z-0.125000
G01 X22.196500 Y14.579730 Z-0.125000
G01 X22.196500 Y14.569730 Z-0.125000
G01 X22.196500 Y14.559730 Z-0.125000
G01 X22.196500 Y14.549730 Z-0.125000
G01 X22.196500 Y14.539730 Z-0.125000
G01 X22.196500 Y14.529730 Z-0.125000
G01 X22.196500 Y14.519730 Z-0.125000
G01 X22.196500 Y14.509730 Z-0.125000
G01 X22.196500 Y14.499730 Z-0.125000
G01 X22.196500 Y14.489730 Z-0.125000
G01 X22.196500 Y14.479730 Z-0.125000
G01 X22.196500 Y14.469730 Z-0.125000
G01 X22.196500 Y14.459730 Z-0.125000
G01 X22.196500 Y14.449730 Z-0.125000
G01 X22.196500 Y14.439730 Z-0.125000
G01 X22.196500 Y14.429730 Z-0.125000
G01 X22.196500 Y14.419730 Z-0.125000
G01 X22.196500 Y14.409730 Z-0.125000
G01 X22.196500 Y14.399730 Z-0.125000
G01 X22.196500 Y14.389730 Z-0.125000
G01 X22.196500 Y14.379730 Z-0.125000
G01 X22.196500 Y14.369730 Z-0.125000
G01 X22.196500 Y14.359730 Z-0.125000
G01 X22.196500 Y14.349730 Z-0.125000
G01 X22.196500 Y14.339730 Z-0.125000
G01 X22.196500 Y14.329730 Z-0.125000
G01 X22.196500 Y14.319730 Z-0.125000
G01 X22.196500 Y14.309730 Z-0.125000
G01 X22.196500 Y14.299730 Z-0.125000
G01 X22.196500 Y14.289730 Z-0.125000
G01 X22.196500 Y14.279730 Z-0.125000
G01 X22.196500 Y14.269730 Z-0.125000
G01 X22.196500 Y14.259730 Z-0.125000
G01 X22.196500 Y14.249730 Z-0.125000
G01 X22.196500 Y14.239730 Z-0.125000
G01 X22.196500 Y14.229730 Z-0.125000
G01 X22.196500 Y14.219730 Z-0.125000
G01 X22.196500 Y14.209730 Z-0.125000
G01 X22.196500 Y14.199730 Z-0.125000
G01 X22.196500 Y14.189730 Z-0.125000
G01 X22.196500 Y14.179730 Z-0.125000
G01 X22.196500 Y14.169730 Z-0.125000
G01 X22.196500 Y14.159730 Z-0.125000
G00 Z5.000000

(End cutting path id: path18708)


(Start cutting path id: path18706)
(Change tool to Default tool)

G00 Z5.000000
G00 X20.508400 Y14.159730

G01 Z-0.125000 F100.0(Penetrate)
G01 X20.498400 Y14.159730 Z-0.125000 F400.000000
G01 X20.488400 Y14.159730 Z-0.125000
G01 X20.478400 Y14.159730 Z-0.125000
G01 X20.468400 Y14.159730 Z-0.125000
G01 X20.458400 Y14.159730 Z-0.125000
G01 X20.448400 Y14.159730 Z-0.125000
G01 X20.438400 Y14.159730 Z-0.125000
G01 X20.428400 Y14.159730 Z-0.125000
G01 X20.418400 Y14.159730 Z-0.125000
G01 X20.408400 Y14.159730 Z-0.125000
G01 X20.398400 Y14.159730 Z-0.125000
G01 X20.388400 Y14.159730 Z-0.125000
G01 X20.378400 Y14.159730 Z-0.125000
G01 X20.368400 Y14.159730 Z-0.125000
G01 X20.358400 Y14.159730 Z-0.125000
G01 X20.348400 Y14.159730 Z-0.125000
G01 X20.338400 Y14.159730 Z-0.125000
G01 X20.328400 Y14.159730 Z-0.125000
G01 X20.318400 Y14.159730 Z-0.125000
G01 X20.308400 Y14.159730 Z-0.125000
G01 X20.298400 Y14.159730 Z-0.125000
G01 X20.288400 Y14.159730 Z-0.125000
G01 X20.278400 Y14.159730 Z-0.125000
G01 X20.268400 Y14.159730 Z-0.125000
G01 X20.258400 Y14.159730 Z-0.125000
G01 X20.248400 Y14.159730 Z-0.125000
G01 X20.238400 Y14.159730 Z-0.125000
G01 X20.228400 Y14.159730 Z-0.125000
G01 X20.218400 Y14.159730 Z-0.125000
G01 X20.208400 Y14.159730 Z-0.125000
G01 X20.198400 Y14.159730 Z-0.125000
G01 X20.188400 Y14.159730 Z-0.125000
G01 X20.178400 Y14.159730 Z-0.125000
G01 X20.168400 Y14.159730 Z-0.125000
G01 X20.158400 Y14.159730 Z-0.125000
G01 X20.148400 Y14.159730 Z-0.125000
G01 X20.138400 Y14.159730 Z-0.125000
G01 X20.128400 Y14.159730 Z-0.125000
G01 X20.118400 Y14.159730 Z-0.125000
G01 X20.108400 Y14.159730 Z-0.125000
G01 X20.098400 Y14.159730 Z-0.125000
G01 X20.088400 Y14.159730 Z-0.125000
G01 X20.078400 Y14.159730 Z-0.125000
G01 X20.068400 Y14.159730 Z-0.125000
G01 X20.058400 Y14.159730 Z-0.125000
G01 X20.048400 Y14.159730 Z-0.125000
G01 X20.038400 Y14.159730 Z-0.125000
G01 X20.028400 Y14.159730 Z-0.125000
G01 X20.018400 Y14.159730 Z-0.125000
G01 X20.008400 Y14.159730 Z-0.125000
G01 X19.998400 Y14.159730 Z-0.125000
G01 X19.988400 Y14.159730 Z-0.125000
G01 X19.978400 Y14.159730 Z-0.125000
G01 X19.968400 Y14.159730 Z-0.125000
G01 X19.958400 Y14.159730 Z-0.125000
G01 X19.948400 Y14.159730 Z-0.125000
G01 X19.938400 Y14.159730 Z-0.125000
G01 X19.928400 Y14.159730 Z-0.125000
G01 X19.918400 Y14.159730 Z-0.125000
G01 X19.908400 Y14.159730 Z-0.125000
G01 X19.898400 Y14.159730 Z-0.125000
G01 X19.888400 Y14.159730 Z-0.125000
G01 X19.878400 Y14.159730 Z-0.125000
G01 X19.868400 Y14.159730 Z-0.125000
G01 X19.858400 Y14.159730 Z-0.125000
G01 X19.848400 Y14.159730 Z-0.125000
G01 X19.838400 Y14.159730 Z-0.125000
G01 X19.828400 Y14.159730 Z-0.125000
G01 X19.818400 Y14.159730 Z-0.125000
G01 X19.808400 Y14.159730 Z-0.125000
G01 X19.798400 Y14.159730 Z-0.125000
G01 X19.788400 Y14.159730 Z-0.125000
G01 X19.778400 Y14.159730 Z-0.125000
G01 X19.768400 Y14.159730 Z-0.125000
G01 X19.758400 Y14.159730 Z-0.125000
G01 X19.748400 Y14.159730 Z-0.125000
G01 X19.738400 Y14.159730 Z-0.125000
G01 X19.728400 Y14.159730 Z-0.125000
G01 X19.718400 Y14.159730 Z-0.125000
G01 X19.708400 Y14.159730 Z-0.125000
G01 X19.698400 Y14.159730 Z-0.125000
G01 X19.688400 Y14.159730 Z-0.125000
G01 X19.678400 Y14.159730 Z-0.125000
G01 X19.668400 Y14.159730 Z-0.125000
G01 X19.658400 Y14.159730 Z-0.125000
G01 X19.648400 Y14.159730 Z-0.125000
G01 X19.638400 Y14.159730 Z-0.125000
G01 X19.638400 Y14.169730 Z-0.125000
G01 X19.638400 Y14.179730 Z-0.125000
G01 X19.638400 Y14.189730 Z-0.125000
G01 X19.638400 Y14.199730 Z-0.125000
G01 X19.638400 Y14.209730 Z-0.125000
G01 X19.638400 Y14.219730 Z-0.125000
G01 X19.638400 Y14.229730 Z-0.125000
G01 X19.638400 Y14.239730 Z-0.125000
G01 X19.638400 Y14.249730 Z-0.125000
G01 X19.638400 Y14.259730 Z-0.125000
G01 X19.638400 Y14.269730 Z-0.125000
G01 X19.638400 Y14.279730 Z-0.125000
G01 X19.638400 Y14.289730 Z-0.125000
G01 X19.638400 Y14.299730 Z-0.125000
G01 X19.638400 Y14.309730 Z-0.125000
G01 X19.638400 Y14.319730 Z-0.125000
G01 X19.638400 Y14.329730 Z-0.125000
G01 X19.638400 Y14.339730 Z-0.125000
G01 X19.638400 Y14.349730 Z-0.125000
G01 X19.638400 Y14.359730 Z-0.125000
G01 X19.638400 Y14.369730 Z-0.125000
G01 X19.638400 Y14.379730 Z-0.125000
G01 X19.638400 Y14.389730 Z-0.125000
G01 X19.638400 Y14.399730 Z-0.125000
G01 X19.638400 Y14.409730 Z-0.125000
G01 X19.638400 Y14.419730 Z-0.125000
G01 X19.638400 Y14.429730 Z-0.125000
G01 X19.638400 Y14.439730 Z-0.125000
G01 X19.638400 Y14.449730 Z-0.125000
G01 X19.638400 Y14.459730 Z-0.125000
G01 X19.638400 Y14.469730 Z-0.125000
G01 X19.638400 Y14.479730 Z-0.125000
G01 X19.638400 Y14.489730 Z-0.125000
G01 X19.638400 Y14.499730 Z-0.125000
G01 X19.638400 Y14.509730 Z-0.125000
G01 X19.638400 Y14.519730 Z-0.125000
G01 X19.638400 Y14.529730 Z-0.125000
G01 X19.638400 Y14.539730 Z-0.125000
G01 X19.638400 Y14.549730 Z-0.125000
G01 X19.638400 Y14.559730 Z-0.125000
G01 X19.638400 Y14.569730 Z-0.125000
G01 X19.638400 Y14.579730 Z-0.125000
G01 X19.638400 Y14.589730 Z-0.125000
G01 X19.638400 Y14.599730 Z-0.125000
G01 X19.638400 Y14.609730 Z-0.125000
G01 X19.638400 Y14.619730 Z-0.125000
G01 X19.638400 Y14.629730 Z-0.125000
G01 X19.638400 Y14.639730 Z-0.125000
G01 X19.638400 Y14.649730 Z-0.125000
G01 X19.638400 Y14.659730 Z-0.125000
G01 X19.638400 Y14.669730 Z-0.125000
G01 X19.638400 Y14.679730 Z-0.125000
G01 X19.638400 Y14.689730 Z-0.125000
G01 X19.638400 Y14.699730 Z-0.125000
G01 X19.638400 Y14.709730 Z-0.125000
G01 X19.638400 Y14.719730 Z-0.125000
G01 X19.638400 Y14.729730 Z-0.125000
G01 X19.638400 Y14.739730 Z-0.125000
G01 X19.638400 Y14.749730 Z-0.125000
G01 X19.638400 Y14.759730 Z-0.125000
G01 X19.638400 Y14.769730 Z-0.125000
G01 X19.638400 Y14.779730 Z-0.125000
G01 X19.638400 Y14.789730 Z-0.125000
G01 X19.638400 Y14.799730 Z-0.125000
G01 X19.638400 Y14.809730 Z-0.125000
G01 X19.638400 Y14.819730 Z-0.125000
G01 X19.638400 Y14.829730 Z-0.125000
G01 X19.638400 Y14.839730 Z-0.125000
G01 X19.638400 Y14.849730 Z-0.125000
G01 X19.638400 Y14.859730 Z-0.125000
G01 X19.638400 Y14.869730 Z-0.125000
G01 X19.638400 Y14.879730 Z-0.125000
G01 X19.638400 Y14.889730 Z-0.125000
G01 X19.638400 Y14.899730 Z-0.125000
G01 X19.638400 Y14.909730 Z-0.125000
G01 X19.638400 Y14.919730 Z-0.125000
G01 X19.638400 Y14.929730 Z-0.125000
G01 X19.638400 Y14.939730 Z-0.125000
G01 X19.638400 Y14.949730 Z-0.125000
G01 X19.638400 Y14.959730 Z-0.125000
G01 X19.638400 Y14.969730 Z-0.125000
G01 X19.638400 Y14.979730 Z-0.125000
G01 X19.638400 Y14.989730 Z-0.125000
G01 X19.638400 Y14.999730 Z-0.125000
G01 X19.638400 Y15.009730 Z-0.125000
G01 X19.638400 Y15.019730 Z-0.125000
G01 X19.638400 Y15.029730 Z-0.125000
G01 X19.638400 Y15.039730 Z-0.125000
G01 X19.638400 Y15.049730 Z-0.125000
G01 X19.638400 Y15.059730 Z-0.125000
G01 X19.638400 Y15.069730 Z-0.125000
G01 X19.638400 Y15.079730 Z-0.125000
G01 X19.638400 Y15.089730 Z-0.125000
G01 X19.638400 Y15.099730 Z-0.125000
G01 X19.638400 Y15.109730 Z-0.125000
G01 X19.638400 Y15.119730 Z-0.125000
G01 X19.638400 Y15.129730 Z-0.125000
G01 X19.638400 Y15.139730 Z-0.125000
G01 X19.638400 Y15.149730 Z-0.125000
G01 X19.638400 Y15.159730 Z-0.125000
G01 X19.638400 Y15.169730 Z-0.125000
G01 X19.638400 Y15.179730 Z-0.125000
G01 X19.638400 Y15.189730 Z-0.125000
G01 X19.638400 Y15.199730 Z-0.125000
G01 X19.638400 Y15.209730 Z-0.125000
G01 X19.638400 Y15.219730 Z-0.125000
G01 X19.638400 Y15.229730 Z-0.125000
G01 X19.638400 Y15.239730 Z-0.125000
G01 X19.638400 Y15.249730 Z-0.125000
G01 X19.638400 Y15.259730 Z-0.125000
G01 X19.638400 Y15.269730 Z-0.125000
G01 X19.638400 Y15.279730 Z-0.125000
G01 X19.638400 Y15.289730 Z-0.125000
G01 X19.638400 Y15.299730 Z-0.125000
G01 X19.638400 Y15.309730 Z-0.125000
G01 X19.638400 Y15.319730 Z-0.125000
G01 X19.638400 Y15.329730 Z-0.125000
G01 X19.638400 Y15.339730 Z-0.125000
G01 X19.638400 Y15.349730 Z-0.125000
G01 X19.638400 Y15.359730 Z-0.125000
G01 X19.638400 Y15.369730 Z-0.125000
G01 X19.638400 Y15.379730 Z-0.125000
G01 X19.638400 Y15.389730 Z-0.125000
G01 X19.638400 Y15.399730 Z-0.125000
G01 X19.638400 Y15.409730 Z-0.125000
G01 X19.638400 Y15.419730 Z-0.125000
G01 X19.638400 Y15.429730 Z-0.125000
G01 X19.638400 Y15.439730 Z-0.125000
G01 X19.638400 Y15.449730 Z-0.125000
G01 X19.638400 Y15.459730 Z-0.125000
G01 X19.638400 Y15.469730 Z-0.125000
G01 X19.638400 Y15.479730 Z-0.125000
G01 X19.638400 Y15.489730 Z-0.125000
G01 X19.638400 Y15.499730 Z-0.125000
G01 X19.638400 Y15.509730 Z-0.125000
G01 X19.638400 Y15.519730 Z-0.125000
G01 X19.638400 Y15.529730 Z-0.125000
G01 X19.638400 Y15.539730 Z-0.125000
G01 X19.638400 Y15.549730 Z-0.125000
G01 X19.638400 Y15.559730 Z-0.125000
G01 X19.638400 Y15.569730 Z-0.125000
G01 X19.638400 Y15.579730 Z-0.125000
G01 X19.638400 Y15.589730 Z-0.125000
G01 X19.638400 Y15.599730 Z-0.125000
G01 X19.638400 Y15.609730 Z-0.125000
G01 X19.638400 Y15.619730 Z-0.125000
G01 X19.638400 Y15.629730 Z-0.125000
G01 X19.638400 Y15.639730 Z-0.125000
G01 X19.638400 Y15.649730 Z-0.125000
G01 X19.638400 Y15.659730 Z-0.125000
G01 X19.638400 Y15.669730 Z-0.125000
G01 X19.638400 Y15.679730 Z-0.125000
G01 X19.638400 Y15.689730 Z-0.125000
G01 X19.638400 Y15.699730 Z-0.125000
G01 X19.638400 Y15.709730 Z-0.125000
G01 X19.638400 Y15.719730 Z-0.125000
G01 X19.638400 Y15.729730 Z-0.125000
G01 X19.638400 Y15.739730 Z-0.125000
G01 X19.638400 Y15.749730 Z-0.125000
G01 X19.638400 Y15.759730 Z-0.125000
G01 X19.638400 Y15.769730 Z-0.125000
G01 X19.638400 Y15.779730 Z-0.125000
G01 X19.638400 Y15.789730 Z-0.125000
G01 X19.638400 Y15.799730 Z-0.125000
G01 X19.638400 Y15.809730 Z-0.125000
G01 X19.638400 Y15.819730 Z-0.125000
G01 X19.638400 Y15.829730 Z-0.125000
G01 X19.638400 Y15.839730 Z-0.125000
G01 X19.638400 Y15.849730 Z-0.125000
G01 X19.638400 Y15.859730 Z-0.125000
G01 X19.638400 Y15.869730 Z-0.125000
G01 X19.638400 Y15.879730 Z-0.125000
G01 X19.638400 Y15.889730 Z-0.125000
G01 X19.638400 Y15.899730 Z-0.125000
G01 X19.638400 Y15.909730 Z-0.125000
G01 X19.638400 Y15.919730 Z-0.125000
G01 X19.638400 Y15.929730 Z-0.125000
G01 X19.638400 Y15.939730 Z-0.125000
G01 X19.638400 Y15.949730 Z-0.125000
G01 X19.638400 Y15.959730 Z-0.125000
G01 X19.638400 Y15.969730 Z-0.125000
G01 X19.638400 Y15.979730 Z-0.125000
G01 X19.638400 Y15.989730 Z-0.125000
G01 X19.638400 Y15.999730 Z-0.125000
G01 X19.638400 Y16.009730 Z-0.125000
G01 X19.638400 Y16.019730 Z-0.125000
G01 X19.638400 Y16.029730 Z-0.125000
G01 X19.638400 Y16.039730 Z-0.125000
G01 X19.638400 Y16.049730 Z-0.125000
G01 X19.638400 Y16.059730 Z-0.125000
G01 X19.638400 Y16.069730 Z-0.125000
G01 X19.638400 Y16.079730 Z-0.125000
G01 X19.638400 Y16.089730 Z-0.125000
G01 X19.638400 Y16.099730 Z-0.125000
G01 X19.638400 Y16.109730 Z-0.125000
G01 X19.638400 Y16.119730 Z-0.125000
G01 X19.638400 Y16.129730 Z-0.125000
G01 X19.638400 Y16.139730 Z-0.125000
G01 X19.638400 Y16.149730 Z-0.125000
G01 X19.638400 Y16.159730 Z-0.125000
G01 X19.638400 Y16.169730 Z-0.125000
G01 X19.638400 Y16.179730 Z-0.125000
G01 X19.638400 Y16.189730 Z-0.125000
G01 X19.638400 Y16.199730 Z-0.125000
G01 X19.638400 Y16.209730 Z-0.125000
G01 X19.638400 Y16.219730 Z-0.125000
G01 X19.638400 Y16.229730 Z-0.125000
G01 X19.638400 Y16.239730 Z-0.125000
G01 X19.638400 Y16.249730 Z-0.125000
G01 X19.638400 Y16.259730 Z-0.125000
G01 X19.638400 Y16.269730 Z-0.125000
G01 X19.638400 Y16.279730 Z-0.125000
G01 X19.638400 Y16.289730 Z-0.125000
G01 X19.638400 Y16.299730 Z-0.125000
G01 X19.638400 Y16.309730 Z-0.125000
G01 X19.638400 Y16.319730 Z-0.125000
G01 X19.638400 Y16.329730 Z-0.125000
G01 X19.638400 Y16.339730 Z-0.125000
G01 X19.638400 Y16.349730 Z-0.125000
G01 X19.638400 Y16.359730 Z-0.125000
G01 X19.638400 Y16.369730 Z-0.125000
G01 X19.638400 Y16.379730 Z-0.125000
G01 X19.638400 Y16.389730 Z-0.125000
G01 X19.638400 Y16.399730 Z-0.125000
G01 X19.638400 Y16.409730 Z-0.125000
G01 X19.638400 Y16.419730 Z-0.125000
G01 X19.638400 Y16.429730 Z-0.125000
G01 X19.638400 Y16.439730 Z-0.125000
G01 X19.638400 Y16.449730 Z-0.125000
G01 X19.638400 Y16.459730 Z-0.125000
G01 X19.638400 Y16.469730 Z-0.125000
G01 X19.638400 Y16.479730 Z-0.125000
G01 X19.638400 Y16.489730 Z-0.125000
G01 X19.638400 Y16.499730 Z-0.125000
G01 X19.638400 Y16.509730 Z-0.125000
G01 X19.638400 Y16.519730 Z-0.125000
G01 X19.638400 Y16.529730 Z-0.125000
G01 X19.638400 Y16.539730 Z-0.125000
G01 X19.638400 Y16.549730 Z-0.125000
G01 X19.638400 Y16.559730 Z-0.125000
G01 X19.638400 Y16.569730 Z-0.125000
G01 X19.638400 Y16.579730 Z-0.125000
G01 X19.638400 Y16.589730 Z-0.125000
G01 X19.638400 Y16.599730 Z-0.125000
G01 X19.638400 Y16.609730 Z-0.125000
G01 X19.638400 Y16.619730 Z-0.125000
G01 X19.638400 Y16.629730 Z-0.125000
G01 X19.638400 Y16.639730 Z-0.125000
G01 X19.638400 Y16.649730 Z-0.125000
G01 X19.638400 Y16.659730 Z-0.125000
G01 X19.638400 Y16.669730 Z-0.125000
G01 X19.638400 Y16.679730 Z-0.125000
G01 X19.638400 Y16.689730 Z-0.125000
G01 X19.638400 Y16.699730 Z-0.125000
G01 X19.638400 Y16.709730 Z-0.125000
G01 X19.638400 Y16.719730 Z-0.125000
G01 X19.638400 Y16.729730 Z-0.125000
G01 X19.638400 Y16.739730 Z-0.125000
G01 X19.638400 Y16.749730 Z-0.125000
G01 X19.638400 Y16.759730 Z-0.125000
G01 X19.638400 Y16.769730 Z-0.125000
G01 X19.638400 Y16.779730 Z-0.125000
G01 X19.638400 Y16.789730 Z-0.125000
G01 X19.638400 Y16.799730 Z-0.125000
G01 X19.638400 Y16.809730 Z-0.125000
G01 X19.638400 Y16.819730 Z-0.125000
G01 X19.638400 Y16.829730 Z-0.125000
G01 X19.638400 Y16.839730 Z-0.125000
G01 X19.638400 Y16.849730 Z-0.125000
G01 X19.638400 Y16.859730 Z-0.125000
G01 X19.638400 Y16.869730 Z-0.125000
G01 X19.638400 Y16.879730 Z-0.125000
G01 X19.638400 Y16.889730 Z-0.125000
G01 X19.638400 Y16.899730 Z-0.125000
G01 X19.638400 Y16.909730 Z-0.125000
G01 X19.638400 Y16.919730 Z-0.125000
G01 X19.638400 Y16.929730 Z-0.125000
G01 X19.638400 Y16.939730 Z-0.125000
G01 X19.638400 Y16.949730 Z-0.125000
G01 X19.638400 Y16.959730 Z-0.125000
G01 X19.638400 Y16.969730 Z-0.125000
G01 X19.638400 Y16.979730 Z-0.125000
G01 X19.638400 Y16.989730 Z-0.125000
G01 X19.638400 Y16.999730 Z-0.125000
G01 X19.638400 Y17.009730 Z-0.125000
G01 X19.638400 Y17.019730 Z-0.125000
G01 X19.638400 Y17.029730 Z-0.125000
G01 X19.638400 Y17.039730 Z-0.125000
G01 X19.638400 Y17.049730 Z-0.125000
G01 X19.638400 Y17.059730 Z-0.125000
G01 X19.638400 Y17.069730 Z-0.125000
G01 X19.638400 Y17.079730 Z-0.125000
G01 X19.638400 Y17.089730 Z-0.125000
G01 X19.638400 Y17.099730 Z-0.125000
G01 X19.638400 Y17.109730 Z-0.125000
G01 X19.638400 Y17.119730 Z-0.125000
G01 X19.638400 Y17.129730 Z-0.125000
G01 X19.638400 Y17.139730 Z-0.125000
G01 X19.638400 Y17.149730 Z-0.125000
G01 X19.638400 Y17.159730 Z-0.125000
G01 X19.638400 Y17.169730 Z-0.125000
G01 X19.638400 Y17.179730 Z-0.125000
G01 X19.638400 Y17.189730 Z-0.125000
G01 X19.638400 Y17.199730 Z-0.125000
G01 X19.638400 Y17.209730 Z-0.125000
G01 X19.638400 Y17.219730 Z-0.125000
G01 X19.638400 Y17.229730 Z-0.125000
G01 X19.638400 Y17.239730 Z-0.125000
G01 X19.638400 Y17.249730 Z-0.125000
G01 X19.638400 Y17.259730 Z-0.125000
G01 X19.638400 Y17.269730 Z-0.125000
G01 X19.638400 Y17.279730 Z-0.125000
G01 X19.638400 Y17.289730 Z-0.125000
G01 X19.638400 Y17.299730 Z-0.125000
G01 X19.638400 Y17.309730 Z-0.125000
G01 X19.638400 Y17.319730 Z-0.125000
G01 X19.638400 Y17.329730 Z-0.125000
G01 X19.638400 Y17.339730 Z-0.125000
G01 X19.638400 Y17.349730 Z-0.125000
G01 X19.638400 Y17.359730 Z-0.125000
G01 X19.638400 Y17.369730 Z-0.125000
G01 X19.638400 Y17.379730 Z-0.125000
G01 X19.638400 Y17.389730 Z-0.125000
G01 X19.638400 Y17.399730 Z-0.125000
G01 X19.638400 Y17.409730 Z-0.125000
G01 X19.638400 Y17.419730 Z-0.125000
G01 X19.638400 Y17.429730 Z-0.125000
G01 X19.638400 Y17.439730 Z-0.125000
G01 X19.638400 Y17.449730 Z-0.125000
G01 X19.638400 Y17.459730 Z-0.125000
G01 X19.638400 Y17.469730 Z-0.125000
G01 X19.638400 Y17.479730 Z-0.125000
G01 X19.638400 Y17.489730 Z-0.125000
G01 X19.638400 Y17.499730 Z-0.125000
G01 X19.638400 Y17.509730 Z-0.125000
G01 X19.638400 Y17.519730 Z-0.125000
G01 X19.638400 Y17.529730 Z-0.125000
G01 X19.638400 Y17.539730 Z-0.125000
G01 X19.638400 Y17.549730 Z-0.125000
G01 X19.638400 Y17.559730 Z-0.125000
G01 X19.638400 Y17.569730 Z-0.125000
G01 X19.638400 Y17.579730 Z-0.125000
G01 X19.638400 Y17.589730 Z-0.125000
G01 X19.638400 Y17.599730 Z-0.125000
G01 X19.638400 Y17.609730 Z-0.125000
G01 X19.638400 Y17.619730 Z-0.125000
G01 X19.638400 Y17.629730 Z-0.125000
G01 X19.638400 Y17.639730 Z-0.125000
G01 X19.638400 Y17.649730 Z-0.125000
G01 X19.638400 Y17.659730 Z-0.125000
G01 X19.638400 Y17.669730 Z-0.125000
G01 X19.638400 Y17.679730 Z-0.125000
G01 X19.638400 Y17.689730 Z-0.125000
G01 X19.638400 Y17.699730 Z-0.125000
G01 X19.638400 Y17.709730 Z-0.125000
G01 X19.638400 Y17.719730 Z-0.125000
G01 X19.638400 Y17.729730 Z-0.125000
G01 X19.638400 Y17.739730 Z-0.125000
G01 X19.638400 Y17.749730 Z-0.125000
G01 X19.638400 Y17.759730 Z-0.125000
G01 X19.638400 Y17.769730 Z-0.125000
G01 X19.638400 Y17.779730 Z-0.125000
G01 X19.638400 Y17.789730 Z-0.125000
G01 X19.638400 Y17.799730 Z-0.125000
G01 X19.638400 Y17.809730 Z-0.125000
G01 X19.638400 Y17.819730 Z-0.125000
G01 X19.638400 Y17.829730 Z-0.125000
G01 X19.638400 Y17.839730 Z-0.125000
G01 X19.638400 Y17.849730 Z-0.125000
G01 X19.638400 Y17.859730 Z-0.125000
G01 X19.638400 Y17.869730 Z-0.125000
G01 X19.638400 Y17.879730 Z-0.125000
G01 X19.638400 Y17.889730 Z-0.125000
G01 X19.638400 Y17.899730 Z-0.125000
G01 X19.638400 Y17.909730 Z-0.125000
G01 X19.638400 Y17.919730 Z-0.125000
G01 X19.648400 Y17.919730 Z-0.125000
G01 X19.658400 Y17.919730 Z-0.125000
G01 X19.668400 Y17.919730 Z-0.125000
G01 X19.678400 Y17.919730 Z-0.125000
G01 X19.688400 Y17.919730 Z-0.125000
G01 X19.698400 Y17.919730 Z-0.125000
G01 X19.708400 Y17.919730 Z-0.125000
G01 X19.718400 Y17.919730 Z-0.125000
G01 X19.728400 Y17.919730 Z-0.125000
G01 X19.738400 Y17.919730 Z-0.125000
G01 X19.748400 Y17.919730 Z-0.125000
G01 X19.758400 Y17.919730 Z-0.125000
G01 X19.768400 Y17.919730 Z-0.125000
G01 X19.778400 Y17.919730 Z-0.125000
G01 X19.788400 Y17.919730 Z-0.125000
G01 X19.798400 Y17.919730 Z-0.125000
G01 X19.808400 Y17.919730 Z-0.125000
G01 X19.818400 Y17.919730 Z-0.125000
G01 X19.828400 Y17.919730 Z-0.125000
G01 X19.838400 Y17.919730 Z-0.125000
G01 X19.848400 Y17.919730 Z-0.125000
G01 X19.858400 Y17.919730 Z-0.125000
G01 X19.868400 Y17.919730 Z-0.125000
G01 X19.878400 Y17.919730 Z-0.125000
G01 X19.888400 Y17.919730 Z-0.125000
G01 X19.898400 Y17.919730 Z-0.125000
G01 X19.908400 Y17.919730 Z-0.125000
G01 X19.918400 Y17.919730 Z-0.125000
G01 X19.928400 Y17.919730 Z-0.125000
G01 X19.938400 Y17.919730 Z-0.125000
G01 X19.948400 Y17.919730 Z-0.125000
G01 X19.958400 Y17.919730 Z-0.125000
G01 X19.968400 Y17.919730 Z-0.125000
G01 X19.978400 Y17.919730 Z-0.125000
G01 X19.988400 Y17.919730 Z-0.125000
G01 X19.998400 Y17.919730 Z-0.125000
G01 X20.008400 Y17.919730 Z-0.125000
G01 X20.018400 Y17.919730 Z-0.125000
G01 X20.028400 Y17.919730 Z-0.125000
G01 X20.038400 Y17.919730 Z-0.125000
G01 X20.048400 Y17.919730 Z-0.125000
G01 X20.058400 Y17.919730 Z-0.125000
G01 X20.068400 Y17.919730 Z-0.125000
G01 X20.078400 Y17.919730 Z-0.125000
G01 X20.088400 Y17.919730 Z-0.125000
G01 X20.098400 Y17.919730 Z-0.125000
G01 X20.108400 Y17.919730 Z-0.125000
G01 X20.118400 Y17.919730 Z-0.125000
G01 X20.128400 Y17.919730 Z-0.125000
G01 X20.138400 Y17.919730 Z-0.125000
G01 X20.148400 Y17.919730 Z-0.125000
G01 X20.158400 Y17.919730 Z-0.125000
G01 X20.168400 Y17.919730 Z-0.125000
G01 X20.178400 Y17.919730 Z-0.125000
G01 X20.188400 Y17.919730 Z-0.125000
G01 X20.198400 Y17.919730 Z-0.125000
G01 X20.208400 Y17.919730 Z-0.125000
G01 X20.218400 Y17.919730 Z-0.125000
G01 X20.228400 Y17.919730 Z-0.125000
G01 X20.238400 Y17.919730 Z-0.125000
G01 X20.248400 Y17.919730 Z-0.125000
G01 X20.258400 Y17.919730 Z-0.125000
G01 X20.268400 Y17.919730 Z-0.125000
G01 X20.278400 Y17.919730 Z-0.125000
G01 X20.288400 Y17.919730 Z-0.125000
G01 X20.298400 Y17.919730 Z-0.125000
G01 X20.308400 Y17.919730 Z-0.125000
G01 X20.318400 Y17.919730 Z-0.125000
G01 X20.328400 Y17.919730 Z-0.125000
G01 X20.338400 Y17.919730 Z-0.125000
G01 X20.348400 Y17.919730 Z-0.125000
G01 X20.358400 Y17.919730 Z-0.125000
G01 X20.368400 Y17.919730 Z-0.125000
G01 X20.378400 Y17.919730 Z-0.125000
G01 X20.388400 Y17.919730 Z-0.125000
G01 X20.398400 Y17.919730 Z-0.125000
G01 X20.408400 Y17.919730 Z-0.125000
G01 X20.418400 Y17.919730 Z-0.125000
G01 X20.428400 Y17.919730 Z-0.125000
G01 X20.438400 Y17.919730 Z-0.125000
G01 X20.448400 Y17.919730 Z-0.125000
G01 X20.458400 Y17.919730 Z-0.125000
G01 X20.468400 Y17.919730 Z-0.125000
G01 X20.478400 Y17.919730 Z-0.125000
G01 X20.488400 Y17.919730 Z-0.125000
G01 X20.498400 Y17.919730 Z-0.125000
G01 X20.508400 Y17.919730 Z-0.125000
G01 X20.508400 Y17.909730 Z-0.125000
G01 X20.508400 Y17.899730 Z-0.125000
G01 X20.508400 Y17.889730 Z-0.125000
G01 X20.508400 Y17.879730 Z-0.125000
G01 X20.508400 Y17.869730 Z-0.125000
G01 X20.508400 Y17.859730 Z-0.125000
G01 X20.508400 Y17.849730 Z-0.125000
G01 X20.508400 Y17.839730 Z-0.125000
G01 X20.508400 Y17.829730 Z-0.125000
G01 X20.508400 Y17.819730 Z-0.125000
G01 X20.508400 Y17.809730 Z-0.125000
G01 X20.508400 Y17.799730 Z-0.125000
G01 X20.508400 Y17.789730 Z-0.125000
G01 X20.508400 Y17.779730 Z-0.125000
G01 X20.508400 Y17.769730 Z-0.125000
G01 X20.508400 Y17.759730 Z-0.125000
G01 X20.508400 Y17.749730 Z-0.125000
G01 X20.508400 Y17.739730 Z-0.125000
G01 X20.508400 Y17.729730 Z-0.125000
G01 X20.508400 Y17.719730 Z-0.125000
G01 X20.508400 Y17.709730 Z-0.125000
G01 X20.508400 Y17.699730 Z-0.125000
G01 X20.508400 Y17.689730 Z-0.125000
G01 X20.508400 Y17.679730 Z-0.125000
G01 X20.508400 Y17.669730 Z-0.125000
G01 X20.508400 Y17.659730 Z-0.125000
G01 X20.508400 Y17.649730 Z-0.125000
G01 X20.508400 Y17.639730 Z-0.125000
G01 X20.508400 Y17.629730 Z-0.125000
G01 X20.508400 Y17.619730 Z-0.125000
G01 X20.508400 Y17.609730 Z-0.125000
G01 X20.508400 Y17.599730 Z-0.125000
G01 X20.508400 Y17.589730 Z-0.125000
G01 X20.508400 Y17.579730 Z-0.125000
G01 X20.508400 Y17.569730 Z-0.125000
G01 X20.508400 Y17.559730 Z-0.125000
G01 X20.508400 Y17.549730 Z-0.125000
G01 X20.508400 Y17.539730 Z-0.125000
G01 X20.508400 Y17.529730 Z-0.125000
G01 X20.508400 Y17.519730 Z-0.125000
G01 X20.508400 Y17.509730 Z-0.125000
G01 X20.508400 Y17.499730 Z-0.125000
G01 X20.508400 Y17.489730 Z-0.125000
G01 X20.508400 Y17.479730 Z-0.125000
G01 X20.508400 Y17.469730 Z-0.125000
G01 X20.508400 Y17.459730 Z-0.125000
G01 X20.508400 Y17.449730 Z-0.125000
G01 X20.508400 Y17.439730 Z-0.125000
G01 X20.508400 Y17.429730 Z-0.125000
G01 X20.508400 Y17.419730 Z-0.125000
G01 X20.508400 Y17.409730 Z-0.125000
G01 X20.508400 Y17.399730 Z-0.125000
G01 X20.508400 Y17.389730 Z-0.125000
G01 X20.508400 Y17.379730 Z-0.125000
G01 X20.508400 Y17.369730 Z-0.125000
G01 X20.508400 Y17.359730 Z-0.125000
G01 X20.508400 Y17.349730 Z-0.125000
G01 X20.508400 Y17.339730 Z-0.125000
G01 X20.508400 Y17.329730 Z-0.125000
G01 X20.508400 Y17.319730 Z-0.125000
G01 X20.508400 Y17.309730 Z-0.125000
G01 X20.508400 Y17.299730 Z-0.125000
G01 X20.508400 Y17.289730 Z-0.125000
G01 X20.508400 Y17.279730 Z-0.125000
G01 X20.508400 Y17.269730 Z-0.125000
G01 X20.508400 Y17.259730 Z-0.125000
G01 X20.508400 Y17.249730 Z-0.125000
G01 X20.508400 Y17.239730 Z-0.125000
G01 X20.508400 Y17.229730 Z-0.125000
G01 X20.508400 Y17.219730 Z-0.125000
G01 X20.508400 Y17.209730 Z-0.125000
G01 X20.508400 Y17.199730 Z-0.125000
G01 X20.508400 Y17.189730 Z-0.125000
G01 X20.508400 Y17.179730 Z-0.125000
G01 X20.508400 Y17.169730 Z-0.125000
G01 X20.508400 Y17.159730 Z-0.125000
G01 X20.508400 Y17.149730 Z-0.125000
G01 X20.508400 Y17.139730 Z-0.125000
G01 X20.508400 Y17.129730 Z-0.125000
G01 X20.508400 Y17.119730 Z-0.125000
G01 X20.508400 Y17.109730 Z-0.125000
G01 X20.508400 Y17.099730 Z-0.125000
G01 X20.508400 Y17.089730 Z-0.125000
G01 X20.508400 Y17.079730 Z-0.125000
G01 X20.508400 Y17.069730 Z-0.125000
G01 X20.508400 Y17.059730 Z-0.125000
G01 X20.508400 Y17.049730 Z-0.125000
G01 X20.508400 Y17.039730 Z-0.125000
G01 X20.508400 Y17.029730 Z-0.125000
G01 X20.508400 Y17.019730 Z-0.125000
G01 X20.508400 Y17.009730 Z-0.125000
G01 X20.508400 Y16.999730 Z-0.125000
G01 X20.508400 Y16.989730 Z-0.125000
G01 X20.508400 Y16.979730 Z-0.125000
G01 X20.508400 Y16.969730 Z-0.125000
G01 X20.508400 Y16.959730 Z-0.125000
G01 X20.508400 Y16.949730 Z-0.125000
G01 X20.508400 Y16.939730 Z-0.125000
G01 X20.508400 Y16.929730 Z-0.125000
G01 X20.508400 Y16.919730 Z-0.125000
G01 X20.508400 Y16.909730 Z-0.125000
G01 X20.508400 Y16.899730 Z-0.125000
G01 X20.508400 Y16.889730 Z-0.125000
G01 X20.508400 Y16.879730 Z-0.125000
G01 X20.508400 Y16.869730 Z-0.125000
G01 X20.508400 Y16.859730 Z-0.125000
G01 X20.508400 Y16.849730 Z-0.125000
G01 X20.508400 Y16.839730 Z-0.125000
G01 X20.508400 Y16.829730 Z-0.125000
G01 X20.508400 Y16.819730 Z-0.125000
G01 X20.508400 Y16.809730 Z-0.125000
G01 X20.508400 Y16.799730 Z-0.125000
G01 X20.508400 Y16.789730 Z-0.125000
G01 X20.508400 Y16.779730 Z-0.125000
G01 X20.508400 Y16.769730 Z-0.125000
G01 X20.508400 Y16.759730 Z-0.125000
G01 X20.508400 Y16.749730 Z-0.125000
G01 X20.508400 Y16.739730 Z-0.125000
G01 X20.508400 Y16.729730 Z-0.125000
G01 X20.508400 Y16.719730 Z-0.125000
G01 X20.508400 Y16.709730 Z-0.125000
G01 X20.508400 Y16.699730 Z-0.125000
G01 X20.508400 Y16.689730 Z-0.125000
G01 X20.508400 Y16.679730 Z-0.125000
G01 X20.508400 Y16.669730 Z-0.125000
G01 X20.508400 Y16.659730 Z-0.125000
G01 X20.508400 Y16.649730 Z-0.125000
G01 X20.508400 Y16.639730 Z-0.125000
G01 X20.508400 Y16.629730 Z-0.125000
G01 X20.508400 Y16.619730 Z-0.125000
G01 X20.508400 Y16.609730 Z-0.125000
G01 X20.508400 Y16.599730 Z-0.125000
G01 X20.508400 Y16.589730 Z-0.125000
G01 X20.508400 Y16.579730 Z-0.125000
G01 X20.508400 Y16.569730 Z-0.125000
G01 X20.508400 Y16.559730 Z-0.125000
G01 X20.508400 Y16.549730 Z-0.125000
G01 X20.508400 Y16.539730 Z-0.125000
G01 X20.508400 Y16.529730 Z-0.125000
G01 X20.508400 Y16.519730 Z-0.125000
G01 X20.508400 Y16.509730 Z-0.125000
G01 X20.508400 Y16.499730 Z-0.125000
G01 X20.508400 Y16.489730 Z-0.125000
G01 X20.508400 Y16.479730 Z-0.125000
G01 X20.508400 Y16.469730 Z-0.125000
G01 X20.508400 Y16.459730 Z-0.125000
G01 X20.508400 Y16.449730 Z-0.125000
G01 X20.508400 Y16.439730 Z-0.125000
G01 X20.508400 Y16.429730 Z-0.125000
G01 X20.508400 Y16.419730 Z-0.125000
G01 X20.508400 Y16.409730 Z-0.125000
G01 X20.508400 Y16.399730 Z-0.125000
G01 X20.508400 Y16.389730 Z-0.125000
G01 X20.508400 Y16.379730 Z-0.125000
G01 X20.508400 Y16.369730 Z-0.125000
G01 X20.508400 Y16.359730 Z-0.125000
G01 X20.508400 Y16.349730 Z-0.125000
G01 X20.508400 Y16.339730 Z-0.125000
G01 X20.508400 Y16.329730 Z-0.125000
G01 X20.508400 Y16.319730 Z-0.125000
G01 X20.508400 Y16.309730 Z-0.125000
G01 X20.508400 Y16.299730 Z-0.125000
G01 X20.508400 Y16.289730 Z-0.125000
G01 X20.508400 Y16.279730 Z-0.125000
G01 X20.508400 Y16.269730 Z-0.125000
G01 X20.508400 Y16.259730 Z-0.125000
G01 X20.508400 Y16.249730 Z-0.125000
G01 X20.508400 Y16.239730 Z-0.125000
G01 X20.508400 Y16.229730 Z-0.125000
G01 X20.508400 Y16.219730 Z-0.125000
G01 X20.508400 Y16.209730 Z-0.125000
G01 X20.508400 Y16.199730 Z-0.125000
G01 X20.508400 Y16.189730 Z-0.125000
G01 X20.508400 Y16.179730 Z-0.125000
G01 X20.508400 Y16.169730 Z-0.125000
G01 X20.508400 Y16.159730 Z-0.125000
G01 X20.508400 Y16.149730 Z-0.125000
G01 X20.508400 Y16.139730 Z-0.125000
G01 X20.508400 Y16.129730 Z-0.125000
G01 X20.508400 Y16.119730 Z-0.125000
G01 X20.508400 Y16.109730 Z-0.125000
G01 X20.508400 Y16.099730 Z-0.125000
G01 X20.508400 Y16.089730 Z-0.125000
G01 X20.508400 Y16.079730 Z-0.125000
G01 X20.508400 Y16.069730 Z-0.125000
G01 X20.508400 Y16.059730 Z-0.125000
G01 X20.508400 Y16.049730 Z-0.125000
G01 X20.508400 Y16.039730 Z-0.125000
G01 X20.508400 Y16.029730 Z-0.125000
G01 X20.508400 Y16.019730 Z-0.125000
G01 X20.508400 Y16.009730 Z-0.125000
G01 X20.508400 Y15.999730 Z-0.125000
G01 X20.508400 Y15.989730 Z-0.125000
G01 X20.508400 Y15.979730 Z-0.125000
G01 X20.508400 Y15.969730 Z-0.125000
G01 X20.508400 Y15.959730 Z-0.125000
G01 X20.508400 Y15.949730 Z-0.125000
G01 X20.508400 Y15.939730 Z-0.125000
G01 X20.508400 Y15.929730 Z-0.125000
G01 X20.508400 Y15.919730 Z-0.125000
G01 X20.508400 Y15.909730 Z-0.125000
G01 X20.508400 Y15.899730 Z-0.125000
G01 X20.508400 Y15.889730 Z-0.125000
G01 X20.508400 Y15.879730 Z-0.125000
G01 X20.508400 Y15.869730 Z-0.125000
G01 X20.508400 Y15.859730 Z-0.125000
G01 X20.508400 Y15.849730 Z-0.125000
G01 X20.508400 Y15.839730 Z-0.125000
G01 X20.508400 Y15.829730 Z-0.125000
G01 X20.508400 Y15.819730 Z-0.125000
G01 X20.508400 Y15.809730 Z-0.125000
G01 X20.508400 Y15.799730 Z-0.125000
G01 X20.508400 Y15.789730 Z-0.125000
G01 X20.508400 Y15.779730 Z-0.125000
G01 X20.508400 Y15.769730 Z-0.125000
G01 X20.508400 Y15.759730 Z-0.125000
G01 X20.508400 Y15.749730 Z-0.125000
G01 X20.508400 Y15.739730 Z-0.125000
G01 X20.508400 Y15.729730 Z-0.125000
G01 X20.508400 Y15.719730 Z-0.125000
G01 X20.508400 Y15.709730 Z-0.125000
G01 X20.508400 Y15.699730 Z-0.125000
G01 X20.508400 Y15.689730 Z-0.125000
G01 X20.508400 Y15.679730 Z-0.125000
G01 X20.508400 Y15.669730 Z-0.125000
G01 X20.508400 Y15.659730 Z-0.125000
G01 X20.508400 Y15.649730 Z-0.125000
G01 X20.508400 Y15.639730 Z-0.125000
G01 X20.508400 Y15.629730 Z-0.125000
G01 X20.508400 Y15.619730 Z-0.125000
G01 X20.508400 Y15.609730 Z-0.125000
G01 X20.508400 Y15.599730 Z-0.125000
G01 X20.508400 Y15.589730 Z-0.125000
G01 X20.508400 Y15.579730 Z-0.125000
G01 X20.508400 Y15.569730 Z-0.125000
G01 X20.508400 Y15.559730 Z-0.125000
G01 X20.508400 Y15.549730 Z-0.125000
G01 X20.508400 Y15.539730 Z-0.125000
G01 X20.508400 Y15.529730 Z-0.125000
G01 X20.508400 Y15.519730 Z-0.125000
G01 X20.508400 Y15.509730 Z-0.125000
G01 X20.508400 Y15.499730 Z-0.125000
G01 X20.508400 Y15.489730 Z-0.125000
G01 X20.508400 Y15.479730 Z-0.125000
G01 X20.508400 Y15.469730 Z-0.125000
G01 X20.508400 Y15.459730 Z-0.125000
G01 X20.508400 Y15.449730 Z-0.125000
G01 X20.508400 Y15.439730 Z-0.125000
G01 X20.508400 Y15.429730 Z-0.125000
G01 X20.508400 Y15.419730 Z-0.125000
G01 X20.508400 Y15.409730 Z-0.125000
G01 X20.508400 Y15.399730 Z-0.125000
G01 X20.508400 Y15.389730 Z-0.125000
G01 X20.508400 Y15.379730 Z-0.125000
G01 X20.508400 Y15.369730 Z-0.125000
G01 X20.508400 Y15.359730 Z-0.125000
G01 X20.508400 Y15.349730 Z-0.125000
G01 X20.508400 Y15.339730 Z-0.125000
G01 X20.508400 Y15.329730 Z-0.125000
G01 X20.508400 Y15.319730 Z-0.125000
G01 X20.508400 Y15.309730 Z-0.125000
G01 X20.508400 Y15.299730 Z-0.125000
G01 X20.508400 Y15.289730 Z-0.125000
G01 X20.508400 Y15.279730 Z-0.125000
G01 X20.508400 Y15.269730 Z-0.125000
G01 X20.508400 Y15.259730 Z-0.125000
G01 X20.508400 Y15.249730 Z-0.125000
G01 X20.508400 Y15.239730 Z-0.125000
G01 X20.508400 Y15.229730 Z-0.125000
G01 X20.508400 Y15.219730 Z-0.125000
G01 X20.508400 Y15.209730 Z-0.125000
G01 X20.508400 Y15.199730 Z-0.125000
G01 X20.508400 Y15.189730 Z-0.125000
G01 X20.508400 Y15.179730 Z-0.125000
G01 X20.508400 Y15.169730 Z-0.125000
G01 X20.508400 Y15.159730 Z-0.125000
G01 X20.508400 Y15.149730 Z-0.125000
G01 X20.508400 Y15.139730 Z-0.125000
G01 X20.508400 Y15.129730 Z-0.125000
G01 X20.508400 Y15.119730 Z-0.125000
G01 X20.508400 Y15.109730 Z-0.125000
G01 X20.508400 Y15.099730 Z-0.125000
G01 X20.508400 Y15.089730 Z-0.125000
G01 X20.508400 Y15.079730 Z-0.125000
G01 X20.508400 Y15.069730 Z-0.125000
G01 X20.508400 Y15.059730 Z-0.125000
G01 X20.508400 Y15.049730 Z-0.125000
G01 X20.508400 Y15.039730 Z-0.125000
G01 X20.508400 Y15.029730 Z-0.125000
G01 X20.508400 Y15.019730 Z-0.125000
G01 X20.508400 Y15.009730 Z-0.125000
G01 X20.508400 Y14.999730 Z-0.125000
G01 X20.508400 Y14.989730 Z-0.125000
G01 X20.508400 Y14.979730 Z-0.125000
G01 X20.508400 Y14.969730 Z-0.125000
G01 X20.508400 Y14.959730 Z-0.125000
G01 X20.508400 Y14.949730 Z-0.125000
G01 X20.508400 Y14.939730 Z-0.125000
G01 X20.508400 Y14.929730 Z-0.125000
G01 X20.508400 Y14.919730 Z-0.125000
G01 X20.508400 Y14.909730 Z-0.125000
G01 X20.508400 Y14.899730 Z-0.125000
G01 X20.508400 Y14.889730 Z-0.125000
G01 X20.508400 Y14.879730 Z-0.125000
G01 X20.508400 Y14.869730 Z-0.125000
G01 X20.508400 Y14.859730 Z-0.125000
G01 X20.508400 Y14.849730 Z-0.125000
G01 X20.508400 Y14.839730 Z-0.125000
G01 X20.508400 Y14.829730 Z-0.125000
G01 X20.508400 Y14.819730 Z-0.125000
G01 X20.508400 Y14.809730 Z-0.125000
G01 X20.508400 Y14.799730 Z-0.125000
G01 X20.508400 Y14.789730 Z-0.125000
G01 X20.508400 Y14.779730 Z-0.125000
G01 X20.508400 Y14.769730 Z-0.125000
G01 X20.508400 Y14.759730 Z-0.125000
G01 X20.508400 Y14.749730 Z-0.125000
G01 X20.508400 Y14.739730 Z-0.125000
G01 X20.508400 Y14.729730 Z-0.125000
G01 X20.508400 Y14.719730 Z-0.125000
G01 X20.508400 Y14.709730 Z-0.125000
G01 X20.508400 Y14.699730 Z-0.125000
G01 X20.508400 Y14.689730 Z-0.125000
G01 X20.508400 Y14.679730 Z-0.125000
G01 X20.508400 Y14.669730 Z-0.125000
G01 X20.508400 Y14.659730 Z-0.125000
G01 X20.508400 Y14.649730 Z-0.125000
G01 X20.508400 Y14.639730 Z-0.125000
G01 X20.508400 Y14.629730 Z-0.125000
G01 X20.508400 Y14.619730 Z-0.125000
G01 X20.508400 Y14.609730 Z-0.125000
G01 X20.508400 Y14.599730 Z-0.125000
G01 X20.508400 Y14.589730 Z-0.125000
G01 X20.508400 Y14.579730 Z-0.125000
G01 X20.508400 Y14.569730 Z-0.125000
G01 X20.508400 Y14.559730 Z-0.125000
G01 X20.508400 Y14.549730 Z-0.125000
G01 X20.508400 Y14.539730 Z-0.125000
G01 X20.508400 Y14.529730 Z-0.125000
G01 X20.508400 Y14.519730 Z-0.125000
G01 X20.508400 Y14.509730 Z-0.125000
G01 X20.508400 Y14.499730 Z-0.125000
G01 X20.508400 Y14.489730 Z-0.125000
G01 X20.508400 Y14.479730 Z-0.125000
G01 X20.508400 Y14.469730 Z-0.125000
G01 X20.508400 Y14.459730 Z-0.125000
G01 X20.508400 Y14.449730 Z-0.125000
G01 X20.508400 Y14.439730 Z-0.125000
G01 X20.508400 Y14.429730 Z-0.125000
G01 X20.508400 Y14.419730 Z-0.125000
G01 X20.508400 Y14.409730 Z-0.125000
G01 X20.508400 Y14.399730 Z-0.125000
G01 X20.508400 Y14.389730 Z-0.125000
G01 X20.508400 Y14.379730 Z-0.125000
G01 X20.508400 Y14.369730 Z-0.125000
G01 X20.508400 Y14.359730 Z-0.125000
G01 X20.508400 Y14.349730 Z-0.125000
G01 X20.508400 Y14.339730 Z-0.125000
G01 X20.508400 Y14.329730 Z-0.125000
G01 X20.508400 Y14.319730 Z-0.125000
G01 X20.508400 Y14.309730 Z-0.125000
G01 X20.508400 Y14.299730 Z-0.125000
G01 X20.508400 Y14.289730 Z-0.125000
G01 X20.508400 Y14.279730 Z-0.125000
G01 X20.508400 Y14.269730 Z-0.125000
G01 X20.508400 Y14.259730 Z-0.125000
G01 X20.508400 Y14.249730 Z-0.125000
G01 X20.508400 Y14.239730 Z-0.125000
G01 X20.508400 Y14.229730 Z-0.125000
G01 X20.508400 Y14.219730 Z-0.125000
G01 X20.508400 Y14.209730 Z-0.125000
G01 X20.508400 Y14.199730 Z-0.125000
G01 X20.508400 Y14.189730 Z-0.125000
G01 X20.508400 Y14.179730 Z-0.125000
G01 X20.508400 Y14.169730 Z-0.125000
G01 X20.508400 Y14.159730 Z-0.125000
G00 Z5.000000

(End cutting path id: path18706)


(Start cutting path id: path18704)
(Change tool to Default tool)

G00 Z5.000000
G00 X19.027700 Y15.353460

G01 Z-0.125000 F100.0(Penetrate)
G01 X19.017700 Y15.353460 Z-0.125000 F400.000000
G01 X19.007700 Y15.353460 Z-0.125000
G01 X18.997700 Y15.353460 Z-0.125000
G01 X18.987700 Y15.353460 Z-0.125000
G01 X18.977700 Y15.353460 Z-0.125000
G01 X18.967700 Y15.353460 Z-0.125000
G01 X18.957700 Y15.353460 Z-0.125000
G01 X18.947700 Y15.353460 Z-0.125000
G01 X18.937700 Y15.353460 Z-0.125000
G01 X18.927700 Y15.353460 Z-0.125000
G01 X18.917700 Y15.353460 Z-0.125000
G01 X18.907700 Y15.353460 Z-0.125000
G01 X18.897700 Y15.353460 Z-0.125000
G01 X18.887700 Y15.353460 Z-0.125000
G01 X18.877700 Y15.353460 Z-0.125000
G01 X18.867700 Y15.353460 Z-0.125000
G01 X18.857700 Y15.353460 Z-0.125000
G01 X18.847700 Y15.353460 Z-0.125000
G01 X18.837700 Y15.353460 Z-0.125000
G01 X18.827700 Y15.353460 Z-0.125000
G01 X18.817700 Y15.353460 Z-0.125000
G01 X18.807700 Y15.353460 Z-0.125000
G01 X18.797700 Y15.353460 Z-0.125000
G01 X18.787700 Y15.353460 Z-0.125000
G01 X18.777700 Y15.353460 Z-0.125000
G01 X18.767700 Y15.353460 Z-0.125000
G01 X18.757700 Y15.353460 Z-0.125000
G01 X18.747700 Y15.353460 Z-0.125000
G01 X18.737700 Y15.353460 Z-0.125000
G01 X18.727700 Y15.353460 Z-0.125000
G01 X18.717700 Y15.353460 Z-0.125000
G01 X18.707700 Y15.353460 Z-0.125000
G01 X18.697700 Y15.353460 Z-0.125000
G01 X18.687700 Y15.353460 Z-0.125000
G01 X18.677700 Y15.353460 Z-0.125000
G01 X18.667700 Y15.353460 Z-0.125000
G01 X18.657700 Y15.353460 Z-0.125000
G01 X18.647700 Y15.353460 Z-0.125000
G01 X18.637700 Y15.353460 Z-0.125000
G01 X18.627700 Y15.353460 Z-0.125000
G01 X18.617700 Y15.353460 Z-0.125000
G01 X18.607700 Y15.353460 Z-0.125000
G01 X18.597700 Y15.353460 Z-0.125000
G01 X18.587700 Y15.353460 Z-0.125000
G01 X18.577700 Y15.353460 Z-0.125000
G01 X18.567700 Y15.353460 Z-0.125000
G01 X18.557700 Y15.353460 Z-0.125000
G01 X18.547700 Y15.353460 Z-0.125000
G01 X18.537700 Y15.353460 Z-0.125000
G01 X18.527700 Y15.353460 Z-0.125000
G01 X18.517700 Y15.353460 Z-0.125000
G01 X18.507700 Y15.353460 Z-0.125000
G01 X18.497700 Y15.353460 Z-0.125000
G01 X18.487700 Y15.353460 Z-0.125000
G01 X18.477700 Y15.353460 Z-0.125000
G01 X18.467700 Y15.353460 Z-0.125000
G01 X18.457700 Y15.353460 Z-0.125000
G01 X18.447700 Y15.353460 Z-0.125000
G01 X18.437700 Y15.353460 Z-0.125000
G01 X18.427700 Y15.353460 Z-0.125000
G01 X18.417700 Y15.353460 Z-0.125000
G01 X18.407700 Y15.353460 Z-0.125000
G01 X18.397700 Y15.353460 Z-0.125000
G01 X18.387700 Y15.353460 Z-0.125000
G01 X18.377700 Y15.353460 Z-0.125000
G01 X18.367700 Y15.353460 Z-0.125000
G01 X18.357700 Y15.353460 Z-0.125000
G01 X18.347700 Y15.353460 Z-0.125000
G01 X18.337700 Y15.353460 Z-0.125000
G01 X18.327700 Y15.353460 Z-0.125000
G01 X18.317700 Y15.353460 Z-0.125000
G01 X18.307700 Y15.353460 Z-0.125000
G01 X18.297700 Y15.353460 Z-0.125000
G01 X18.287700 Y15.353460 Z-0.125000
G01 X18.277700 Y15.353460 Z-0.125000
G01 X18.267700 Y15.353460 Z-0.125000
G01 X18.257700 Y15.353460 Z-0.125000
G01 X18.247700 Y15.353460 Z-0.125000
G01 X18.237700 Y15.353460 Z-0.125000
G01 X18.227700 Y15.353460 Z-0.125000
G01 X18.217700 Y15.353460 Z-0.125000
G01 X18.207700 Y15.353460 Z-0.125000
G01 X18.197700 Y15.353460 Z-0.125000
G01 X18.187700 Y15.353460 Z-0.125000
G01 X18.177700 Y15.353460 Z-0.125000
G01 X18.167700 Y15.353460 Z-0.125000
G01 X18.157700 Y15.353460 Z-0.125000
G01 X18.147700 Y15.353460 Z-0.125000
G01 X18.137700 Y15.353460 Z-0.125000
G01 X18.127700 Y15.353460 Z-0.125000
G01 X18.117700 Y15.353460 Z-0.125000
G01 X18.107700 Y15.353460 Z-0.125000
G01 X18.097700 Y15.353460 Z-0.125000
G01 X18.087700 Y15.353460 Z-0.125000
G01 X18.077700 Y15.353460 Z-0.125000
G01 X18.067700 Y15.353460 Z-0.125000
G01 X18.057700 Y15.353460 Z-0.125000
G01 X18.047700 Y15.353460 Z-0.125000
G01 X18.037700 Y15.353460 Z-0.125000
G01 X18.027700 Y15.353460 Z-0.125000
G01 X18.017700 Y15.353460 Z-0.125000
G01 X18.007700 Y15.353460 Z-0.125000
G01 X17.997700 Y15.353460 Z-0.125000
G01 X17.987700 Y15.353460 Z-0.125000
G01 X17.977700 Y15.353460 Z-0.125000
G01 X17.967700 Y15.353460 Z-0.125000
G01 X17.957700 Y15.353460 Z-0.125000
G01 X17.947700 Y15.353460 Z-0.125000
G01 X17.937700 Y15.353460 Z-0.125000
G01 X17.927700 Y15.353460 Z-0.125000
G01 X17.917700 Y15.353460 Z-0.125000
G01 X17.907700 Y15.353460 Z-0.125000
G01 X17.897700 Y15.353460 Z-0.125000
G01 X17.887700 Y15.353460 Z-0.125000
G01 X17.877700 Y15.353460 Z-0.125000
G01 X17.867700 Y15.353460 Z-0.125000
G01 X17.857700 Y15.353460 Z-0.125000
G01 X17.847700 Y15.353460 Z-0.125000
G01 X17.837700 Y15.353460 Z-0.125000
G01 X17.827700 Y15.353460 Z-0.125000
G01 X17.817700 Y15.353460 Z-0.125000
G01 X17.807700 Y15.353460 Z-0.125000
G01 X17.797700 Y15.353460 Z-0.125000
G01 X17.787700 Y15.353460 Z-0.125000
G01 X17.777700 Y15.353460 Z-0.125000
G01 X17.767700 Y15.353460 Z-0.125000
G01 X17.757700 Y15.353460 Z-0.125000
G01 X17.747700 Y15.353460 Z-0.125000
G01 X17.737700 Y15.353460 Z-0.125000
G01 X17.727700 Y15.353460 Z-0.125000
G01 X17.717700 Y15.353460 Z-0.125000
G01 X17.707700 Y15.353460 Z-0.125000
G01 X17.697700 Y15.353460 Z-0.125000
G01 X17.687700 Y15.353460 Z-0.125000
G01 X17.677700 Y15.353460 Z-0.125000
G01 X17.667700 Y15.353460 Z-0.125000
G01 X17.657700 Y15.353460 Z-0.125000
G01 X17.647700 Y15.353460 Z-0.125000
G01 X17.637700 Y15.353460 Z-0.125000
G01 X17.627700 Y15.353460 Z-0.125000
G01 X17.617700 Y15.353460 Z-0.125000
G01 X17.607700 Y15.353460 Z-0.125000
G01 X17.597700 Y15.353460 Z-0.125000
G01 X17.587700 Y15.353460 Z-0.125000
G01 X17.577700 Y15.353460 Z-0.125000
G01 X17.567700 Y15.353460 Z-0.125000
G01 X17.557700 Y15.353460 Z-0.125000
G01 X17.547700 Y15.353460 Z-0.125000
G01 X17.537700 Y15.353460 Z-0.125000
G01 X17.527700 Y15.353460 Z-0.125000
G01 X17.517700 Y15.353460 Z-0.125000
G01 X17.507700 Y15.353460 Z-0.125000
G01 X17.497700 Y15.353460 Z-0.125000
G01 X17.487700 Y15.353460 Z-0.125000
G01 X17.477700 Y15.353460 Z-0.125000
G01 X17.467700 Y15.353460 Z-0.125000
G01 X17.457700 Y15.353460 Z-0.125000
G01 X17.447700 Y15.353460 Z-0.125000
G01 X17.437700 Y15.353460 Z-0.125000
G01 X17.427700 Y15.353460 Z-0.125000
G01 X17.417700 Y15.353460 Z-0.125000
G01 X17.407700 Y15.353460 Z-0.125000
G01 X17.397700 Y15.353460 Z-0.125000
G01 X17.387700 Y15.353460 Z-0.125000
G01 X17.377700 Y15.353460 Z-0.125000
G01 X17.367700 Y15.353460 Z-0.125000
G01 X17.357700 Y15.353460 Z-0.125000
G01 X17.347700 Y15.353460 Z-0.125000
G01 X17.337700 Y15.353460 Z-0.125000
G01 X17.327700 Y15.353460 Z-0.125000
G01 X17.317700 Y15.353460 Z-0.125000
G01 X17.307700 Y15.353460 Z-0.125000
G01 X17.297700 Y15.353460 Z-0.125000
G01 X17.287700 Y15.353460 Z-0.125000
G01 X17.277700 Y15.353460 Z-0.125000
G01 X17.267700 Y15.353460 Z-0.125000
G01 X17.257700 Y15.353460 Z-0.125000
G01 X17.247700 Y15.353460 Z-0.125000
G01 X17.237700 Y15.353460 Z-0.125000
G01 X17.227700 Y15.353460 Z-0.125000
G01 X17.217700 Y15.353460 Z-0.125000
G01 X17.207700 Y15.353460 Z-0.125000
G01 X17.197700 Y15.353460 Z-0.125000
G01 X17.187700 Y15.353460 Z-0.125000
G01 X17.177700 Y15.353460 Z-0.125000
G01 X17.167700 Y15.353460 Z-0.125000
G01 X17.157700 Y15.353460 Z-0.125000
G01 X17.147700 Y15.353460 Z-0.125000
G01 X17.137700 Y15.353460 Z-0.125000
G01 X17.127700 Y15.353460 Z-0.125000
G01 X17.117700 Y15.353460 Z-0.125000
G01 X17.107700 Y15.353460 Z-0.125000
G01 X17.097700 Y15.353460 Z-0.125000
G01 X17.087700 Y15.353460 Z-0.125000
G01 X17.077700 Y15.353460 Z-0.125000
G01 X17.067700 Y15.353460 Z-0.125000
G01 X17.057700 Y15.353460 Z-0.125000
G01 X17.047700 Y15.353460 Z-0.125000
G01 X17.037700 Y15.353460 Z-0.125000
G03 X17.037722 Y15.353085 Z-0.125000 I0.356729 J0.020512
G03 X17.037743 Y15.352721 Z-0.125000 I0.359083 J0.021026
G03 X17.037765 Y15.352357 Z-0.125000 I0.361560 J0.021539
G03 X17.037787 Y15.352003 Z-0.125000 I0.369458 J0.022382
G03 X17.037809 Y15.351648 Z-0.125000 I0.375055 J0.023083
G03 X17.037831 Y15.351302 Z-0.125000 I0.390120 J0.024380
G03 X17.037853 Y15.350955 Z-0.125000 I0.399904 J0.025348
G03 X17.037875 Y15.350615 Z-0.125000 I0.424987 J0.027308
G03 X17.037897 Y15.350274 Z-0.125000 I0.440866 J0.028683
G03 X17.037919 Y15.349939 Z-0.125000 I0.481214 J0.031681
G03 X17.037942 Y15.349603 Z-0.125000 I0.506832 J0.033722
G03 X17.037964 Y15.349271 Z-0.125000 I0.572992 J0.038506
G03 X17.037987 Y15.348939 Z-0.125000 I0.616101 J0.041761
G03 X17.038009 Y15.348608 Z-0.125000 I0.732361 J0.050039
G03 X17.038032 Y15.348278 Z-0.125000 I0.812503 J0.055885
G03 X17.038055 Y15.347948 Z-0.125000 I1.048998 J0.072573
G03 X17.038078 Y15.347617 Z-0.125000 I1.232302 J0.085646
G03 X17.038101 Y15.347285 Z-0.125000 I1.902345 J0.132739
G03 X17.038124 Y15.346954 Z-0.125000 I2.613361 J0.182105
G03 X17.038148 Y15.346619 Z-0.125000 I9.967093 J0.708461
G02 X17.038171 Y15.346285 Z-0.125000 I-26.265879 J-1.863890
G02 X17.038195 Y15.345946 Z-0.125000 I-3.270534 J-0.228910
G02 X17.038219 Y15.345607 Z-0.125000 I-2.302539 J-0.161143
G02 X17.038243 Y15.345262 Z-0.125000 I-1.475300 J-0.103049
G02 X17.038267 Y15.344917 Z-0.125000 I-1.262174 J-0.087873
G02 X17.038291 Y15.344564 Z-0.125000 I-0.995616 J-0.069023
G02 X17.038315 Y15.344212 Z-0.125000 I-0.907608 J-0.062607
G02 X17.038340 Y15.343850 Z-0.125000 I-0.782530 J-0.053672
G02 X17.038365 Y15.343488 Z-0.125000 I-0.737136 J-0.050216
G02 X17.038390 Y15.343116 Z-0.125000 I-0.669019 J-0.045248
G02 X17.038415 Y15.342744 Z-0.125000 I-0.643356 J-0.043152
G02 X17.038440 Y15.342360 Z-0.125000 I-0.604275 J-0.040180
G03 X17.038466 Y15.341985 Z-0.125000 I0.311064 J0.020997
G03 X17.038491 Y15.341621 Z-0.125000 I0.312928 J0.021502
G03 X17.038516 Y15.341257 Z-0.125000 I0.314938 J0.022008
G03 X17.038542 Y15.340903 Z-0.125000 I0.321405 J0.022833
G03 X17.038568 Y15.340549 Z-0.125000 I0.325998 J0.023520
G03 X17.038593 Y15.340202 Z-0.125000 I0.338385 J0.024784
G03 X17.038619 Y15.339856 Z-0.125000 I0.346424 J0.025729
G03 X17.038645 Y15.339516 Z-0.125000 I0.367015 J0.027627
G03 X17.038671 Y15.339177 Z-0.125000 I0.380021 J0.028960
G03 X17.038697 Y15.338842 Z-0.125000 I0.412978 J0.031843
G03 X17.038723 Y15.338507 Z-0.125000 I0.433821 J0.033804
G03 X17.038749 Y15.338176 Z-0.125000 I0.487368 J0.038355
G03 X17.038775 Y15.337845 Z-0.125000 I0.522030 J0.041439
G03 X17.038802 Y15.337517 Z-0.125000 I0.614656 J0.049184
G03 X17.038828 Y15.337188 Z-0.125000 I0.677779 J0.054600
G03 X17.038855 Y15.336860 Z-0.125000 I0.860753 J0.069759
G03 X17.038882 Y15.336532 Z-0.125000 I0.999274 J0.081381
G03 X17.038909 Y15.336203 Z-0.125000 I1.482838 J0.121209
G03 X17.038936 Y15.335875 Z-0.125000 I1.959971 J0.160949
G03 X17.038963 Y15.335544 Z-0.125000 I5.430461 J0.444089
G01 X17.039018 Y15.334878 Z-0.125000
G02 X17.039045 Y15.334543 Z-0.125000 I-2.266283 J-0.186198
G02 X17.039073 Y15.334204 Z-0.125000 I-1.369247 J-0.112212
G02 X17.039101 Y15.333864 Z-0.125000 I-1.153010 J-0.094220
G02 X17.039129 Y15.333518 Z-0.125000 I-0.890171 J-0.072489
G02 X17.039157 Y15.333171 Z-0.125000 I-0.805103 J-0.065242
G02 X17.039185 Y15.332817 Z-0.125000 I-0.685407 J-0.055246
G02 X17.039213 Y15.332463 Z-0.125000 I-0.642241 J-0.051432
G02 X17.039242 Y15.332099 Z-0.125000 I-0.577536 J-0.045930
G02 X17.039271 Y15.331735 Z-0.125000 I-0.553107 J-0.043636
G02 X17.039300 Y15.331360 Z-0.125000 I-0.515632 J-0.040339
G03 X17.039329 Y15.330985 Z-0.125000 I0.247691 J0.019196
G03 X17.039358 Y15.330621 Z-0.125000 I0.249432 J0.019711
G03 X17.039388 Y15.330257 Z-0.125000 I0.251136 J0.020214
G03 X17.039417 Y15.329903 Z-0.125000 I0.256463 J0.021017
G03 X17.039447 Y15.329549 Z-0.125000 I0.260186 J0.021684
G03 X17.039476 Y15.329203 Z-0.125000 I0.270152 J0.022885
G03 X17.039506 Y15.328857 Z-0.125000 I0.276582 J0.023786
G03 X17.039536 Y15.328518 Z-0.125000 I0.293008 J0.025568
G03 X17.039566 Y15.328179 Z-0.125000 I0.303356 J0.026825
G03 X17.039596 Y15.327845 Z-0.125000 I0.329560 J0.029514
G03 X17.039627 Y15.327511 Z-0.125000 I0.346116 J0.031350
G03 X17.039657 Y15.327182 Z-0.125000 I0.388668 J0.035582
G03 X17.039688 Y15.326852 Z-0.125000 I0.416225 J0.038460
G03 X17.039718 Y15.326525 Z-0.125000 I0.489987 J0.045668
G03 X17.039749 Y15.326198 Z-0.125000 I0.540358 J0.050727
G03 X17.039780 Y15.325873 Z-0.125000 I0.686968 J0.064908
G03 X17.039811 Y15.325547 Z-0.125000 I0.798566 J0.075838
G03 X17.039842 Y15.325221 Z-0.125000 I1.192614 J0.113740
G03 X17.039873 Y15.324895 Z-0.125000 I1.588484 J0.151959
G03 X17.039905 Y15.324568 Z-0.125000 I4.701755 J0.450542
G03 X17.039936 Y15.324241 Z-0.125000 I162.084697 J23.297306
G02 X17.039968 Y15.323911 Z-0.125000 I-2.511220 J-0.242726
G02 X17.039999 Y15.323580 Z-0.125000 I-1.681335 J-0.161078
G02 X17.040031 Y15.323246 Z-0.125000 I-1.028515 J-0.098322
G02 X17.040063 Y15.322911 Z-0.125000 I-0.867855 J-0.082682
G02 X17.040095 Y15.322571 Z-0.125000 I-0.670639 J-0.063632
G02 X17.040127 Y15.322231 Z-0.125000 I-0.606311 J-0.057218
G02 X17.040160 Y15.321884 Z-0.125000 I-0.515257 J-0.048334
G02 X17.040192 Y15.321537 Z-0.125000 I-0.482234 J-0.044908
G02 X17.040225 Y15.321181 Z-0.125000 I-0.432437 J-0.039957
G02 X17.040257 Y15.320825 Z-0.125000 I-0.413513 J-0.037865
G02 X17.040290 Y15.320460 Z-0.125000 I-0.384241 J-0.034851
G03 X17.040323 Y15.320085 Z-0.125000 I0.227380 J0.019896
G03 X17.040356 Y15.319721 Z-0.125000 I0.239647 J0.021367
G03 X17.040389 Y15.319357 Z-0.125000 I0.247544 J0.022450
G03 X17.040422 Y15.319003 Z-0.125000 I0.268021 J0.024705
G03 X17.040455 Y15.318649 Z-0.125000 I0.281259 J0.026300
G03 X17.040488 Y15.318304 Z-0.125000 I0.316277 J0.029976
G03 X17.040522 Y15.317958 Z-0.125000 I0.339676 J0.032568
G03 X17.040555 Y15.317619 Z-0.125000 I0.405138 J0.039261
G03 X17.040588 Y15.317281 Z-0.125000 I0.452280 J0.044211
G03 X17.040621 Y15.316948 Z-0.125000 I0.601944 J0.059295
G03 X17.040654 Y15.316615 Z-0.125000 I0.730012 J0.072316
G03 X17.040686 Y15.316287 Z-0.125000 I1.317187 J0.131102
G01 X17.040752 Y15.315633 Z-0.125000
G02 X17.040784 Y15.315308 Z-0.125000 I-1.830155 J-0.182744
G02 X17.040816 Y15.314985 Z-0.125000 I-0.818669 J-0.081601
G02 X17.040848 Y15.314662 Z-0.125000 I-0.640853 J-0.063621
G02 X17.040880 Y15.314339 Z-0.125000 I-0.447826 J-0.044230
G02 X17.040912 Y15.314016 Z-0.125000 I-0.389940 J-0.038229
G02 X17.040943 Y15.313692 Z-0.125000 I-0.311504 J-0.030279
G02 X17.040974 Y15.313369 Z-0.125000 I-0.283905 J-0.027299
G02 X17.041004 Y15.313043 Z-0.125000 I-0.242819 J-0.023069
G02 X17.041035 Y15.312717 Z-0.125000 I-0.227263 J-0.021283
G02 X17.041065 Y15.312388 Z-0.125000 I-0.202972 J-0.018715
G02 X17.041094 Y15.312059 Z-0.125000 I-0.193432 J-0.017519
G02 X17.041124 Y15.311725 Z-0.125000 I-0.178189 J-0.015833
G02 X17.041152 Y15.311391 Z-0.125000 I-0.172120 J-0.014969
G02 X17.041181 Y15.311051 Z-0.125000 I-0.162384 J-0.013804
G02 X17.041209 Y15.310711 Z-0.125000 I-0.158537 J-0.013143
G02 X17.041236 Y15.310364 Z-0.125000 I-0.152480 J-0.012312
G02 X17.041263 Y15.310016 Z-0.125000 I-0.150178 J-0.011782
G02 X17.041290 Y15.309660 Z-0.125000 I-0.146778 J-0.011173
G03 X17.041327 Y15.309285 Z-0.125000 I0.210587 J0.020532
G03 X17.041363 Y15.308921 Z-0.125000 I0.232917 J0.023128
G03 X17.041400 Y15.308557 Z-0.125000 I0.247765 J0.024993
G03 X17.041437 Y15.308203 Z-0.125000 I0.288863 J0.029568
G03 X17.041474 Y15.307849 Z-0.125000 I0.317963 J0.032940
G03 X17.041510 Y15.307504 Z-0.125000 I0.407500 J0.042675
G03 X17.041547 Y15.307158 Z-0.125000 I0.480691 J0.050751
G03 X17.041583 Y15.306819 Z-0.125000 I0.780395 J0.082965
G03 X17.041619 Y15.306481 Z-0.125000 I1.166538 J0.124586
G02 X17.041654 Y15.306148 Z-0.125000 I-29.924871 J-3.243861
G02 X17.041690 Y15.305815 Z-0.125000 I-2.007535 J-0.214866
G02 X17.041725 Y15.305487 Z-0.125000 I-0.686277 J-0.073337
G02 X17.041760 Y15.305159 Z-0.125000 I-0.513083 J-0.054581
G02 X17.041794 Y15.304833 Z-0.125000 I-0.339346 J-0.035879
G02 X17.041828 Y15.304508 Z-0.125000 I-0.289876 J-0.030368
G02 X17.041861 Y15.304185 Z-0.125000 I-0.224598 J-0.023275
G02 X17.041894 Y15.303862 Z-0.125000 I-0.202079 J-0.020647
G02 X17.041926 Y15.303539 Z-0.125000 I-0.168920 J-0.016986
G02 X17.041958 Y15.303216 Z-0.125000 I-0.156465 J-0.015432
G02 X17.041989 Y15.302892 Z-0.125000 I-0.137062 J-0.013233
G02 X17.042019 Y15.302569 Z-0.125000 I-0.129445 J-0.012189
G02 X17.042048 Y15.302243 Z-0.125000 I-0.117212 J-0.010741
G02 X17.042076 Y15.301917 Z-0.125000 I-0.112304 J-0.009977
G02 X17.042104 Y15.301588 Z-0.125000 I-0.104317 J-0.008963
G02 X17.042131 Y15.301259 Z-0.125000 I-0.101097 J-0.008365
G02 X17.042157 Y15.300925 Z-0.125000 I-0.095870 J-0.007618
G02 X17.042182 Y15.300591 Z-0.125000 I-0.093795 J-0.007125
G02 X17.042206 Y15.300251 Z-0.125000 I-0.090508 J-0.006551
G02 X17.042228 Y15.299911 Z-0.125000 I-0.089264 J-0.006124
G02 X17.042250 Y15.299564 Z-0.125000 I-0.087435 J-0.005664
G02 X17.042271 Y15.299216 Z-0.125000 I-0.086838 J-0.005279
G02 X17.042290 Y15.298860 Z-0.125000 I-0.086178 J-0.004893
G03 X17.042332 Y15.298485 Z-0.125000 I0.209049 J0.022995
G03 X17.042373 Y15.298121 Z-0.125000 I0.244263 J0.027312
G03 X17.042414 Y15.297758 Z-0.125000 I0.269428 J0.030533
G03 X17.042455 Y15.297404 Z-0.125000 I0.348179 J0.039933
G03 X17.042496 Y15.297050 Z-0.125000 I0.414064 J0.047916
G03 X17.042536 Y15.296704 Z-0.125000 I0.699303 J0.081531
G03 X17.042577 Y15.296359 Z-0.125000 I1.107966 J0.129742
G02 X17.042616 Y15.296021 Z-0.125000 I-4.636604 J-0.544559
G02 X17.042656 Y15.295683 Z-0.125000 I-1.242171 J-0.145739
G02 X17.042695 Y15.295351 Z-0.125000 I-0.491377 J-0.057519
G02 X17.042733 Y15.295019 Z-0.125000 I-0.374057 J-0.043529
G02 X17.042771 Y15.294692 Z-0.125000 I-0.250927 J-0.028975
G02 X17.042808 Y15.294365 Z-0.125000 I-0.214812 J-0.024521
G02 X17.042844 Y15.294042 Z-0.125000 I-0.166359 J-0.018734
G02 X17.042879 Y15.293718 Z-0.125000 I-0.149428 J-0.016533
G02 X17.042914 Y15.293398 Z-0.125000 I-0.124247 J-0.013475
G02 X17.042947 Y15.293076 Z-0.125000 I-0.114708 J-0.012141
G02 X17.042980 Y15.292757 Z-0.125000 I-0.099720 J-0.010272
G02 X17.043011 Y15.292437 Z-0.125000 I-0.093791 J-0.009358
G02 X17.043041 Y15.292117 Z-0.125000 I-0.084175 J-0.008108
G02 X17.043070 Y15.291797 Z-0.125000 I-0.080281 J-0.007425
G02 X17.043098 Y15.291476 Z-0.125000 I-0.073858 J-0.006535
G02 X17.043124 Y15.291154 Z-0.125000 I-0.071232 J-0.005990
G02 X17.043149 Y15.290830 Z-0.125000 I-0.066882 J-0.005321
G02 X17.043173 Y15.290506 Z-0.125000 I-0.065111 J-0.004863
G02 X17.043195 Y15.290179 Z-0.125000 I-0.062205 J-0.004335
G02 X17.043215 Y15.289851 Z-0.125000 I-0.061050 J-0.003931
G02 X17.043233 Y15.289518 Z-0.125000 I-0.059216 J-0.003494
G02 X17.043250 Y15.289185 Z-0.125000 I-0.058531 J-0.003124
G02 X17.043265 Y15.288846 Z-0.125000 I-0.057541 J-0.002743
G02 X17.043279 Y15.288507 Z-0.125000 I-0.057236 J-0.002390
G02 X17.043290 Y15.288160 Z-0.125000 I-0.056948 J-0.002040
G03 X17.043334 Y15.287785 Z-0.125000 I0.170724 J0.020060
G03 X17.043378 Y15.287421 Z-0.125000 I0.201600 J0.024137
G03 X17.043423 Y15.287058 Z-0.125000 I0.223978 J0.027226
G03 X17.043467 Y15.286704 Z-0.125000 I0.295937 J0.036461
G03 X17.043511 Y15.286350 Z-0.125000 I0.358529 J0.044608
G03 X17.043554 Y15.286005 Z-0.125000 I0.658546 J0.082597
G01 X17.043640 Y15.285323 Z-0.125000
G02 X17.043683 Y15.284985 Z-0.125000 I-0.732248 J-0.092293
G02 X17.043724 Y15.284654 Z-0.125000 I-0.338147 J-0.042462
G02 X17.043765 Y15.284323 Z-0.125000 I-0.264203 J-0.032914
G02 X17.043805 Y15.283998 Z-0.125000 I-0.182100 J-0.022454
G02 X17.043844 Y15.283672 Z-0.125000 I-0.157088 J-0.019085
G02 X17.043882 Y15.283350 Z-0.125000 I-0.122800 J-0.014661
G02 X17.043919 Y15.283029 Z-0.125000 I-0.110619 J-0.012913
G02 X17.043955 Y15.282710 Z-0.125000 I-0.092281 J-0.010501
G02 X17.043990 Y15.282391 Z-0.125000 I-0.085269 J-0.009405
G02 X17.044023 Y15.282074 Z-0.125000 I-0.074154 J-0.007898
G02 X17.044054 Y15.281757 Z-0.125000 I-0.069727 J-0.007126
G02 X17.044084 Y15.281441 Z-0.125000 I-0.062493 J-0.006100
G02 X17.044113 Y15.281125 Z-0.125000 I-0.059546 J-0.005508
G02 X17.044139 Y15.280808 Z-0.125000 I-0.054646 J-0.004762
G02 X17.044164 Y15.280491 Z-0.125000 I-0.052630 J-0.004279
G01 X17.044187 Y15.280173 Z-0.125000
G01 X17.044208 Y15.279854 Z-0.125000
G01 X17.044227 Y15.279532 Z-0.125000
G01 X17.044243 Y15.279211 Z-0.125000
G01 X17.044258 Y15.278885 Z-0.125000
G01 X17.044270 Y15.278559 Z-0.125000
G01 X17.044279 Y15.278228 Z-0.125000
G01 X17.044286 Y15.277897 Z-0.125000
G01 X17.044290 Y15.277560 Z-0.125000
G03 X17.044338 Y15.277185 Z-0.125000 I0.216285 J0.027576
G03 X17.044386 Y15.276821 Z-0.125000 I0.181241 J0.023428
G03 X17.044434 Y15.276458 Z-0.125000 I0.167063 J0.021936
G03 X17.044481 Y15.276104 Z-0.125000 I0.143741 J0.019192
G03 X17.044530 Y15.275750 Z-0.125000 I0.134036 J0.018232
G03 X17.044578 Y15.275406 Z-0.125000 I0.117746 J0.016333
G03 X17.044628 Y15.275061 Z-0.125000 I0.110833 J0.015705
G03 X17.044677 Y15.274724 Z-0.125000 I0.099072 J0.014353
G03 X17.044728 Y15.274387 Z-0.125000 I0.094011 J0.013946
G03 X17.044778 Y15.274057 Z-0.125000 I0.085329 J0.012971
G03 X17.044831 Y15.273727 Z-0.125000 I0.081555 J0.012720
G03 X17.044883 Y15.273403 Z-0.125000 I0.075059 J0.012019
G03 X17.044937 Y15.273079 Z-0.125000 I0.072217 J0.011884
G03 X17.044992 Y15.272759 Z-0.125000 I0.067331 J0.011391
G03 X17.045049 Y15.272439 Z-0.125000 I0.065187 J0.011347
G03 X17.045106 Y15.272123 Z-0.125000 I0.061527 J0.011021
G03 X17.045165 Y15.271806 Z-0.125000 I0.059923 J0.011052
G03 X17.045226 Y15.271492 Z-0.125000 I0.057227 J0.010868
G03 X17.045288 Y15.271178 Z-0.125000 I0.056055 J0.010965
G03 X17.045352 Y15.270866 Z-0.125000 I0.054145 J0.010906
G03 X17.045418 Y15.270553 Z-0.125000 I0.053329 J0.011063
G03 X17.045486 Y15.270241 Z-0.125000 I0.052080 J0.011123
G03 X17.045555 Y15.269928 Z-0.125000 I0.051570 J0.011338
G03 X17.045627 Y15.269615 Z-0.125000 I0.050898 J0.011514
G03 X17.045701 Y15.269302 Z-0.125000 I0.050660 J0.011789
G03 X17.045778 Y15.268986 Z-0.125000 I0.050513 J0.012085
G03 X17.045856 Y15.268671 Z-0.125000 I0.050527 J0.012423
G03 X17.045938 Y15.268352 Z-0.125000 I0.050877 J0.012846
G03 X17.046021 Y15.268034 Z-0.125000 I0.051132 J0.013252
G03 X17.046108 Y15.267711 Z-0.125000 I0.051970 J0.013815
G03 X17.046197 Y15.267388 Z-0.125000 I0.052469 J0.014298
G03 X17.046290 Y15.267060 Z-0.125000 I0.053805 J0.015018
G01 X17.046342 Y15.266779 Z-0.125000
G02 X17.046394 Y15.266486 Z-0.125000 I-0.060143 J-0.010863
G02 X17.046444 Y15.266194 Z-0.125000 I-0.067834 J-0.011912
G02 X17.046496 Y15.265891 Z-0.125000 I-0.088223 J-0.015100
G02 X17.046546 Y15.265589 Z-0.125000 I-0.102234 J-0.017138
G02 X17.046597 Y15.265278 Z-0.125000 I-0.144308 J-0.023752
G02 X17.046647 Y15.264966 Z-0.125000 I-0.178194 J-0.028936
G02 X17.046698 Y15.264648 Z-0.125000 I-0.317001 J-0.050907
G02 X17.046749 Y15.264329 Z-0.125000 I-0.499340 J-0.079676
G03 X17.046801 Y15.264003 Z-0.125000 I5.572475 J0.885724
G03 X17.046852 Y15.263678 Z-0.125000 I0.820902 J0.130492
G03 X17.046905 Y15.263348 Z-0.125000 I0.310862 J0.049542
G03 X17.046959 Y15.263017 Z-0.125000 I0.239024 J0.038354
G03 X17.047013 Y15.262682 Z-0.125000 I0.164676 J0.026658
G03 X17.047068 Y15.262348 Z-0.125000 I0.142829 J0.023419
G03 X17.047125 Y15.262010 Z-0.125000 I0.113094 J0.018816
G03 X17.047183 Y15.261673 Z-0.125000 I0.102433 J0.017357
G03 X17.047242 Y15.261333 Z-0.125000 I0.086130 J0.014887
G03 X17.047303 Y15.260994 Z-0.125000 I0.079688 J0.014097
G03 X17.047365 Y15.260654 Z-0.125000 I0.069178 J0.012542
G03 X17.047430 Y15.260314 Z-0.125000 I0.064771 J0.012072
G03 X17.047496 Y15.259974 Z-0.125000 I0.057288 J0.010989
G03 X17.047564 Y15.259635 Z-0.125000 I0.054021 J0.010695
G01 X17.047634 Y15.259298 Z-0.125000
G01 X17.047707 Y15.258960 Z-0.125000
G01 X17.047782 Y15.258625 Z-0.125000
G01 X17.047860 Y15.258291 Z-0.125000
G01 X17.047940 Y15.257960 Z-0.125000
G01 X17.048023 Y15.257630 Z-0.125000
G01 X17.048109 Y15.257304 Z-0.125000
G01 X17.048198 Y15.256979 Z-0.125000
G01 X17.048290 Y15.256660 Z-0.125000
G01 X17.048345 Y15.256378 Z-0.125000
G01 X17.048400 Y15.256086 Z-0.125000
G02 X17.048454 Y15.255794 Z-0.125000 I-0.050449 J-0.009353
G02 X17.048507 Y15.255491 Z-0.125000 I-0.063553 J-0.011402
G02 X17.048559 Y15.255189 Z-0.125000 I-0.072092 J-0.012580
G02 X17.048612 Y15.254878 Z-0.125000 I-0.095613 J-0.016272
G02 X17.048663 Y15.254567 Z-0.125000 I-0.112575 J-0.018782
G02 X17.048715 Y15.254249 Z-0.125000 I-0.168052 J-0.027562
G02 X17.048766 Y15.253931 Z-0.125000 I-0.218480 J-0.035407
G02 X17.048818 Y15.253606 Z-0.125000 I-0.505294 J-0.081134
G02 X17.048870 Y15.253282 Z-0.125000 I-1.345051 J-0.215111
G03 X17.048923 Y15.252953 Z-0.125000 I0.612567 J0.097809
G03 X17.048976 Y15.252624 Z-0.125000 I0.359586 J0.057611
G03 X17.049030 Y15.252291 Z-0.125000 I0.198991 J0.032068
G03 X17.049084 Y15.251958 Z-0.125000 I0.163165 J0.026575
G03 X17.049140 Y15.251623 Z-0.125000 I0.120217 J0.019832
G03 X17.049197 Y15.251287 Z-0.125000 I0.106232 J0.017829
G03 X17.049255 Y15.250951 Z-0.125000 I0.086080 J0.014726
G03 X17.049315 Y15.250615 Z-0.125000 I0.078506 J0.013747
G03 X17.049376 Y15.250278 Z-0.125000 I0.066570 J0.011951
G03 X17.049439 Y15.249942 Z-0.125000 I0.061719 J0.011403
G03 X17.049504 Y15.249607 Z-0.125000 I0.053667 J0.010218
G03 X17.049571 Y15.249272 Z-0.125000 I0.050227 J0.009888
G01 X17.049640 Y15.248940 Z-0.125000
G01 X17.049712 Y15.248608 Z-0.125000
G01 X17.049786 Y15.248279 Z-0.125000
G01 X17.049862 Y15.247951 Z-0.125000
G01 X17.049942 Y15.247627 Z-0.125000
G01 X17.050024 Y15.247304 Z-0.125000
G01 X17.050109 Y15.246987 Z-0.125000
G01 X17.050198 Y15.246670 Z-0.125000
G01 X17.050290 Y15.246360 Z-0.125000
G01 X17.050349 Y15.246078 Z-0.125000
G01 X17.050407 Y15.245786 Z-0.125000
G01 X17.050463 Y15.245494 Z-0.125000
G02 X17.050519 Y15.245192 Z-0.125000 I-0.049727 J-0.009331
G02 X17.050573 Y15.244889 Z-0.125000 I-0.055737 J-0.010109
G02 X17.050627 Y15.244579 Z-0.125000 I-0.071525 J-0.012573
G02 X17.050679 Y15.244268 Z-0.125000 I-0.082293 J-0.014098
G02 X17.050732 Y15.243951 Z-0.125000 I-0.114238 J-0.019127
G02 X17.050784 Y15.243633 Z-0.125000 I-0.139619 J-0.022978
G02 X17.050836 Y15.243309 Z-0.125000 I-0.240652 J-0.039043
G02 X17.050888 Y15.242986 Z-0.125000 I-0.366897 J-0.059020
G03 X17.050940 Y15.242658 Z-0.125000 I42.838107 J6.857436
G03 X17.050993 Y15.242330 Z-0.125000 I0.739503 J0.118295
G03 X17.051046 Y15.241999 Z-0.125000 I0.253092 J0.040601
G03 X17.051100 Y15.241668 Z-0.125000 I0.191219 J0.030932
G03 X17.051155 Y15.241335 Z-0.125000 I0.128683 J0.021045
G03 X17.051211 Y15.241002 Z-0.125000 I0.110574 J0.018377
G03 X17.051268 Y15.240669 Z-0.125000 I0.086117 J0.014579
G03 X17.051326 Y15.240335 Z-0.125000 I0.077393 J0.013411
G03 X17.051386 Y15.240003 Z-0.125000 I0.064108 J0.011393
G03 X17.051448 Y15.239670 Z-0.125000 I0.058869 J0.010778
G03 X17.051512 Y15.239339 Z-0.125000 I0.050355 J0.009514
G01 X17.051578 Y15.239009 Z-0.125000
G01 X17.051646 Y15.238682 Z-0.125000
G01 X17.051716 Y15.238355 Z-0.125000
G01 X17.051789 Y15.238033 Z-0.125000
G01 X17.051865 Y15.237711 Z-0.125000
G01 X17.051943 Y15.237394 Z-0.125000
G01 X17.052025 Y15.237078 Z-0.125000
G01 X17.052110 Y15.236769 Z-0.125000
G01 X17.052199 Y15.236461 Z-0.125000
G01 X17.052290 Y15.236160 Z-0.125000
G01 X17.052353 Y15.235878 Z-0.125000
G01 X17.052415 Y15.235586 Z-0.125000
G01 X17.052474 Y15.235294 Z-0.125000
G01 X17.052533 Y15.234992 Z-0.125000
G01 X17.052589 Y15.234690 Z-0.125000
G02 X17.052645 Y15.234380 Z-0.125000 I-0.054318 J-0.009927
G02 X17.052699 Y15.234069 Z-0.125000 I-0.061450 J-0.010869
G02 X17.052753 Y15.233752 Z-0.125000 I-0.081216 J-0.013942
G02 X17.052806 Y15.233435 Z-0.125000 I-0.095622 J-0.016031
G02 X17.052858 Y15.233113 Z-0.125000 I-0.143730 J-0.023607
G02 X17.052910 Y15.232790 Z-0.125000 I-0.188919 J-0.030594
G02 X17.052962 Y15.232463 Z-0.125000 I-0.477187 J-0.076441
G02 X17.053014 Y15.232137 Z-0.125000 I-1.818974 J-0.290072
G03 X17.053067 Y15.231807 Z-0.125000 I0.404118 J0.064376
G03 X17.053120 Y15.231478 Z-0.125000 I0.252343 J0.040410
G03 X17.053174 Y15.231148 Z-0.125000 I0.144386 J0.023315
G03 X17.053228 Y15.230817 Z-0.125000 I0.118890 J0.019478
G03 X17.053284 Y15.230486 Z-0.125000 I0.087592 J0.014600
G03 X17.053341 Y15.230156 Z-0.125000 I0.077213 J0.013170
G03 X17.053400 Y15.229827 Z-0.125000 I0.062105 J0.010867
G03 X17.053460 Y15.229498 Z-0.125000 I0.056371 J0.010172
G01 X17.053522 Y15.229172 Z-0.125000
G01 X17.053586 Y15.228846 Z-0.125000
G01 X17.053653 Y15.228524 Z-0.125000
G01 X17.053722 Y15.228203 Z-0.125000
G01 X17.053793 Y15.227886 Z-0.125000
G01 X17.053868 Y15.227570 Z-0.125000
G01 X17.053945 Y15.227261 Z-0.125000
G01 X17.054026 Y15.226953 Z-0.125000
G01 X17.054110 Y15.226651 Z-0.125000
G01 X17.054199 Y15.226351 Z-0.125000
G01 X17.054290 Y15.226060 Z-0.125000
G01 X17.054357 Y15.225778 Z-0.125000
G01 X17.054422 Y15.225486 Z-0.125000
G01 X17.054484 Y15.225194 Z-0.125000
G01 X17.054545 Y15.224892 Z-0.125000
G01 X17.054603 Y15.224590 Z-0.125000
G01 X17.054660 Y15.224280 Z-0.125000
G02 X17.054715 Y15.223970 Z-0.125000 I-0.051190 J-0.009284
G02 X17.054770 Y15.223654 Z-0.125000 I-0.066092 J-0.011574
G02 X17.054823 Y15.223337 Z-0.125000 I-0.076535 J-0.013025
G02 X17.054876 Y15.223016 Z-0.125000 I-0.109021 J-0.018090
G02 X17.054928 Y15.222694 Z-0.125000 I-0.136609 J-0.022254
G02 X17.054980 Y15.222369 Z-0.125000 I-0.265975 J-0.042686
G02 X17.055032 Y15.222043 Z-0.125000 I-0.490987 J-0.078166
G03 X17.055084 Y15.221716 Z-0.125000 I0.746981 J0.118402
G03 X17.055136 Y15.221388 Z-0.125000 I0.333046 J0.052956
G03 X17.055189 Y15.221060 Z-0.125000 I0.158150 J0.025306
G03 X17.055242 Y15.220732 Z-0.125000 I0.125131 J0.020289
G03 X17.055297 Y15.220404 Z-0.125000 I0.087876 J0.014485
G03 X17.055353 Y15.220077 Z-0.125000 I0.076247 J0.012861
G03 X17.055410 Y15.219751 Z-0.125000 I0.059899 J0.010368
G03 X17.055469 Y15.219426 Z-0.125000 I0.053870 J0.009626
G01 X17.055530 Y15.219104 Z-0.125000
G01 X17.055593 Y15.218783 Z-0.125000
G01 X17.055658 Y15.218466 Z-0.125000
G01 X17.055726 Y15.218150 Z-0.125000
G01 X17.055797 Y15.217840 Z-0.125000
G01 X17.055871 Y15.217530 Z-0.125000
G01 X17.055947 Y15.217228 Z-0.125000
G01 X17.056027 Y15.216927 Z-0.125000
G01 X17.056111 Y15.216634 Z-0.125000
G01 X17.056199 Y15.216342 Z-0.125000
G01 X17.056290 Y15.216060 Z-0.125000
G03 X17.056363 Y15.215779 Z-0.125000 I0.076948 J0.019750
G03 X17.056439 Y15.215486 Z-0.125000 I0.112555 J0.029328
G03 X17.056517 Y15.215194 Z-0.125000 I0.141890 J0.037366
G03 X17.056597 Y15.214892 Z-0.125000 I0.270150 J0.071738
G03 X17.056678 Y15.214590 Z-0.125000 I0.460875 J0.122939
G02 X17.056761 Y15.214280 Z-0.125000 I-1.462101 J-0.391058
G02 X17.056843 Y15.213970 Z-0.125000 I-0.494406 J-0.132116
G02 X17.056927 Y15.213654 Z-0.125000 I-0.218474 J-0.058234
G02 X17.057011 Y15.213337 Z-0.125000 I-0.172286 J-0.045656
G02 X17.057095 Y15.213016 Z-0.125000 I-0.121870 J-0.032056
G02 X17.057178 Y15.212694 Z-0.125000 I-0.106554 J-0.027727
G02 X17.057261 Y15.212369 Z-0.125000 I-0.085095 J-0.021869
G02 X17.057343 Y15.212043 Z-0.125000 I-0.077294 J-0.019550
G02 X17.057423 Y15.211716 Z-0.125000 I-0.065038 J-0.016159
G02 X17.057502 Y15.211388 Z-0.125000 I-0.060172 J-0.014629
G02 X17.057579 Y15.211060 Z-0.125000 I-0.051996 J-0.012342
G01 X17.057653 Y15.210731 Z-0.125000
G01 X17.057725 Y15.210404 Z-0.125000
G01 X17.057794 Y15.210076 Z-0.125000
G01 X17.057860 Y15.209751 Z-0.125000
